ncols        101
nrows        101
xllcorner    412736.042777144641
yllcorner    4624596.874991853721
dx           982.704863755106
dy           742.907128512748
NODATA_value 4294967295
4294967295.0 4294967295 4294967295 4294967295 4294967295 4294967295 4294967295 4294967295 4294967295 4294967295 4294967295 4294967295 4294967295 4294967295 4294967295 4294967295 4294967295 4294967295 4294967295 4294967295 4294967295 4294967295 4294967295 4294967295 4294967295 4294967295 4294967295 4294967295 4294967295 4294967295 4294967295 4294967295 4294967295 4294967295 4294967295 4294967295 4294967295 4294967295 4294967295 4294967295 4294967295 4294967295 4294967295 4294967295 4294967295 4294967295 4294967295 4294967295 4294967295 4294967295 4294967295 4294967295 4294967295 4294967295 4294967295 4294967295 4294967295 4294967295 4294967295 4294967295 4294967295 4294967295 4294967295 4294967295 4294967295 4294967295 4294967295 4294967295 4294967295 4294967295 4294967295 4294967295 4294967295 4294967295 4294967295 4294967295 4294967295 4294967295 4294967295 4294967295 4294967295 4294967295 4294967295 4294967295 4294967295 4294967295 4294967295 4294967295 4294967295 4294967295 4294967295 4294967295 4294967295 4294967295 4294967295 4294967295 4294967295 4294967295 4294967295 4294967295 4294967295 
4294967295 4294967295 4294967295 4294967295 4294967295 4294967295 4294967295 4294967295 4294967295 4294967295 4294967295 4294967295 4294967295 4294967295 4294967295 4294967295 4294967295 4294967295 4294967295 4294967295 4294967295 4294967295 4294967295 4294967295 4294967295 4294967295 3 2 4294967295 4294967295 4294967295 4294967295 4294967295 4294967295 4294967295 4294967295 4294967295 4294967295 4294967295 4294967295 4294967295 4294967295 4294967295 4294967295 4294967295 4294967295 4294967295 4294967295 4294967295 4294967295 4294967295 4294967295 4294967295 4294967295 4294967295 4294967295 4294967295 4294967295 4294967295 4294967295 4294967295 4294967295 4294967295 4294967295 4294967295 4294967295 4294967295 4294967295 4294967295 4294967295 4294967295 4294967295 4294967295 4294967295 4294967295 4294967295 4294967295 4294967295 4294967295 4294967295 4294967295 4294967295 4294967295 4294967295 4294967295 4294967295 4294967295 4294967295 4294967295 4294967295 4294967295 4294967295 4294967295 4294967295 4294967295 4294967295 4294967295 4294967295 4294967295 4294967295 4294967295 
4294967295 4294967295 4294967295 4294967295 4294967295 4294967295 4294967295 4294967295 4294967295 4294967295 4294967295 4294967295 4294967295 4294967295 4294967295 4294967295 4294967295 4294967295 4294967295 4294967295 4294967295 4294967295 4294967295 4294967295 4294967295 4294967295 2 6 1 4294967295 4294967295 4294967295 4294967295 4294967295 4294967295 4294967295 4294967295 4294967295 4294967295 4294967295 4294967295 4294967295 4294967295 4294967295 4294967295 4294967295 4294967295 4294967295 4294967295 4294967295 4294967295 4294967295 4294967295 4294967295 4294967295 4294967295 4294967295 4294967295 4294967295 4294967295 4294967295 4294967295 4294967295 4294967295 4294967295 4294967295 4294967295 4294967295 4294967295 4294967295 4294967295 4294967295 4294967295 4294967295 4294967295 4294967295 4294967295 4294967295 4294967295 4294967295 4294967295 4294967295 4294967295 4294967295 4294967295 4294967295 4294967295 4294967295 4294967295 4294967295 4294967295 4294967295 4294967295 4294967295 4294967295 4294967295 4294967295 4294967295 4294967295 4294967295 4294967295 
4294967295 4294967295 4294967295 4294967295 4294967295 4294967295 4294967295 4294967295 4294967295 4294967295 4294967295 4294967295 4294967295 4294967295 4294967295 4294967295 4294967295 4294967295 2 1 4294967295 4294967295 4294967295 1 5 2 1 153 49 1 3 10 4294967295 4294967295 4294967295 4294967295 4294967295 4294967295 4294967295 4294967295 4294967295 4294967295 4294967295 4294967295 4294967295 4294967295 4294967295 4294967295 4294967295 4294967295 4294967295 4294967295 4294967295 4294967295 4294967295 4294967295 4294967295 4294967295 4294967295 4294967295 4294967295 4294967295 4294967295 4294967295 4294967295 4294967295 4294967295 4294967295 4294967295 4294967295 4294967295 4294967295 4294967295 4294967295 4294967295 4294967295 4294967295 4294967295 4294967295 4294967295 4294967295 4294967295 4294967295 4294967295 4294967295 4294967295 4294967295 4294967295 4294967295 4294967295 4294967295 4294967295 4294967295 4294967295 4294967295 4294967295 4294967295 4294967295 4294967295 4294967295 4294967295 
4294967295 4294967295 4294967295 4294967295 4294967295 4294967295 4294967295 4294967295 4294967295 4294967295 4294967295 4294967295 4294967295 4294967295 4294967295 4294967295 1 5 5 6 5 5 1 116 22 2 3 2 8 21 23 1 1 4294967295 4294967295 4294967295 4294967295 4294967295 4294967295 4294967295 4294967295 4294967295 4294967295 4294967295 4294967295 4294967295 4294967295 4294967295 4294967295 4294967295 4294967295 4294967295 4294967295 4294967295 4294967295 4294967295 4294967295 4294967295 4294967295 4294967295 4294967295 4294967295 4294967295 4294967295 4294967295 4294967295 4294967295 4294967295 4294967295 4294967295 4294967295 4294967295 4294967295 4294967295 4294967295 4294967295 4294967295 4294967295 4294967295 4294967295 4294967295 4294967295 4294967295 4294967295 4294967295 4294967295 4294967295 4294967295 4294967295 4294967295 4294967295 4294967295 4294967295 4294967295 4294967295 4294967295 4294967295 4294967295 4294967295 4294967295 4294967295 
4294967295 4294967295 4294967295 4294967295 4294967295 4294967295 4294967295 4294967295 4294967295 4294967295 4294967295 4294967295 4294967295 4294967295 4294967295 4294967295 1 2 2 3 2 73 1 4 14 20 2 9 5 1 4 2 1 1 4294967295 4294967295 4294967295 4294967295 4294967295 4294967295 4294967295 4294967295 4294967295 4294967295 4294967295 4294967295 4294967295 4294967295 4294967295 4294967295 4294967295 4294967295 4294967295 4294967295 4294967295 4294967295 4294967295 4294967295 4294967295 4294967295 4294967295 4294967295 4294967295 4294967295 4294967295 4294967295 4294967295 4294967295 4294967295 4294967295 4294967295 4294967295 4294967295 4294967295 4294967295 4294967295 4294967295 4294967295 4294967295 4294967295 4294967295 4294967295 4294967295 4294967295 4294967295 4294967295 4294967295 4294967295 4294967295 4294967295 4294967295 4294967295 4294967295 4294967295 4294967295 4294967295 4294967295 4294967295 4294967295 4294967295 4294967295 
4294967295 4294967295 4294967295 4294967295 4294967295 4294967295 4294967295 4294967295 4294967295 4294967295 4294967295 4294967295 4294967295 4294967295 4294967295 4294967295 1 11 2 2 3 3 2 3 12 2 31 18 2 3 305 4 6 101 5 4294967295 4294967295 4294967295 4294967295 4294967295 4294967295 4294967295 4294967295 4294967295 4294967295 4294967295 4294967295 4294967295 4294967295 4294967295 4294967295 4294967295 4294967295 4294967295 4294967295 4294967295 4294967295 4294967295 4294967295 4294967295 4294967295 4294967295 4294967295 4294967295 4294967295 4294967295 4294967295 4294967295 4294967295 4294967295 4294967295 4294967295 4294967295 4294967295 4294967295 4294967295 4294967295 4294967295 4294967295 4294967295 4294967295 4294967295 4294967295 4294967295 4294967295 4294967295 4294967295 4294967295 4294967295 4294967295 4294967295 4294967295 4294967295 4294967295 4294967295 4294967295 4294967295 4294967295 4294967295 4294967295 4294967295 
4294967295 4294967295 4294967295 4294967295 4294967295 4294967295 4294967295 4294967295 4294967295 4294967295 4294967295 4294967295 4294967295 4294967295 4294967295 3 5 4 3 151 2 6 12 1 1 2 1 3 3 2 6 4 3 4 2 7 2 2 4294967295 4294967295 4294967295 4294967295 4294967295 4294967295 4294967295 4294967295 4294967295 4294967295 4294967295 4294967295 4294967295 4294967295 4294967295 4294967295 4294967295 4294967295 4294967295 4294967295 4294967295 4294967295 4294967295 4294967295 4294967295 4294967295 4294967295 4294967295 4294967295 4294967295 4294967295 4294967295 4294967295 4294967295 4294967295 4294967295 4294967295 4294967295 4294967295 4294967295 4294967295 4294967295 4294967295 4294967295 4294967295 4294967295 4294967295 4294967295 4294967295 4294967295 4294967295 4294967295 4294967295 4294967295 4294967295 4294967295 4294967295 4294967295 4294967295 4294967295 4294967295 4294967295 4294967295 
4294967295 4294967295 4294967295 4294967295 4294967295 4294967295 4294967295 4294967295 4294967295 4294967295 4294967295 4294967295 4294967295 4294967295 4294967295 7 1 1 5 2 4 1 3 2 6 2 8 3 1 3 2 9 7 22 3 3 2 1 3 3 1 4294967295 4294967295 4294967295 4294967295 4294967295 4294967295 4294967295 4294967295 4294967295 4294967295 4294967295 4294967295 4294967295 4294967295 4294967295 4294967295 4294967295 4294967295 4294967295 4294967295 4294967295 4294967295 4294967295 4294967295 4294967295 4294967295 4294967295 4294967295 4294967295 4294967295 4294967295 4294967295 4294967295 4294967295 4294967295 4294967295 4294967295 4294967295 4294967295 4294967295 4294967295 4294967295 4294967295 4294967295 4294967295 4294967295 4294967295 4294967295 4294967295 4294967295 4294967295 4294967295 4294967295 4294967295 4294967295 4294967295 4294967295 4294967295 4294967295 4294967295 
4294967295 4294967295 4294967295 4294967295 4294967295 4294967295 4294967295 4294967295 4294967295 4294967295 4294967295 4294967295 4294967295 4294967295 1 5 1 1 3293 7 2 1 1 2 24 4 3 2 1 1 5107 10 44 3 28 3 4 917 1 1 3 4294967295 4294967295 4294967295 4294967295 4294967295 4294967295 4294967295 4294967295 4294967295 4294967295 4294967295 4294967295 4294967295 4294967295 4294967295 4294967295 4294967295 4294967295 4294967295 4294967295 4294967295 4294967295 4294967295 4294967295 4294967295 4294967295 4294967295 4294967295 4294967295 4294967295 4294967295 4294967295 4294967295 4294967295 4294967295 4294967295 4294967295 4294967295 4294967295 4294967295 4294967295 4294967295 4294967295 4294967295 4294967295 4294967295 4294967295 4294967295 4294967295 4294967295 4294967295 4294967295 4294967295 4294967295 4294967295 4294967295 4294967295 4294967295 4294967295 4294967295 
4294967295 4294967295 4294967295 4294967295 4294967295 4294967295 4294967295 4294967295 4294967295 4294967295 4294967295 4294967295 4294967295 1 8 5 1 4 3427 1 5 3591 94 1 1 51 1 8 2 4 6895 8 6 1 4 6 2 1 6 3 2 1 4294967295 4294967295 4294967295 4294967295 4294967295 4294967295 4294967295 4294967295 4294967295 4294967295 4294967295 4294967295 4294967295 4294967295 4294967295 4294967295 4294967295 4294967295 4294967295 4294967295 4294967295 4294967295 4294967295 4294967295 4294967295 4294967295 4294967295 4294967295 4294967295 4294967295 4294967295 4294967295 4294967295 4294967295 4294967295 4294967295 4294967295 4294967295 4294967295 4294967295 4294967295 4294967295 4294967295 4294967295 4294967295 4294967295 4294967295 4294967295 4294967295 4294967295 4294967295 4294967295 4294967295 4294967295 4294967295 4294967295 4294967295 4294967295 4294967295 
4294967295 4294967295 4294967295 4294967295 4294967295 4294967295 4294967295 4294967295 4294967295 4294967295 4294967295 4294967295 10 1 41 5 1 4 2 7 9 3 3 1 17 1 1 9 4 2 1 1 2 1 12 6 2 4 3 694 1 24 4294967295 4294967295 4294967295 4294967295 4294967295 4294967295 4294967295 4294967295 4294967295 4294967295 4294967295 4294967295 4294967295 4294967295 4294967295 4294967295 4294967295 4294967295 4294967295 4294967295 4294967295 4294967295 4294967295 4294967295 4294967295 4294967295 4294967295 4294967295 4294967295 4294967295 4294967295 4294967295 4294967295 4294967295 4294967295 4294967295 4294967295 4294967295 4294967295 4294967295 4294967295 4294967295 4294967295 4294967295 4294967295 4294967295 4294967295 4294967295 4294967295 4294967295 4294967295 4294967295 4294967295 4294967295 4294967295 4294967295 4294967295 4294967295 4294967295 
4294967295 4294967295 4294967295 4294967295 4294967295 4294967295 4294967295 4294967295 4294967295 4294967295 1 11 1 4 4 7 6 2 1 2 1 4 6 2 1 1 1 7 15 7812 2 1 1 6 1 5 2 1 11 1 2 2 4294967295 4294967295 4294967295 4294967295 4294967295 4294967295 4294967295 4294967295 4294967295 4294967295 4294967295 4294967295 4294967295 4294967295 4294967295 4294967295 4294967295 4294967295 4294967295 4294967295 4294967295 4294967295 4294967295 4294967295 4294967295 4294967295 4294967295 4294967295 4294967295 4294967295 4294967295 4294967295 4294967295 4294967295 4294967295 4294967295 4294967295 4294967295 4294967295 4294967295 4294967295 4294967295 4294967295 4294967295 4294967295 4294967295 4294967295 4294967295 4294967295 4294967295 4294967295 4294967295 4294967295 4294967295 4294967295 4294967295 4294967295 4294967295 4294967295 
4294967295 4294967295 4294967295 4294967295 4294967295 4294967295 4294967295 1 4 5 6 82 2 1 4 3 8 9 2 4 1 4 6 3 4 1 2 4 1 9989 2 3 11 112 2 3 12 1 2 4 786 4294967295 4294967295 4294967295 4294967295 4294967295 4294967295 4294967295 4294967295 4294967295 4294967295 4294967295 4294967295 4294967295 4294967295 4294967295 4294967295 4294967295 4294967295 4294967295 4294967295 4294967295 4294967295 4294967295 4294967295 4294967295 4294967295 4294967295 4294967295 4294967295 4294967295 4294967295 4294967295 4294967295 4294967295 4294967295 4294967295 4294967295 4294967295 4294967295 4294967295 4294967295 4294967295 4294967295 4294967295 4294967295 4294967295 4294967295 4294967295 4294967295 4294967295 4294967295 4294967295 4294967295 4294967295 4294967295 4294967295 4294967295 4294967295 4294967295 4294967295 
4294967295 4294967295 4294967295 4294967295 4294967295 4294967295 3 2 5 2 6 2 3 1 6 4 1 2 26 1 1 13 18 3 56 2 7 4 2 54 1 1 4 4 7 11 5 1 2 4 3 4294967295 4294967295 4294967295 4294967295 4294967295 4294967295 4294967295 4294967295 4294967295 4294967295 4294967295 4294967295 4294967295 4294967295 4294967295 4294967295 4294967295 4294967295 4294967295 4294967295 4294967295 4294967295 4294967295 4294967295 4294967295 4294967295 4294967295 4294967295 4294967295 4294967295 4294967295 4294967295 4294967295 4294967295 4294967295 4294967295 4294967295 4294967295 4294967295 4294967295 4294967295 4294967295 4294967295 4294967295 4294967295 4294967295 4294967295 4294967295 4294967295 4294967295 4294967295 4294967295 4294967295 4294967295 4294967295 4294967295 4294967295 4294967295 4294967295 4294967295 
4294967295 4294967295 4294967295 4294967295 3 1 1 1 41 15 169 5 7 5 2 5 3 7 2 6 9 16 6 2 4 6 76 6 1 3 2 2 14 2 4 6 6 2 1 3 4 4294967295 4294967295 4294967295 4294967295 4294967295 4294967295 4294967295 4294967295 4294967295 4294967295 4294967295 4294967295 4294967295 4294967295 4294967295 4294967295 4294967295 4294967295 4294967295 4294967295 4294967295 4294967295 4294967295 4294967295 4294967295 4294967295 4294967295 4294967295 4294967295 4294967295 4294967295 4294967295 4294967295 4294967295 4294967295 4294967295 4294967295 4294967295 4294967295 4294967295 4294967295 4294967295 4294967295 4294967295 4294967295 4294967295 4294967295 4294967295 4294967295 4294967295 4294967295 4294967295 4294967295 4294967295 4294967295 4294967295 4294967295 4294967295 4294967295 4294967295 
4294967295 4294967295 4294967295 4294967295 26 3 1 60 7 2 3 36 6 12 10 3 2 3 1 28 8 4 5 3 2 1 1 40 2 2 8 6 23 4 11 5 8 11 4 2 4294967295 4294967295 4294967295 4294967295 4294967295 4294967295 4294967295 4294967295 4294967295 4294967295 4294967295 4294967295 4294967295 4294967295 4294967295 4294967295 4294967295 4294967295 4294967295 4294967295 4294967295 4294967295 4294967295 4294967295 4294967295 4294967295 4294967295 4294967295 4294967295 4294967295 4294967295 4294967295 4294967295 4294967295 4294967295 4294967295 4294967295 4294967295 4294967295 4294967295 4294967295 4294967295 4294967295 4294967295 4294967295 4294967295 4294967295 4294967295 4294967295 4294967295 4294967295 4294967295 4294967295 4294967295 4294967295 4294967295 4294967295 4294967295 4294967295 4294967295 4294967295 
4294967295 4294967295 4294967295 4294967295 4 3 2 5 2 2 1 37 5 2 18 1 7 5 1 9 1 3 2 7 4 3 3 6 3 465 5 8 1 4 5 1 4 1 2 1 4294967295 4294967295 4294967295 4294967295 4294967295 4294967295 4294967295 4294967295 4294967295 4294967295 4294967295 4294967295 4294967295 4294967295 4294967295 4294967295 4294967295 4294967295 4294967295 4294967295 4294967295 4294967295 4294967295 4294967295 4294967295 4294967295 4294967295 4294967295 4294967295 4294967295 4294967295 4294967295 4294967295 4294967295 4294967295 4294967295 4294967295 4294967295 4294967295 4294967295 4294967295 4294967295 4294967295 4294967295 4294967295 4294967295 4294967295 4294967295 4294967295 4294967295 4294967295 4294967295 4294967295 4294967295 4294967295 4294967295 4294967295 4294967295 4294967295 4294967295 4294967295 
4294967295 4294967295 4 1 2 1 3277 152 5 5 1 51 21 1 4 2 5 1 2 1 8 11 19 5 6 7 1 127 13 4 3 3 1 2 4 1 3 1 1 4294967295 4294967295 4294967295 4294967295 4294967295 4294967295 4294967295 4294967295 4294967295 4294967295 4294967295 4294967295 4294967295 4294967295 4294967295 4294967295 4294967295 4294967295 4294967295 4294967295 4294967295 4294967295 4294967295 4294967295 4294967295 4294967295 4294967295 4294967295 4294967295 4294967295 4294967295 4294967295 4294967295 4294967295 4294967295 4294967295 4294967295 4294967295 4294967295 4294967295 4294967295 4294967295 4294967295 4294967295 4294967295 4294967295 4294967295 4294967295 4294967295 4294967295 4294967295 4294967295 4294967295 4294967295 4294967295 4294967295 4294967295 4294967295 4294967295 4294967295 4294967295 4294967295 
4294967295 4294967295 54 4 4 4 6 13 2 3 4 7 5 8 2 6 13 9 1 2 36 4 10 13 5 2 4 4 3 4 5 3 2 2 2 4 8058 1 4294967295 4294967295 4294967295 4294967295 4294967295 4294967295 4294967295 4294967295 4294967295 4294967295 4294967295 4294967295 4294967295 4294967295 4294967295 4294967295 4294967295 4294967295 4294967295 4294967295 4294967295 4294967295 4294967295 4294967295 4294967295 4294967295 4294967295 4294967295 4294967295 4294967295 4294967295 4294967295 4294967295 4294967295 4294967295 4294967295 4294967295 4294967295 4294967295 4294967295 4294967295 4294967295 4294967295 4294967295 4294967295 4294967295 4294967295 4294967295 4294967295 4294967295 4294967295 4294967295 4294967295 4294967295 4294967295 4294967295 4294967295 4294967295 4294967295 4294967295 4294967295 4294967295 4294967295 
2 1 1 11 43 1 4294967295 2 7 5 7 2 24 2 9 16 2 3 14258 2 9 3 163 396 2168 1 1 1 7 2 2 2 2 16 5 28 6 2 4294967295 4294967295 4294967295 4294967295 4294967295 4294967295 4294967295 4294967295 4294967295 4294967295 4294967295 4294967295 4294967295 4294967295 4294967295 4294967295 4294967295 4294967295 4294967295 4294967295 4294967295 4294967295 4294967295 4294967295 4294967295 4294967295 4294967295 4294967295 4294967295 4294967295 4294967295 4294967295 4294967295 4294967295 4294967295 4294967295 4294967295 4294967295 4294967295 4294967295 4294967295 4294967295 4294967295 4294967295 4294967295 4294967295 4294967295 4294967295 4294967295 4294967295 4294967295 4294967295 4294967295 4294967295 4294967295 4294967295 4294967295 4294967295 4294967295 4294967295 4294967295 4294967295 4294967295 
4294967295 221 2 2 4294967295 4294967295 4294967295 4294967295 1 1 48 195 1 26 4 3 7 11 2 2 1 4 3 5 1 1 513 1 1 1 27 63 5 1 6 3 1 4294967295 4294967295 4294967295 4294967295 4294967295 4294967295 4294967295 4294967295 4294967295 4294967295 4294967295 4294967295 4294967295 4294967295 4294967295 4294967295 4294967295 4294967295 4294967295 4294967295 4294967295 4294967295 4294967295 4294967295 4294967295 4294967295 4294967295 4294967295 4294967295 4294967295 4294967295 4294967295 4294967295 4294967295 4294967295 4294967295 4294967295 4294967295 4294967295 4294967295 4294967295 4294967295 4294967295 4294967295 4294967295 4294967295 4294967295 4294967295 4294967295 4294967295 4294967295 4294967295 4294967295 4294967295 4294967295 4294967295 4294967295 4294967295 4294967295 4294967295 4294967295 4294967295 4294967295 4294967295 
4294967295 4294967295 4294967295 4294967295 4294967295 4294967295 4294967295 4294967295 4294967295 4294967295 2 3 117 2 1 1 1 1 17 2 9 2 1 1 2 2 2 1 1 2 2 1 3 9 144 8 5 4294967295 4294967295 4294967295 4294967295 4294967295 4294967295 4294967295 4294967295 4294967295 4294967295 4294967295 4294967295 4294967295 4294967295 4294967295 4294967295 4294967295 4294967295 4294967295 4294967295 4294967295 4294967295 4294967295 4294967295 4294967295 4294967295 4294967295 4294967295 4294967295 4294967295 4294967295 4294967295 4294967295 4294967295 4294967295 4294967295 4294967295 4294967295 4294967295 4294967295 4294967295 4294967295 4294967295 4294967295 4294967295 4294967295 4294967295 4294967295 4294967295 4294967295 4294967295 4294967295 4294967295 4294967295 4294967295 4294967295 4294967295 4294967295 4294967295 4294967295 4294967295 4294967295 4294967295 4294967295 
4294967295 4294967295 4294967295 4294967295 4294967295 4294967295 4294967295 4294967295 4294967295 4294967295 4294967295 2 4 16 1 5 3 5 24 1 3 7 5 3 1 11 6 2 2 7 1 8 9 5 4 2 7 2 4294967295 4294967295 4294967295 4294967295 4294967295 4294967295 4294967295 4294967295 4294967295 4294967295 4294967295 4294967295 4294967295 4294967295 4294967295 4294967295 4294967295 4294967295 4294967295 4294967295 4294967295 4294967295 4294967295 4294967295 4294967295 4294967295 4294967295 4294967295 4294967295 4294967295 4294967295 4294967295 4294967295 4294967295 4294967295 4294967295 4294967295 4294967295 4294967295 4294967295 4294967295 4294967295 4294967295 4294967295 4294967295 4294967295 4294967295 4294967295 4294967295 4294967295 4294967295 4294967295 4294967295 4294967295 4294967295 4294967295 4294967295 4294967295 4294967295 4294967295 4294967295 4294967295 4294967295 
4294967295 4294967295 4294967295 4294967295 4294967295 4294967295 4294967295 4294967295 4294967295 4294967295 2 4 4 1 3 8 2 2 5 6 4 12 1 3 1 1 3 5 2 5 2 2 2 3 1 1 2 2 4294967295 4294967295 4294967295 4294967295 4294967295 4294967295 4294967295 4294967295 4294967295 4294967295 4294967295 4294967295 4294967295 4294967295 4294967295 4294967295 4294967295 4294967295 4294967295 4294967295 4294967295 4294967295 4294967295 4294967295 4294967295 4294967295 4294967295 4294967295 4294967295 4294967295 4294967295 4294967295 4294967295 4294967295 4294967295 4294967295 4294967295 4294967295 4294967295 4294967295 4294967295 4294967295 4294967295 4294967295 4294967295 4294967295 4294967295 4294967295 4294967295 4294967295 4294967295 4294967295 4294967295 4294967295 4294967295 4294967295 4294967295 4294967295 4294967295 4294967295 4294967295 4294967295 4294967295 
4294967295 4294967295 4294967295 4294967295 4294967295 4294967295 4294967295 4294967295 4294967295 4294967295 3 12 8 8 9 1 6 2 2 563 2 1 2 5 7 3 1 28 10 6 6 2 3 6 51 1 13 4294967295 4294967295 4294967295 4294967295 4294967295 4294967295 4294967295 4294967295 4294967295 4294967295 4294967295 4294967295 4294967295 4294967295 4294967295 4294967295 4294967295 4294967295 4294967295 4294967295 4294967295 4294967295 4294967295 4294967295 4294967295 4294967295 4294967295 4294967295 4294967295 4294967295 4294967295 4294967295 4294967295 4294967295 4294967295 4294967295 4294967295 4294967295 4294967295 4294967295 4294967295 4294967295 4294967295 4294967295 4294967295 4294967295 4294967295 4294967295 4294967295 4294967295 4294967295 4294967295 4294967295 4294967295 4294967295 4294967295 4294967295 4294967295 4294967295 4294967295 4294967295 4294967295 4294967295 4294967295 
4294967295 4294967295 4294967295 4294967295 4294967295 4294967295 4294967295 4294967295 4294967295 2 1 7 2 1 2 2 2 165 2 3 23 6 5 5 116 3 3 176 2 12 5 2 1 2 1 6 4294967295 4294967295 4294967295 4294967295 4294967295 4294967295 4294967295 4294967295 4294967295 4294967295 4294967295 4294967295 4294967295 4294967295 4294967295 4294967295 4294967295 4294967295 4294967295 4294967295 4294967295 4294967295 4294967295 4294967295 4294967295 4294967295 4294967295 4294967295 4294967295 4294967295 4294967295 4294967295 4294967295 4294967295 4294967295 4294967295 4294967295 4294967295 4294967295 4294967295 4294967295 4294967295 4294967295 4294967295 4294967295 4294967295 4294967295 4294967295 4294967295 4294967295 4294967295 4294967295 4294967295 4294967295 4294967295 4294967295 4294967295 4294967295 4294967295 4294967295 4294967295 4294967295 4294967295 4294967295 4294967295 
4294967295 4294967295 4294967295 4294967295 4294967295 4294967295 4294967295 4294967295 4294967295 29 225 7 100 1 5 1 4 1 2 1 1 3 4 4 5 1 3 4 6 3 1 2 2 1 6 33616 4294967295 4294967295 4294967295 4294967295 4294967295 4294967295 4294967295 4294967295 4294967295 4294967295 4294967295 4294967295 4294967295 4294967295 4294967295 4294967295 4294967295 4294967295 4294967295 4294967295 4294967295 4294967295 4294967295 4294967295 4294967295 4294967295 4294967295 4294967295 4294967295 4294967295 4294967295 4294967295 4294967295 4294967295 4294967295 4294967295 4294967295 4294967295 4294967295 4294967295 4294967295 4294967295 4294967295 4294967295 4294967295 4294967295 4294967295 4294967295 4294967295 4294967295 4294967295 4294967295 4294967295 4294967295 4294967295 4294967295 4294967295 4294967295 4294967295 4294967295 4294967295 4294967295 4294967295 4294967295 4294967295 
4294967295 4294967295 4294967295 4294967295 4294967295 4294967295 4294967295 4294967295 4294967295 4 1 2 255 5 4 2 1 4 1 1 2 1 6 3 3 18 5 2 1 1 3 5 16 8 6 1 4294967295 4294967295 4294967295 4294967295 4294967295 4294967295 4294967295 4294967295 4294967295 4294967295 4294967295 4294967295 4294967295 4294967295 4294967295 4294967295 4294967295 4294967295 4294967295 4294967295 4294967295 4294967295 4294967295 4294967295 4294967295 4294967295 4294967295 4294967295 4294967295 4294967295 4294967295 4294967295 4294967295 4294967295 4294967295 4294967295 4294967295 4294967295 4294967295 4294967295 4294967295 4294967295 4294967295 4294967295 4294967295 4294967295 4294967295 4294967295 4294967295 4294967295 4294967295 4294967295 4294967295 4294967295 4294967295 4294967295 4294967295 4294967295 4294967295 4294967295 4294967295 4294967295 4294967295 4294967295 4294967295 
4294967295 4294967295 4294967295 4294967295 4294967295 4294967295 4294967295 4294967295 2 55 9 2775 340 1 3 2 1 5 4 5 6 5 6 12 2 6 7 4 2 1 1 6 35393 2 3 4294967295 4294967295 4294967295 4294967295 4294967295 4294967295 4294967295 4294967295 4294967295 4294967295 4294967295 4294967295 4294967295 4294967295 4294967295 4294967295 4294967295 4294967295 4294967295 4294967295 4294967295 4294967295 4294967295 4294967295 4294967295 4294967295 4294967295 4294967295 4294967295 4294967295 4294967295 4294967295 4294967295 4294967295 4294967295 4294967295 4294967295 4294967295 4294967295 4294967295 4294967295 4294967295 4294967295 4294967295 4294967295 4294967295 4294967295 4294967295 4294967295 4294967295 4294967295 4294967295 4294967295 4294967295 4294967295 4294967295 4294967295 4294967295 4294967295 4294967295 4294967295 4294967295 4294967295 4294967295 4294967295 4294967295 
4294967295 4294967295 4294967295 4294967295 4294967295 4294967295 4294967295 4294967295 4294967295 2 7 685 1 4 3 2 2 13 1 1 3 1 2 27 96 7 4 3 235 1 39042 15 5 1 4294967295 4294967295 4294967295 4294967295 4294967295 4294967295 4294967295 4294967295 4294967295 4294967295 4294967295 4294967295 4294967295 4294967295 4294967295 4294967295 4294967295 4294967295 4294967295 4294967295 4294967295 4294967295 4294967295 4294967295 4294967295 4294967295 4294967295 4294967295 4294967295 4294967295 4294967295 4294967295 4294967295 4294967295 4294967295 4294967295 4294967295 4294967295 4294967295 4294967295 4294967295 4294967295 4294967295 4294967295 4294967295 4294967295 4294967295 4294967295 4294967295 4294967295 4294967295 4294967295 4294967295 4294967295 4294967295 4294967295 4294967295 4294967295 4294967295 4294967295 4294967295 4294967295 4294967295 4294967295 4294967295 4294967295 4294967295 
4294967295 4294967295 4294967295 4294967295 4294967295 4294967295 4294967295 4294967295 4294967295 2 4 599 2 85 280 2 4 2 1 2 5 1 1 230 1 1 7 3 1 46 2 1 5 1 4294967295 4294967295 4294967295 4294967295 4294967295 4294967295 4294967295 4294967295 4294967295 4294967295 4294967295 4294967295 4294967295 4294967295 4294967295 4294967295 4294967295 4294967295 4294967295 4294967295 4294967295 4294967295 4294967295 4294967295 4294967295 4294967295 4294967295 4294967295 4294967295 4294967295 4294967295 4294967295 4294967295 4294967295 4294967295 4294967295 4294967295 4294967295 4294967295 4294967295 4294967295 4294967295 4294967295 4294967295 4294967295 4294967295 4294967295 4294967295 4294967295 4294967295 4294967295 4294967295 4294967295 4294967295 4294967295 4294967295 4294967295 4294967295 4294967295 4294967295 4294967295 4294967295 4294967295 4294967295 4294967295 4294967295 4294967295 
4294967295 4294967295 4294967295 4294967295 4294967295 4294967295 4294967295 4294967295 4294967295 5 2 2 1 1 1 1 1 1 1 1 3 3 2 2 3 182 4 29 3 2 3 1 5 10 4294967295 4294967295 4294967295 4294967295 4294967295 4294967295 4294967295 4294967295 4294967295 4294967295 4294967295 4294967295 4294967295 4294967295 4294967295 4294967295 4294967295 4294967295 4294967295 4294967295 4294967295 4294967295 4294967295 4294967295 4294967295 4294967295 4294967295 4294967295 4294967295 4294967295 4294967295 4294967295 4294967295 4294967295 4294967295 4294967295 4294967295 4294967295 4294967295 4294967295 4294967295 4294967295 4294967295 4294967295 4294967295 4294967295 4294967295 4294967295 4294967295 4294967295 4294967295 4294967295 4294967295 4294967295 4294967295 4294967295 4294967295 4294967295 4294967295 4294967295 4294967295 4294967295 4294967295 4294967295 4294967295 4294967295 4294967295 
4294967295 4294967295 4294967295 4294967295 4294967295 4294967295 4294967295 4294967295 4294967295 3 1 4 2 2 13 4 1 1 15 5 18 5 1 3 1288 47501 1 2 68 1 6 14 3 15 4294967295 4294967295 4294967295 4294967295 4294967295 4294967295 4294967295 4294967295 4294967295 4294967295 4294967295 4294967295 4294967295 4294967295 4294967295 4294967295 4294967295 4294967295 4294967295 4294967295 4294967295 4294967295 4294967295 4294967295 4294967295 4294967295 4294967295 4294967295 4294967295 4294967295 4294967295 4294967295 4294967295 4294967295 4294967295 4294967295 4294967295 4294967295 4294967295 4294967295 4294967295 4294967295 4294967295 4294967295 4294967295 4294967295 4294967295 4294967295 4294967295 4294967295 4294967295 4294967295 4294967295 4294967295 4294967295 4294967295 4294967295 4294967295 4294967295 4294967295 4294967295 4294967295 4294967295 4294967295 4294967295 4294967295 4294967295 
4294967295 4294967295 4294967295 4294967295 4294967295 4294967295 4294967295 4294967295 4294967295 4294967295 2 2 3 7 1 25 2 4 1 3 1 4 6 4 18 22 2 7 23 2 2 1 3 4294967295 4294967295 4294967295 4294967295 4294967295 4294967295 4294967295 4294967295 4294967295 4294967295 4294967295 4294967295 4294967295 4294967295 4294967295 4294967295 4294967295 4294967295 4294967295 4294967295 4294967295 4294967295 4294967295 4294967295 4294967295 4294967295 4294967295 4294967295 4294967295 4294967295 4294967295 4294967295 4294967295 4294967295 4294967295 4294967295 4294967295 4294967295 4294967295 4294967295 4294967295 4294967295 4294967295 4294967295 4294967295 4294967295 4294967295 4294967295 4294967295 4294967295 4294967295 4294967295 4294967295 4294967295 4294967295 4294967295 4294967295 4294967295 4294967295 4294967295 4294967295 4294967295 4294967295 4294967295 4294967295 4294967295 4294967295 4294967295 
4294967295 4294967295 4294967295 4294967295 4294967295 4294967295 4294967295 4294967295 4294967295 4294967295 4294967295 4294967295 33 1 1 1 1 2 1 4 2 6 1 337 3 1 1 41 1 3 11 6 7 4294967295 4294967295 4294967295 4294967295 4294967295 4294967295 4294967295 4294967295 4294967295 4294967295 4294967295 4294967295 4294967295 4294967295 4294967295 4294967295 4294967295 4294967295 4294967295 4294967295 4294967295 4294967295 4294967295 4294967295 4294967295 4294967295 4294967295 4294967295 4294967295 4294967295 4294967295 4294967295 4294967295 4294967295 4294967295 4294967295 4294967295 4294967295 4294967295 4294967295 4294967295 4294967295 4294967295 4294967295 4294967295 4294967295 4294967295 4294967295 4294967295 4294967295 4294967295 4294967295 4294967295 4294967295 4294967295 4294967295 4294967295 4294967295 4294967295 4294967295 4294967295 4294967295 4294967295 4294967295 4294967295 4294967295 4294967295 4294967295 
4294967295 4294967295 4294967295 4294967295 4294967295 4294967295 4294967295 4294967295 4294967295 4294967295 4294967295 4294967295 1 4 1 2 10 1 3 3 5 1 1 3 15 3 3 2 1 1 2 3 3 1 4294967295 4294967295 4294967295 4294967295 4294967295 4294967295 4294967295 4294967295 4294967295 4294967295 4294967295 4294967295 4294967295 4294967295 4294967295 4294967295 4294967295 4294967295 4294967295 4294967295 4294967295 4294967295 4294967295 4294967295 4294967295 4294967295 4294967295 4294967295 4294967295 4294967295 4294967295 4294967295 4294967295 4294967295 4294967295 4294967295 4294967295 4294967295 4294967295 4294967295 4294967295 4294967295 4294967295 4294967295 4294967295 4294967295 4294967295 4294967295 4294967295 4294967295 4294967295 4294967295 4294967295 4294967295 4294967295 4294967295 4294967295 4294967295 4294967295 4294967295 4294967295 4294967295 4294967295 4294967295 4294967295 4294967295 4294967295 
4294967295 4294967295 4294967295 4294967295 4294967295 4294967295 4294967295 4294967295 4294967295 4294967295 4294967295 4294967295 1 346 2 3 1 1 1 8 1 11 18 5 2 6 4 15 9 24 7 11 3 34 4294967295 4294967295 4294967295 4294967295 4294967295 4294967295 4294967295 4294967295 4294967295 4294967295 4294967295 4294967295 4294967295 4294967295 4294967295 4294967295 4294967295 4294967295 4294967295 4294967295 4294967295 4294967295 4294967295 4294967295 4294967295 4294967295 4294967295 4294967295 4294967295 4294967295 4294967295 4294967295 4294967295 4294967295 4294967295 4294967295 4294967295 4294967295 4294967295 4294967295 4294967295 4294967295 4294967295 4294967295 4294967295 4294967295 4294967295 4294967295 4294967295 4294967295 4294967295 4294967295 4294967295 4294967295 4294967295 4294967295 4294967295 4294967295 4294967295 4294967295 4294967295 4294967295 4294967295 4294967295 4294967295 4294967295 4294967295 
4294967295 4294967295 4294967295 4294967295 4294967295 4294967295 4294967295 4294967295 4294967295 4294967295 4294967295 4294967295 5 2 1 5 1 3 5 5 3 108287 3 4 2 14 3 134 15 2 1 6 5 3 2 4294967295 4294967295 4294967295 4294967295 4294967295 4294967295 4294967295 4294967295 4294967295 4294967295 4294967295 4294967295 4294967295 4294967295 4294967295 4294967295 4294967295 4294967295 4294967295 4294967295 4294967295 4294967295 4294967295 4294967295 4294967295 4294967295 4294967295 4294967295 4294967295 4294967295 4294967295 4294967295 4294967295 4294967295 4294967295 4294967295 4294967295 4294967295 4294967295 4294967295 4294967295 4294967295 4294967295 4294967295 4294967295 4294967295 4294967295 4294967295 4294967295 4294967295 4294967295 4294967295 4294967295 4294967295 4294967295 4294967295 4294967295 4294967295 4294967295 4294967295 4294967295 4294967295 4294967295 4294967295 4294967295 4294967295 
4294967295 4294967295 4294967295 4294967295 4294967295 4294967295 4294967295 4294967295 4294967295 4294967295 4294967295 4294967295 7 4 10 1 3 100 3 3 1 2 6 3 5 3 8 43 1 1 2 503 207 10 1 4294967295 4294967295 4294967295 4294967295 4294967295 4294967295 4294967295 4294967295 4294967295 4294967295 4294967295 4294967295 4294967295 4294967295 4294967295 4294967295 4294967295 4294967295 4294967295 4294967295 4294967295 4294967295 4294967295 4294967295 4294967295 4294967295 4294967295 4294967295 4294967295 4294967295 4294967295 4294967295 4294967295 4294967295 4294967295 4294967295 4294967295 4294967295 4294967295 4294967295 4294967295 4294967295 4294967295 4294967295 4294967295 4294967295 4294967295 4294967295 4294967295 4294967295 4294967295 4294967295 4294967295 4294967295 4294967295 4294967295 4294967295 4294967295 4294967295 4294967295 4294967295 4294967295 4294967295 4294967295 4294967295 4294967295 
4294967295 4294967295 4294967295 4294967295 4294967295 4294967295 4294967295 4294967295 4294967295 4294967295 4294967295 4294967295 4294967295 4 4 1 1 6 2 6777 3 2 1 1 6797 1 2 3 29 79 5 2 1 1 3 4294967295 4294967295 4294967295 4294967295 4294967295 4294967295 4294967295 4294967295 4294967295 4294967295 4294967295 4294967295 4294967295 4294967295 4294967295 4294967295 4294967295 4294967295 4294967295 4294967295 4294967295 4294967295 4294967295 4294967295 4294967295 4294967295 4294967295 4294967295 4294967295 4294967295 4294967295 4294967295 4294967295 4294967295 4294967295 4294967295 4294967295 4294967295 4294967295 4294967295 4294967295 4294967295 4294967295 4294967295 4294967295 4294967295 4294967295 4294967295 4294967295 4294967295 4294967295 4294967295 4294967295 4294967295 4294967295 4294967295 4294967295 4294967295 4294967295 4294967295 4294967295 4294967295 4294967295 4294967295 4294967295 4294967295 
4294967295 4294967295 4294967295 4294967295 4294967295 4294967295 4294967295 4294967295 4294967295 4294967295 4294967295 4294967295 4294967295 1 11 1 227 5 2 1 6 1 3 4 4 2 1 12 2 3 4 1 3 4294967295 4294967295 4294967295 4294967295 4294967295 4294967295 4294967295 4294967295 4294967295 4294967295 4294967295 4294967295 4294967295 4294967295 4294967295 4294967295 4294967295 4294967295 4294967295 4294967295 4294967295 4294967295 4294967295 4294967295 4294967295 4294967295 4294967295 4294967295 4294967295 4294967295 4294967295 4294967295 4294967295 4294967295 4294967295 4294967295 4294967295 4294967295 4294967295 4294967295 4294967295 4294967295 4294967295 4294967295 4294967295 4294967295 4294967295 4294967295 4294967295 4294967295 4294967295 4294967295 4294967295 4294967295 4294967295 4294967295 4294967295 4294967295 4294967295 4294967295 4294967295 4294967295 4294967295 4294967295 4294967295 4294967295 4294967295 4294967295 
4294967295 4294967295 4294967295 4294967295 4294967295 4294967295 4294967295 4294967295 4294967295 4294967295 4294967295 4294967295 4294967295 4294967295 1 3 4 564 105 2 94 11 2 3 3 1 1 2 11 2 6 1 1 4294967295 4294967295 4294967295 4294967295 4294967295 4294967295 4294967295 4294967295 4294967295 4294967295 4294967295 4294967295 4294967295 4294967295 4294967295 4294967295 4294967295 4294967295 4294967295 4294967295 4294967295 4294967295 4294967295 4294967295 4294967295 4294967295 4294967295 4294967295 4294967295 4294967295 4294967295 4294967295 4294967295 4294967295 4294967295 4294967295 4294967295 4294967295 4294967295 4294967295 4294967295 4294967295 4294967295 4294967295 4294967295 4294967295 4294967295 4294967295 4294967295 4294967295 4294967295 4294967295 4294967295 4294967295 4294967295 4294967295 4294967295 4294967295 4294967295 4294967295 4294967295 4294967295 4294967295 4294967295 4294967295 4294967295 4294967295 4294967295 
4294967295 4294967295 4294967295 4294967295 4294967295 4294967295 4294967295 4294967295 4294967295 4294967295 4294967295 4294967295 4294967295 4 1 997 1 1 1 1 4 4 2 1 4 1 2 115 7 1 4 6 1 4294967295 4294967295 4294967295 4294967295 4294967295 4294967295 4294967295 4294967295 4294967295 4294967295 4294967295 4294967295 4294967295 4294967295 4294967295 4294967295 4294967295 4294967295 4294967295 4294967295 4294967295 4294967295 4294967295 4294967295 4294967295 4294967295 4294967295 4294967295 4294967295 4294967295 4294967295 4294967295 4294967295 4294967295 4294967295 4294967295 4294967295 4294967295 3 1 4294967295 4294967295 4294967295 4294967295 4294967295 4294967295 4294967295 4294967295 4294967295 4294967295 4294967295 4294967295 4294967295 4294967295 4294967295 4294967295 4294967295 4294967295 4294967295 4294967295 4294967295 4294967295 4294967295 4294967295 4294967295 4294967295 4294967295 4294967295 
4294967295 4294967295 4294967295 4294967295 4294967295 4294967295 4294967295 4294967295 4294967295 4294967295 4294967295 4294967295 4294967295 4 53 1 5 4 2 1 2 2 3 4 7 2 3 3 3 13 24 2 2 3 4294967295 4294967295 4294967295 4294967295 4294967295 4294967295 4294967295 4294967295 4294967295 4294967295 4294967295 4294967295 4294967295 4294967295 4294967295 4294967295 4294967295 4294967295 4294967295 4294967295 4294967295 4294967295 4294967295 4294967295 4294967295 4294967295 4294967295 4294967295 4294967295 4294967295 4294967295 4294967295 4294967295 4294967295 4294967295 4294967295 7 131 2 1 4294967295 4294967295 4294967295 4294967295 4294967295 4294967295 4294967295 4294967295 4294967295 4294967295 4294967295 4294967295 4294967295 4294967295 4294967295 4294967295 4294967295 4294967295 4294967295 4294967295 4294967295 4294967295 4294967295 4294967295 4294967295 4294967295 4294967295 
4294967295 4294967295 4294967295 4294967295 4294967295 4294967295 4294967295 4294967295 4294967295 4294967295 4294967295 4294967295 4294967295 1 1 1 3 2 4 6 1 1 1 23 10 3 2 2 5 2 2 2 1 1 4294967295 4294967295 4294967295 4294967295 4294967295 4294967295 4294967295 4294967295 4294967295 4294967295 4294967295 4294967295 4294967295 4294967295 4294967295 4294967295 4294967295 4294967295 4294967295 4294967295 4294967295 4294967295 4294967295 4294967295 4294967295 4294967295 4294967295 4294967295 4294967295 4294967295 4294967295 4294967295 1 3 3 2 1 1 2 1 24 4294967295 4294967295 4294967295 4294967295 4294967295 4294967295 4294967295 4294967295 4294967295 4294967295 4294967295 4294967295 4294967295 4294967295 4294967295 4294967295 4294967295 4294967295 4294967295 4294967295 4294967295 4294967295 4294967295 4294967295 4294967295 4294967295 
4294967295 4294967295 4294967295 4294967295 4294967295 4294967295 4294967295 4294967295 4294967295 4294967295 4294967295 4294967295 4294967295 31 1 4 2 3 3 2 1 2 1 2 4 9 33 2 11 3 3 1 1 2 1 4294967295 4294967295 4294967295 4294967295 4294967295 4294967295 4294967295 4294967295 4294967295 4294967295 4294967295 4294967295 4294967295 4294967295 4294967295 4294967295 4294967295 4294967295 4294967295 4294967295 4294967295 4294967295 4294967295 4294967295 4294967295 4294967295 4294967295 4294967295 4294967295 4294967295 4294967295 1 103 1 1 1 4 7 80 1 1 4294967295 4294967295 4294967295 4294967295 4294967295 4294967295 4294967295 4294967295 4294967295 4294967295 4294967295 4294967295 4294967295 4294967295 4294967295 4294967295 4294967295 4294967295 4294967295 4294967295 4294967295 4294967295 4294967295 4294967295 4294967295 
4294967295 4294967295 4294967295 4294967295 4294967295 4294967295 4294967295 4294967295 4294967295 4294967295 4294967295 4294967295 4294967295 2 3 1 2 43 1 1 1 2 397 3 2 2 1 1 1 4 1 1 5 2 3 2 4294967295 4294967295 4294967295 4294967295 4294967295 4294967295 4294967295 4294967295 4294967295 4294967295 4294967295 4294967295 4294967295 4294967295 4294967295 4294967295 4294967295 4294967295 4294967295 4294967295 4294967295 4294967295 4294967295 4294967295 4294967295 4294967295 4294967295 4294967295 4294967295 4294967295 2 5 10 10 4 21 1 1 568 1 3 1 1 4294967295 2 4294967295 4294967295 4294967295 4294967295 4294967295 4294967295 4294967295 4294967295 4294967295 4294967295 4294967295 4294967295 4294967295 4294967295 4294967295 4294967295 4294967295 4294967295 4294967295 4294967295 
4294967295 4294967295 4294967295 4294967295 4294967295 4294967295 4294967295 4294967295 4294967295 4294967295 4294967295 4294967295 4294967295 1 3 3 5 292 3 4 5 5 2 10 2 4 40 1 13 3 2 2 223 4 2 6 4294967295 4294967295 4294967295 4294967295 4294967295 4294967295 4294967295 4294967295 4294967295 4294967295 2 5 1 10 3 4294967295 4294967295 4294967295 4294967295 4294967295 4294967295 4294967295 4294967295 4294967295 4294967295 4294967295 4294967295 4294967295 4294967295 4294967295 5 10 299 5 1 3 2 1 8 2 3 1 2 58 10 1 15 3 1 4294967295 4294967295 4294967295 4294967295 4294967295 4294967295 4294967295 4294967295 4294967295 4294967295 4294967295 4294967295 4294967295 4294967295 4294967295 4294967295 
4294967295 4294967295 4294967295 4294967295 4294967295 4294967295 4294967295 4294967295 4294967295 4294967295 4294967295 4294967295 4294967295 4294967295 2 1 3 375 1 2 2 1 6 3 3 7 2 3 496 121 1 1 5 80 29 1 4294967295 4294967295 4294967295 4294967295 4294967295 4294967295 4294967295 4294967295 4294967295 1 3 5 199 48 1 1 4 4294967295 4294967295 4294967295 4294967295 4294967295 4294967295 4294967295 4294967295 4294967295 4294967295 4294967295 4294967295 4294967295 4 5 1 1 6 2 11 1 2113 1 3 2 3 1 6 4 1 118 1 2 4294967295 4294967295 4294967295 4294967295 4294967295 4294967295 4294967295 4294967295 4294967295 4294967295 4294967295 4294967295 4294967295 4294967295 4294967295 
4294967295 4294967295 4294967295 4294967295 4294967295 4294967295 4294967295 4294967295 4294967295 4294967295 4294967295 4294967295 4294967295 4294967295 4294967295 2 57 1 8 1 7 2 14 9 2 2 1 1743 6 3 4 2 2 1 2 2 4294967295 4294967295 4294967295 4294967295 4294967295 4294967295 4294967295 4294967295 4294967295 3 1 1 1 2 17 5 1 6 2 4294967295 4294967295 4294967295 4294967295 4294967295 4294967295 4294967295 4294967295 4294967295 4 1 1 10 2 2 352 1 1 1 3 1 2 24 5 230 2 7 1 2 1 2 2 4 4 1 1 2 1 4294967295 4294967295 4294967295 4294967295 4294967295 4294967295 4294967295 4294967295 
4294967295 4294967295 4294967295 4294967295 4294967295 4294967295 4294967295 4294967295 4294967295 4294967295 4294967295 4294967295 4294967295 4294967295 4294967295 1 4 1 1 1 135 5 20 1 2981 1 5 1 5 1 3 1 3 1 2 2 2 2 4294967295 4294967295 4294967295 4294967295 4294967295 4294967295 4294967295 2 4 2 3 15 1 1 2 2 2 7 4 4294967295 4294967295 4294967295 4294967295 4294967295 4294967295 4294967295 10 1 1 1 1 2 1 7 1 2 3 2 1 3 1 2 1 4 1 16 56 3 4 1 1 1 3 3 3 4294967295 4294967295 4294967295 4294967295 4294967295 4294967295 4294967295 4294967295 
4294967295 4294967295 4294967295 4294967295 4294967295 4294967295 4294967295 4294967295 4294967295 4294967295 4294967295 4294967295 4294967295 4294967295 4294967295 4294967295 9 2 1 2 3 3 7 17 1 483 3 2 3 3 2 2 6 1 25 4 1 23 4 2 4294967295 4294967295 4294967295 4294967295 4294967295 1 15 3 2 2 1 1 977 6 5 4 5 4294967295 4294967295 4294967295 4294967295 4294967295 4294967295 4294967295 10 4 886 1172 2 2 2 2 6523 3 374 1 1 5 1 2 1 2388 3 2 1 1 1 2 1 3 444 3 3 3 4294967295 4294967295 4294967295 4294967295 4294967295 4294967295 4294967295 
4294967295 4294967295 4294967295 4294967295 4294967295 4294967295 4294967295 4294967295 4294967295 4294967295 4294967295 4294967295 4294967295 4294967295 4294967295 4294967295 33 5 3 1 2 1 2 1 1 2 214 1 1 7 5 1 6 3 2 10 1 25 21 4294967295 4294967295 4294967295 4294967295 4294967295 4294967295 3 4 2 8 1 6 4 1 2 2113 5 2 4294967295 4294967295 4294967295 4294967295 4294967295 4294967295 53 3 1 5 1 3 4 8 2 35 7 1 2 1 2 1 2 1 3 1 1 143 2 3 852 8 1 4 1 109 1 3 4294967295 4294967295 4294967295 4294967295 4294967295 4294967295 
4294967295 4294967295 4294967295 4294967295 4294967295 4294967295 4294967295 4294967295 4294967295 4294967295 4294967295 4294967295 4294967295 4294967295 4294967295 4294967295 2 5 3 40 3 3 4 1 2 384 2 7 4 15 4 1 8 3 1 1 259 4 4 4294967295 4294967295 4294967295 4294967295 4294967295 4294967295 1 11 1 1 3 792 6 1 1 1 2 1 2 5 4294967295 4294967295 4294967295 2 3 5 3 3 2 12 1 3 2 586 2 1 167 1 4330 3 1 1 88 4 1 16 1 4 924 49 7 6 2 6 2 101 4294967295 4294967295 4294967295 4294967295 4294967295 4294967295 
4294967295 4294967295 4294967295 4294967295 4294967295 4294967295 4294967295 4294967295 4294967295 4294967295 4294967295 4294967295 4294967295 4294967295 4294967295 6 6 26 3 3 6 2 2 1 5 10 1 100 3 3 1 1 4275 1 2 2 2 4 5 4294967295 4294967295 4294967295 4294967295 4294967295 4294967295 3 1 16 3 1 23 96 17 100 1 3 4 3 5 1 2 1 1 107 228 3 5 6 1 11 3 1 1 2 3185 1 1 2 3 6 108 1 2 1 1 1 4 4 205 377 2 1 1 10 3 1 1 4294967295 4294967295 4294967295 4294967295 
4294967295 4294967295 4294967295 4294967295 4294967295 4294967295 4294967295 4294967295 4294967295 4294967295 4294967295 4294967295 4294967295 4294967295 4294967295 14 4 2 1 1 5 1 3 1 172 1 6 3 1 1 5420 2 33 13 1 3 1 2 7 1 4294967295 4294967295 4294967295 4294967295 4294967295 51 39 3 6 1 9 9 2 1 6 2 7 4 2 2 167 3 1 107 1 1 4 6 31 3 2 1 4 3 2 39 1 1 3 2 37 1 19 16 71 6 3 3 1 1 1 1 308 3 42 2 1 521 4294967295 4294967295 4294967295 
4294967295 4294967295 4294967295 4294967295 4294967295 4294967295 4294967295 4294967295 4294967295 4294967295 4294967295 4294967295 4294967295 4294967295 4294967295 2 25 1 2 2 1 71 1 2 97 2 9 4 1 6 4 1 1 1 1 1 1 2 2 4 1 4294967295 4294967295 4294967295 4294967295 1 3 11 5 3 1 3 1 1 3 3 8 3 2 185 2 2 1 83 209 4 6 10 1 2 3 1 1 1 25 1 79 1 2 1 19 1 5 1 2 1 2 28 18 1 2 6 1 2 36 142 127 7 4 7 4294967295 
4294967295 4294967295 4294967295 4294967295 4294967295 4294967295 4294967295 4294967295 4294967295 4294967295 4294967295 4294967295 4294967295 4294967295 4294967295 3 3 3 4 3 6 8 2 16 66 4 1 1 2 4 1 1 2 1 4 1 2 2 62 4 2 16 2 2 2 82 1 7 1 6 1 8 6 2 2 4 2 1 2 247 1 2 2 2 4 3 5 13 5 1 2 122 7 1 3 1 35 1 1 1 433116 11 1210 3366 446162 1 1 6 4 2 1 1 1 1 3 4 7 49 3 4 4294967295 
4294967295 4294967295 4294967295 4294967295 4294967295 4294967295 4294967295 4294967295 4294967295 4294967295 4294967295 4294967295 4294967295 4294967295 4294967295 33 2 1 1 1 13 1 1 3 3 3 13883 1 1 1 2 1 3 1 1 8 2 1 3 10 2 1 394 2 3 1 3 1 9 4 1 4 8 3 1 3 7 6 1 1 5 1 676 3 1 17 6 8 1 2 2 2 2 13 1 2 30 1 73 1 3 5 3 3 1 4 20 1 3 1 3 197 1 131 2 3 8 1 1 2 4294967295 
4294967295 4294967295 4294967295 4294967295 4294967295 4294967295 4294967295 4294967295 4294967295 4294967295 4294967295 4294967295 4294967295 4294967295 4294967295 4294967295 8 1 4 3 3 3 3 5 2 1 1 1 2 1 2 1 52 4 1 9 1 3 2 1 3 20 1 301 33 1 6 6 4 3 2 3 1 412 3 34 19 1 1 37 4 5 4 1 1 2 2 1 2 2 2 1 7 240 2 1 2 1 1 34 1 1 1 1 1 2037 244 1 30 15 2 10 5 2 1 1 1 1 1 12 4294967295 
4294967295 4294967295 4294967295 4294967295 4294967295 4294967295 4294967295 4294967295 4294967295 4294967295 4294967295 4294967295 4294967295 4294967295 4294967295 1 1 1 3 7 3 1 3 2604 2 4 7 2 4 1 11 1 3 1 2 4 2 47 278 1 1 1 2 5 8 12 1 2 3 8 3 1 11 1 1 1 1 2 1 5 12 2 74 1 2 1 5 65 979 2 3 247 2 7 2 4 2 1 1 2 1 130 1 2 2 3 2 28 83 5 1 5 2 1 2 1 2343 2 4 1 4294967295 
4294967295 4294967295 4294967295 4294967295 4294967295 4294967295 4294967295 4294967295 4294967295 4294967295 4294967295 4294967295 4294967295 4294967295 4294967295 4294967295 7 10 2 2 1 4 51 1 1 164655 1 2 5 1 5 2 17 1 27 2 1 10 459 1 1 1 1 6 6 1 1 12 3 3 2 2 2 1 1 2 2 15 6 6 1 3 1 5 3 1 2848 1 1 206 1 1 1 4 1 407312 2 1 1 1 32 17 7 2 85 4 6 1 1 2 1 6 3 2 4 18 3 2 11 155 4294967295 
4294967295 4294967295 4294967295 4294967295 4294967295 4294967295 4294967295 4294967295 4294967295 4294967295 4294967295 4294967295 4294967295 4294967295 4294967295 4294967295 1 1 1 1 1 2 1 3 1 2 80 1 1 7 1 3 1 6 2 9 98 3 1 4 3 3 3 89 3 4 5 6 25 2 1 366 3 1 4 7 1 2 4 1 6 10319 3 1 17 3 1 1 3 2 20 2 3 6 6 18 408038 6 31 2 8 1 3 9 1 3 1 2 5 1 1 13 1 211 3 3 71 5 1 4294967295 4294967295 
4294967295 4294967295 4294967295 4294967295 4294967295 4294967295 4294967295 4294967295 4294967295 4294967295 4294967295 4294967295 4294967295 4294967295 4294967295 4294967295 3 2 3 5 9 1 3 1 1 1 2 1 4 1 4 1 3 2 2 2 5 2 7 1 4 4 9 2 2 3 1 2 3 2 2 6 9 10 8 5 3 2 2 1 1 82 2 1 44 12139 2 1 2 2 3 2 6 33 9 4 2 2 1 1 6 25 3 4 24 2 5 11 1 1 181 1 3 13 2 1 1 1 244 4294967295 4294967295 
4294967295 4294967295 4294967295 4294967295 4294967295 4294967295 4294967295 4294967295 4294967295 4294967295 4294967295 4294967295 4294967295 4294967295 4294967295 4294967295 4294967295 1 1 2 2 4 19 2 3 1 1 3 1 1 5 9 45 17 3 114 1 1 2 2 2 117 1 2 1 3 2 1 3 4 1 4 1 4 52 5 2 4 85 9 2 1 1 2 32 1 2 4 1 12 1 152 5 4 2 9 4 3 308 1 1 1 1 63 5 1 1 188 4 3 17 541 7 2 1 13 1 3 4294967295 4294967295 4294967295 
4294967295 4294967295 4294967295 4294967295 4294967295 4294967295 4294967295 4294967295 4294967295 4294967295 4294967295 4294967295 4294967295 4294967295 4294967295 4294967295 4294967295 48 3 2 1 4 2 8 1 3 3 11 1 31 1 2 16 231910 1 42 1 968 4 863 6 6 14 8 1 1 1 6530 1 1 1 7 12 1 1 8 12 73 5 1 1 8 37 21 1 1 2 2 1 2 1 1 2 60 159 3 8 74 2 1 35 441 1 1 1 4 3 2 1 1 5 3 1 2 1 10 1 4294967295 4294967295 4294967295 4294967295 
4294967295 4294967295 4294967295 4294967295 4294967295 4294967295 4294967295 4294967295 4294967295 4294967295 4294967295 4294967295 4294967295 4294967295 4294967295 4294967295 4294967295 4294967295 1 2 12 8 7182 2 1 1 1 72 3 10 30 2 1 1 6 2 2 6 2 1 2 7 2 13 4 52 1 3 5 1 3 163 3 1 5 2 2 1 38 5 2 2 3 6 2 1 1 4 2 2 3 1 888 1 2 3 144 1 1 108 1 1 2 1 404 8 2 3 3 1 11 5 1 1 2 1 19 4294967295 4294967295 4294967295 4294967295 
4294967295 4294967295 4294967295 4294967295 4294967295 4294967295 4294967295 4294967295 4294967295 4294967295 4294967295 4294967295 4294967295 4294967295 4294967295 4294967295 4294967295 4294967295 3 1 1 1 1 1 1 1 1 1 5 4 497 2 18 9 2 7 1 4 3 1 2 441 4 1 1 21 5 2 1 5 6 2 280803 15 2 3 4 1 1 3 2 1 1 1 4 2 2 3 13 2 3 2 1 354192 3 2 5 4 48 1 1 1 2 1 2 5 120 2 5 1 3 5 3 1 1 576 3 4294967295 4294967295 4294967295 4294967295 
4294967295 4294967295 4294967295 4294967295 4294967295 4294967295 4294967295 4294967295 4294967295 4294967295 4294967295 4294967295 4294967295 4294967295 4294967295 4294967295 4294967295 4 1 1 2 30 1 1 40 5 11 1 2 2 1 1 1 1 2 14 2 1 5 2 4 5 3 1 8 1 2 2 2 5 8 58 2 6 8 2 1 5 9 51 2 4 629 3 3 2 1 9 1 2 1 347565 1 2 10 2 3 1 56 3 2 8 2 5 2 3 3 1 52 5 1 1 5 3 1 75 4294967295 4294967295 4294967295 4294967295 4294967295 
4294967295 4294967295 4294967295 4294967295 4294967295 4294967295 4294967295 4294967295 4294967295 4294967295 4294967295 4294967295 4294967295 4294967295 4294967295 4294967295 4294967295 2 10 1 3 49 1 2 4 4 4 2 5 7 3 1 4 2 3 12 11 6 12 189 2 1 1 4 1 11 1 17 2 2 1 6 8 3 314 1 11 300228 1 2 747 1749 2 8 46 4 126 2 1 1 1 2 1 1 1 5 1 7 28 1 5 2 3 38 5 3 1 1 3 6 3 4 1 6 55 6 4294967295 4294967295 4294967295 4294967295 4294967295 
4294967295 4294967295 4294967295 4294967295 4294967295 4294967295 4294967295 4294967295 4294967295 4294967295 4294967295 4294967295 4294967295 4294967295 4294967295 4294967295 4294967295 6 1 2 1 2 1 1 2 2 1 7 1 1567 1 6 1 3 6 2 3 10 2 2 262043 263581 2 1 2 3 3 40 17 2 1 3 2 1 1 2 39 300530 12 1 2 4 1 352 1 324071 1 1 18 3 1 199 30 1 1 65 2 2 1 4 6 2 4 4 3 1 3 2756 3 1 4 1 3 1269 1 4294967295 4294967295 4294967295 4294967295 4294967295 4294967295 
4294967295 4294967295 4294967295 4294967295 4294967295 4294967295 4294967295 4294967295 4294967295 4294967295 4294967295 4294967295 4294967295 4294967295 4294967295 4294967295 9 2 1 1 3 2 15 29 1 1 23 1 27 5 1 3 169 4 4 2 3 1 1 1 2 80 1 49 8 16 2 5 16 6 2 98 2 1 2 30 13 1 2 7 69 1 5 1 3 1 19 15 2 1 6 4 2 3 17 5 4 1267 300 2 3 3 1 1 3 1 1 1 2 1 1 437 2 5 165 4294967295 4294967295 4294967295 4294967295 4294967295 4294967295 
4294967295 4294967295 4294967295 4294967295 4294967295 4294967295 4294967295 4294967295 4294967295 4294967295 4294967295 4294967295 4294967295 4294967295 4294967295 4294967295 21 2 1 4 54 53 4 3 4 1 3998 2 1 1 25 1 4 2 4 1 6 44 2 1 3 2 3 2 5 3 1 2 1 1 2 4 1 1 3 2 1 8 832 9 2 2 1 1 2 12 1 1 10 8 1395 1 3 2 1 12 5 1 3 5 1 2 1 1 5 1 6 1 1 1 2 2 11 1 2 4294967295 4294967295 4294967295 4294967295 4294967295 4294967295 
4294967295 4294967295 4294967295 4294967295 4294967295 4294967295 4294967295 4294967295 4294967295 4294967295 4294967295 4294967295 4294967295 4294967295 4294967295 4294967295 1 2 3 5 2 5 4 1 4 1 46 1 2 1 1 1 1 2 52 1 1 1 4 3 22 2 2 2 1 1 1 2 5 1 1 136 3 10 1634 7 2 12 189 3 1 2 5 1 1 15 1 1 1 10 1 2 3 2 42693 3 14 4 2 7 33 1 10 3 3 140 1 1 50 16 1 83 3 17 3 71 4294967295 4294967295 4294967295 4294967295 4294967295 
4294967295 4294967295 4294967295 4294967295 4294967295 4294967295 4294967295 4294967295 4294967295 4294967295 4294967295 4294967295 4294967295 4294967295 4294967295 4294967295 2 6 44 7 7 3 1 25 1 2 1 5 1 1 3 1 4 25 1 7 2 5 5 2 25 1 1 1 2 3 5 2 3 1 2 2 1 6 1 3 6 4 1 30 7 2 1 2 1 3 1 100 2 2 15 4 6 1 2 6 1 1 1 3 1 2 1 1 4 1 2 2 2 2 2 7 4 3 1 4294967295 4294967295 4294967295 4294967295 4294967295 4294967295 
4294967295 4294967295 4294967295 4294967295 4294967295 4294967295 4294967295 4294967295 4294967295 4294967295 4294967295 4294967295 4294967295 4294967295 4294967295 4294967295 1 1 1 36 6 1 1 8 1 2 2 28028 8 16 1 7 7 2 2 2 37 2 1 6 84 2 1 2 123 21 2 1 5 7 1 4 202 1 3 3 2 2 6 1 1 8 2 1 1 26 3 2 1 1 2 2 3 5 2 32 1 3 1 2 59 1 1 1 2650 3 4 935 2 1 2 1 8 2 1 4294967295 4294967295 4294967295 4294967295 4294967295 4294967295 
4294967295 4294967295 4294967295 4294967295 4294967295 4294967295 4294967295 4294967295 4294967295 4294967295 4294967295 4294967295 4294967295 4294967295 4294967295 4294967295 1 2 1 1 4 1 1 66 4 1 9 1 711 1205 913 6 3 3 1 60 1 7 6 2 4 2 4 2 1 3 7 6 3 2 1 1 2 17 2 1 1 13 39 1 2 1 3 16 2 1 1 1 1 1 1 1 2 8 2 2 2 2 1 825 1 1 6 3 3 2 4 1 2 1539 2 4 4 1 1 4294967295 4294967295 4294967295 4294967295 4294967295 4294967295 
4294967295 4294967295 4294967295 4294967295 4294967295 4294967295 4294967295 4294967295 4294967295 4294967295 4294967295 4294967295 4294967295 4294967295 4294967295 4294967295 36 1 2 3 18 3 2 18 2 1 1826 1 1 1 1 3 5 1 1 6 153 1 2 2 3 7 2 1 1 3 3 2 1 1 13 1 2 2 1 911 1 4 3 1 2 6 1 1742 3 1 7 210 1 2 3 4 29 26 1 9 1 24 289 1 1 1 404 1 2 17 1 4 1 1 7 1 1 1 24 4294967295 4294967295 4294967295 4294967295 4294967295 4294967295 
4294967295 4294967295 4294967295 4294967295 4294967295 4294967295 4294967295 4294967295 4294967295 4294967295 4294967295 4294967295 4294967295 4294967295 4294967295 4294967295 8 1 3 1274 4 13 5 5 6 1 2 6 4 3 279 1 3 2 2 1 2 1 3 4 1 171 1 2 3 1 4 2 3 4 1 1 48 23 586 3 4294967295 197 2 1 1 1 2 3 7 8 4 225 1 1 3 2 1 4509 4370 7 1 2 88 1 45 4 3 2 2 1 3 1 1 2 1 1 2 5 261 3 4294967295 4294967295 4294967295 4294967295 4294967295 
4294967295 4294967295 4294967295 4294967295 4294967295 4294967295 4294967295 4294967295 4294967295 4294967295 4294967295 4294967295 4294967295 4294967295 4294967295 4294967295 2 405 1 1 5 4 5 4 1 1 19 1 1312 1 122 1 1 1 48 2 3 1 20 2 3 2 2 9 1 6 4 6 1 2 2 3 1 1 4294967295 4294967295 4294967295 4294967295 1 3 2 1362 3 1 2 2 2 2 2 1 4 2 8 1 2 1 1 3 1 1 3 2 1 19 3 3 20 3 3 2 2 1 1 26 3 1 315 1 4294967295 4294967295 4294967295 
4294967295 4294967295 4294967295 4294967295 4294967295 4294967295 4294967295 4294967295 4294967295 4294967295 4294967295 4294967295 4294967295 4294967295 4294967295 4294967295 1 2 2 1 3 2 1 1 12 2 6 6 468 2 3 2 1 10 5 1 10 1 1 1 25 1 11 3 4 2 1 1 1 4294967295 4294967295 4294967295 2 4294967295 4294967295 4294967295 4294967295 4294967295 4294967295 2 2 1 1 3 3 1 1 6 1 1 1 1 51 8 2 1 1 1 2 3 22 8 1 2 21 3 3 2 4 1 10 8 5 86 4294967295 4294967295 1 4294967295 4294967295 4294967295 4294967295 
4294967295 4294967295 4294967295 4294967295 4294967295 4294967295 4294967295 4294967295 4294967295 4294967295 4294967295 4294967295 4294967295 4294967295 4294967295 4294967295 4294967295 1 4 4 4 3 1 1 14 1 1 3 4 14 1 5 3 12 149 1 2 1 4 7 2 2 1 827 4 1 3 2 4294967295 4294967295 4294967295 4294967295 4294967295 4294967295 4294967295 4294967295 4294967295 4294967295 4294967295 4294967295 4294967295 4294967295 8 2 37 1 1 2 1 58 1 2 2 2 7 2 2 4 1 1 7 2 5 2 2 16 2 1 4 1 1 3 3 4294967295 4294967295 4294967295 4294967295 4294967295 4294967295 4294967295 4294967295 
4294967295 4294967295 4294967295 4294967295 4294967295 4294967295 4294967295 4294967295 4294967295 4294967295 4294967295 4294967295 4294967295 4294967295 4294967295 4294967295 1 6 4 2 2 1 3 5 3 2 4335 1 4 2 102 10 2 1 1 3 3 1 1 1 1 3 1 1 2 3 48 48 4294967295 4294967295 4294967295 4294967295 4294967295 4294967295 4294967295 4294967295 4294967295 4294967295 4294967295 4294967295 4294967295 4294967295 4294967295 2 5 1 1 2 1113 6 3 1 3 1 1 2 2 2 89 5 1 4 1 1 6 4 2 1 2 4294967295 4294967295 4294967295 4294967295 4294967295 4294967295 4294967295 4294967295 4294967295 4294967295 4294967295 4294967295 
4294967295 4294967295 4294967295 4294967295 4294967295 4294967295 4294967295 4294967295 4294967295 4294967295 4294967295 4294967295 4294967295 4294967295 4294967295 4294967295 3 2 6 3 17 1 1 14 2 1 4153 1 1 3 1 40 1 119 6665 2 1 1 2 1 1 1 33 2 3 1 2 486 4294967295 4294967295 4294967295 4294967295 4294967295 4294967295 4294967295 4294967295 4294967295 4294967295 4294967295 4294967295 4294967295 4294967295 4294967295 4294967295 2 5 13 1 1 1260 10943 1 1 21 15473 5 1 2 4 7 2 5 1 2 6 4 1 4294967295 4294967295 4294967295 4294967295 4294967295 4294967295 4294967295 4294967295 4294967295 4294967295 4294967295 4294967295 4294967295 4294967295 
4294967295 4294967295 4294967295 4294967295 4294967295 4294967295 4294967295 4294967295 4294967295 4294967295 4294967295 4294967295 4294967295 4294967295 4294967295 4294967295 1 2 1 2 2 15 1 1 154 2 4057 1 4 4 3 1 119 743 2 4 2 1 3 6 1 1 1 1 4294967295 4294967295 4294967295 2 4294967295 4294967295 4294967295 4294967295 4294967295 4294967295 4294967295 4294967295 4294967295 4294967295 4294967295 4294967295 4294967295 4294967295 4294967295 4294967295 1 1293 3 203 1 1 35 1 1 1 7 1 2 2 3 3 6 1 1 1 3 92 1 4294967295 4294967295 4294967295 4294967295 4294967295 4294967295 4294967295 4294967295 4294967295 4294967295 4294967295 4294967295 4294967295 4294967295 
4294967295 4294967295 4294967295 4294967295 4294967295 4294967295 4294967295 4294967295 4294967295 4294967295 4294967295 4294967295 4294967295 4294967295 4294967295 4294967295 1 2 2 7 1 4 68 1 1 1 1 1 12 1 3 1 4 3 9 2 1 1 3 1 1 8 4294967295 4294967295 4294967295 4294967295 4294967295 4294967295 4294967295 4294967295 4294967295 4294967295 4294967295 4294967295 4294967295 4294967295 4294967295 4294967295 4294967295 4294967295 4294967295 4294967295 4294967295 4294967295 1 1 4294967295 1 1 5 1 1 1037 1 2 2 57 1 5 2 3 504 1 2 1 1 4294967295 4294967295 4294967295 4294967295 4294967295 4294967295 4294967295 4294967295 4294967295 4294967295 4294967295 4294967295 4294967295 4294967295 4294967295 
4294967295 4294967295 4294967295 4294967295 4294967295 4294967295 4294967295 4294967295 4294967295 4294967295 4294967295 4294967295 4294967295 4294967295 4294967295 4294967295 9 7 1 1 6 2 2 1266 2 3 1085 1 71 16 1 3 3 2 2 3 2 1 1 2 8 4294967295 4294967295 4294967295 4294967295 4294967295 4294967295 4294967295 4294967295 4294967295 4294967295 4294967295 4294967295 4294967295 4294967295 4294967295 4294967295 4294967295 4294967295 4294967295 4294967295 4294967295 4294967295 4294967295 4294967295 4294967295 4294967295 4294967295 14 1 1 20 6 1 2 1 1 1 2 3 1 1425 15 1117 4294967295 4294967295 4294967295 4294967295 4294967295 4294967295 4294967295 4294967295 4294967295 4294967295 4294967295 4294967295 4294967295 4294967295 4294967295 4294967295 4294967295 
4294967295 4294967295 4294967295 4294967295 4294967295 4294967295 4294967295 4294967295 4294967295 4294967295 4294967295 4294967295 4294967295 4294967295 4294967295 4294967295 3 3 3 1 1 2 1 3 57 15 2 2387 3 32 2 3 2 18 2 3 1 4 1 3 80 4294967295 4294967295 4294967295 4294967295 4294967295 4294967295 4294967295 4294967295 4294967295 4294967295 4294967295 4294967295 4294967295 4294967295 4294967295 4294967295 4294967295 4294967295 4294967295 4294967295 4294967295 4294967295 4294967295 4294967295 4294967295 4294967295 4294967295 4294967295 4294967295 1 4294967295 10 7 5 5 4798 1 1 1 52 3 1 1 4294967295 4294967295 4294967295 4294967295 4294967295 4294967295 4294967295 4294967295 4294967295 4294967295 4294967295 4294967295 4294967295 4294967295 4294967295 4294967295 4294967295 
4294967295 4294967295 4294967295 4294967295 4294967295 4294967295 4294967295 4294967295 4294967295 4294967295 4294967295 4294967295 4294967295 4294967295 4294967295 4294967295 2 3 11 2 2 2 3 1 1 1 2 3 2004 8 10 6 3 14 6 5 5 1 1 1 2 4294967295 4294967295 4294967295 4294967295 4294967295 4294967295 4294967295 4294967295 4294967295 4294967295 4294967295 4294967295 4294967295 4294967295 4294967295 4294967295 4294967295 4294967295 4294967295 4294967295 4294967295 4294967295 4294967295 4294967295 4294967295 4294967295 4294967295 4294967295 4294967295 4294967295 4294967295 4294967295 5 8 1 3 1 2 1 1 1 2 5 4294967295 4294967295 4294967295 4294967295 4294967295 4294967295 4294967295 4294967295 4294967295 4294967295 4294967295 4294967295 4294967295 4294967295 4294967295 4294967295 4294967295 
4294967295 4294967295 4294967295 4294967295 4294967295 4294967295 4294967295 4294967295 4294967295 4294967295 4294967295 4294967295 4294967295 4294967295 4294967295 4294967295 4294967295 4294967295 4294967295 4294967295 4294967295 4294967295 4294967295 4294967295 4294967295 4294967295 1 119 1 755 5 4 5 4 1040 1 5 7 1 4 4294967295 4294967295 4294967295 4294967295 4294967295 4294967295 4294967295 4294967295 4294967295 4294967295 4294967295 4294967295 4294967295 4294967295 4294967295 4294967295 4294967295 4294967295 4294967295 4294967295 4294967295 4294967295 4294967295 4294967295 4294967295 4294967295 4294967295 4294967295 4294967295 4294967295 4294967295 4294967295 4294967295 3 1 1 138 1 2 3 167 1 172 4294967295 4294967295 4294967295 4294967295 4294967295 4294967295 4294967295 4294967295 4294967295 4294967295 4294967295 4294967295 4294967295 4294967295 4294967295 4294967295 4294967295 4294967295 
4294967295 4294967295 4294967295 4294967295 4294967295 4294967295 4294967295 4294967295 4294967295 4294967295 4294967295 4294967295 4294967295 4294967295 4294967295 4294967295 4294967295 4294967295 4294967295 4294967295 4294967295 4294967295 4294967295 4294967295 4294967295 4294967295 4294967295 2 1 3 1 4 12 1 896 1 1 106 4 3 4294967295 4294967295 4294967295 4294967295 4294967295 4294967295 4294967295 4294967295 4294967295 4294967295 4294967295 4294967295 4294967295 4294967295 4294967295 4294967295 4294967295 4294967295 4294967295 4294967295 4294967295 4294967295 4294967295 4294967295 4294967295 4294967295 4294967295 4294967295 4294967295 4294967295 4294967295 4294967295 4294967295 4294967295 3 1 1 1 1 2 1 1 1 4294967295 4294967295 4294967295 4294967295 4294967295 4294967295 4294967295 4294967295 4294967295 4294967295 4294967295 4294967295 4294967295 4294967295 4294967295 4294967295 4294967295 4294967295 
4294967295 4294967295 4294967295 4294967295 4294967295 4294967295 4294967295 4294967295 4294967295 4294967295 4294967295 4294967295 4294967295 4294967295 4294967295 4294967295 4294967295 4294967295 4294967295 4294967295 4294967295 4294967295 4294967295 4294967295 4294967295 4294967295 4294967295 10 3 3 8 3 1 1 1 8 2 3 58 4294967295 4294967295 4294967295 4294967295 4294967295 4294967295 4294967295 4294967295 4294967295 4294967295 4294967295 4294967295 4294967295 4294967295 4294967295 4294967295 4294967295 4294967295 4294967295 4294967295 4294967295 4294967295 4294967295 4294967295 4294967295 4294967295 4294967295 4294967295 4294967295 4294967295 4294967295 4294967295 4294967295 4294967295 4294967295 3 10 2 5 1 8 1 5 4294967295 4294967295 4294967295 4294967295 4294967295 4294967295 4294967295 4294967295 4294967295 4294967295 4294967295 4294967295 4294967295 4294967295 4294967295 4294967295 4294967295 4294967295 4294967295 
4294967295 4294967295 4294967295 4294967295 4294967295 4294967295 4294967295 4294967295 4294967295 4294967295 4294967295 4294967295 4294967295 4294967295 4294967295 4294967295 4294967295 4294967295 4294967295 4294967295 4294967295 4294967295 4294967295 4294967295 4294967295 4294967295 4294967295 4294967295 222 1 1 2 4294967295 4 1 1 3 2 4294967295 4294967295 4294967295 4294967295 4294967295 4294967295 4294967295 4294967295 4294967295 4294967295 4294967295 4294967295 4294967295 4294967295 4294967295 4294967295 4294967295 4294967295 4294967295 4294967295 4294967295 4294967295 4294967295 4294967295 4294967295 4294967295 4294967295 4294967295 4294967295 4294967295 4294967295 4294967295 4294967295 4294967295 4294967295 4294967295 1 2 1675 1 1 1 8 4294967295 4294967295 4294967295 4294967295 4294967295 4294967295 4294967295 4294967295 4294967295 4294967295 4294967295 4294967295 4294967295 4294967295 4294967295 4294967295 4294967295 4294967295 4294967295 4294967295 
4294967295 4294967295 4294967295 4294967295 4294967295 4294967295 4294967295 4294967295 4294967295 4294967295 4294967295 4294967295 4294967295 4294967295 4294967295 4294967295 4294967295 4294967295 4294967295 4294967295 4294967295 4294967295 4294967295 4294967295 4294967295 4294967295 4294967295 4294967295 4294967295 4294967295 4294967295 4294967295 4294967295 4294967295 5 2 4 24 4294967295 4294967295 4294967295 4294967295 4294967295 4294967295 4294967295 4294967295 4294967295 4294967295 4294967295 4294967295 4294967295 4294967295 4294967295 4294967295 4294967295 4294967295 4294967295 4294967295 4294967295 4294967295 4294967295 4294967295 4294967295 4294967295 4294967295 4294967295 4294967295 4294967295 4294967295 4294967295 4294967295 4294967295 4294967295 4294967295 1 2 1 2 17 1 2 4294967295 4294967295 4294967295 4294967295 4294967295 4294967295 4294967295 4294967295 4294967295 4294967295 4294967295 4294967295 4294967295 4294967295 4294967295 4294967295 4294967295 4294967295 4294967295 4294967295 
4294967295 4294967295 4294967295 4294967295 4294967295 4294967295 4294967295 4294967295 4294967295 4294967295 4294967295 4294967295 4294967295 4294967295 4294967295 4294967295 4294967295 4294967295 4294967295 4294967295 4294967295 4294967295 4294967295 4294967295 4294967295 4294967295 4294967295 4294967295 4294967295 4294967295 4294967295 4294967295 4294967295 4294967295 4294967295 4294967295 4294967295 3 4294967295 4294967295 4294967295 4294967295 4294967295 4294967295 4294967295 4294967295 4294967295 4294967295 4294967295 4294967295 4294967295 4294967295 4294967295 4294967295 4294967295 4294967295 4294967295 4294967295 4294967295 4294967295 4294967295 4294967295 4294967295 4294967295 4294967295 4294967295 4294967295 4294967295 4294967295 4294967295 4294967295 4294967295 4294967295 4294967295 1 3 1 5 1 9 4 4294967295 4294967295 4294967295 4294967295 4294967295 4294967295 4294967295 4294967295 4294967295 4294967295 4294967295 4294967295 4294967295 4294967295 4294967295 4294967295 4294967295 4294967295 4294967295 4294967295 
4294967295 4294967295 4294967295 4294967295 4294967295 4294967295 4294967295 4294967295 4294967295 4294967295 4294967295 4294967295 4294967295 4294967295 4294967295 4294967295 4294967295 4294967295 4294967295 4294967295 4294967295 4294967295 4294967295 4294967295 4294967295 4294967295 4294967295 4294967295 4294967295 4294967295 4294967295 4294967295 4294967295 4294967295 4294967295 4294967295 4294967295 4294967295 4294967295 4294967295 4294967295 4294967295 4294967295 4294967295 4294967295 4294967295 4294967295 4294967295 4294967295 4294967295 4294967295 4294967295 4294967295 4294967295 4294967295 4294967295 4294967295 4294967295 4294967295 4294967295 4294967295 4294967295 4294967295 4294967295 4294967295 4294967295 4294967295 4294967295 4294967295 4294967295 4294967295 4294967295 4294967295 4294967295 4294967295 4294967295 1 6 1 2 1 4294967295 4294967295 4294967295 4294967295 4294967295 4294967295 4294967295 4294967295 4294967295 4294967295 4294967295 4294967295 4294967295 4294967295 4294967295 4294967295 4294967295 4294967295 4294967295 4294967295 
4294967295 4294967295 4294967295 4294967295 4294967295 4294967295 4294967295 4294967295 4294967295 4294967295 4294967295 4294967295 4294967295 4294967295 4294967295 4294967295 4294967295 4294967295 4294967295 4294967295 4294967295 4294967295 4294967295 4294967295 4294967295 4294967295 4294967295 4294967295 4294967295 4294967295 4294967295 4294967295 4294967295 4294967295 4294967295 4294967295 4294967295 4294967295 4294967295 4294967295 4294967295 4294967295 4294967295 4294967295 4294967295 4294967295 4294967295 4294967295 4294967295 4294967295 4294967295 4294967295 4294967295 4294967295 4294967295 4294967295 4294967295 4294967295 4294967295 4294967295 4294967295 4294967295 4294967295 4294967295 4294967295 4294967295 4294967295 4294967295 4294967295 4294967295 4294967295 4294967295 4294967295 4294967295 4294967295 4294967295 4294967295 5 17 2 2 4294967295 4294967295 4294967295 4294967295 4294967295 4294967295 4294967295 4294967295 4294967295 4294967295 4294967295 4294967295 4294967295 4294967295 4294967295 4294967295 4294967295 4294967295 4294967295 4294967295 
4294967295 4294967295 4294967295 4294967295 4294967295 4294967295 4294967295 4294967295 4294967295 4294967295 4294967295 4294967295 4294967295 4294967295 4294967295 4294967295 4294967295 4294967295 4294967295 4294967295 4294967295 4294967295 4294967295 4294967295 4294967295 4294967295 4294967295 4294967295 4294967295 4294967295 4294967295 4294967295 4294967295 4294967295 4294967295 4294967295 4294967295 4294967295 4294967295 4294967295 4294967295 4294967295 4294967295 4294967295 4294967295 4294967295 4294967295 4294967295 4294967295 4294967295 4294967295 4294967295 4294967295 4294967295 4294967295 4294967295 4294967295 4294967295 4294967295 4294967295 4294967295 4294967295 4294967295 4294967295 4294967295 4294967295 4294967295 4294967295 4294967295 4294967295 4294967295 4294967295 4294967295 4294967295 4294967295 4294967295 4294967295 2 6 149 1 1 4294967295 4294967295 4294967295 4294967295 4294967295 4294967295 4294967295 4294967295 4294967295 4294967295 4294967295 4294967295 4294967295 4294967295 4294967295 4294967295 4294967295 4294967295 4294967295 
4294967295 4294967295 4294967295 4294967295 4294967295 4294967295 4294967295 4294967295 4294967295 4294967295 4294967295 4294967295 4294967295 4294967295 4294967295 4294967295 4294967295 4294967295 4294967295 4294967295 4294967295 4294967295 4294967295 4294967295 4294967295 4294967295 4294967295 4294967295 4294967295 4294967295 4294967295 4294967295 4294967295 4294967295 4294967295 4294967295 4294967295 4294967295 4294967295 4294967295 4294967295 4294967295 4294967295 4294967295 4294967295 4294967295 4294967295 4294967295 4294967295 4294967295 4294967295 4294967295 4294967295 4294967295 4294967295 4294967295 4294967295 4294967295 4294967295 4294967295 4294967295 4294967295 4294967295 4294967295 4294967295 4294967295 4294967295 4294967295 4294967295 4294967295 4294967295 4294967295 4294967295 4294967295 4294967295 4294967295 4294967295 4294967295 4294967295 3 7 1 4294967295 4294967295 4294967295 4294967295 4294967295 4294967295 4294967295 4294967295 4294967295 4294967295 4294967295 4294967295 4294967295 4294967295 4294967295 4294967295 4294967295 4294967295 4294967295 
4294967295 4294967295 4294967295 4294967295 4294967295 4294967295 4294967295 4294967295 4294967295 4294967295 4294967295 4294967295 4294967295 4294967295 4294967295 4294967295 4294967295 4294967295 4294967295 4294967295 4294967295 4294967295 4294967295 4294967295 4294967295 4294967295 4294967295 4294967295 4294967295 4294967295 4294967295 4294967295 4294967295 4294967295 4294967295 4294967295 4294967295 4294967295 4294967295 4294967295 4294967295 4294967295 4294967295 4294967295 4294967295 4294967295 4294967295 4294967295 4294967295 4294967295 4294967295 4294967295 4294967295 4294967295 4294967295 4294967295 4294967295 4294967295 4294967295 4294967295 4294967295 4294967295 4294967295 4294967295 4294967295 4294967295 4294967295 4294967295 4294967295 4294967295 4294967295 4294967295 4294967295 4294967295 4294967295 4294967295 4294967295 4294967295 4294967295 4294967295 3 4 4294967295 4294967295 4294967295 4294967295 4294967295 4294967295 4294967295 4294967295 4294967295 4294967295 4294967295 4294967295 4294967295 4294967295 4294967295 4294967295 4294967295 4294967295 4294967295 
