ncols        101
nrows        101
xllcorner    412736.042777144641
yllcorner    4624596.874991853721
dx           982.704863755106
dy           742.907128512748
NODATA_value 32767
32767 32767 32767 32767 32767 32767 32767 32767 32767 32767 32767 32767 32767 32767 32767 32767 32767 32767 32767 32767 32767 32767 32767 32767 32767 32767 32767 32767 32767 32767 32767 32767 32767 32767 32767 32767 32767 32767 32767 32767 32767 32767 32767 32767 32767 32767 32767 32767 32767 32767 32767 32767 32767 32767 32767 32767 32767 32767 32767 32767 32767 32767 32767 32767 32767 32767 32767 32767 32767 32767 32767 32767 32767 32767 32767 32767 32767 32767 32767 32767 32767 32767 32767 32767 32767 32767 32767 32767 32767 32767 32767 32767 32767 32767 32767 32767 32767 32767 32767 32767 32767 
32767 32767 32767 32767 32767 32767 32767 32767 32767 32767 32767 32767 32767 32767 32767 32767 32767 32767 32767 32767 32767 32767 32767 32767 32767 32767 2535 2467 32767 32767 32767 32767 32767 32767 32767 32767 32767 32767 32767 32767 32767 32767 32767 32767 32767 32767 32767 32767 32767 32767 32767 32767 32767 32767 32767 32767 32767 32767 32767 32767 32767 32767 32767 32767 32767 32767 32767 32767 32767 32767 32767 32767 32767 32767 32767 32767 32767 32767 32767 32767 32767 32767 32767 32767 32767 32767 32767 32767 32767 32767 32767 32767 32767 32767 32767 32767 32767 32767 32767 32767 32767 
32767 32767 32767 32767 32767 32767 32767 32767 32767 32767 32767 32767 32767 32767 32767 32767 32767 32767 32767 32767 32767 32767 32767 32767 2725 2558 2363 2282 2353 32767 32767 32767 32767 32767 32767 32767 32767 32767 32767 32767 32767 32767 32767 32767 32767 32767 32767 32767 32767 32767 32767 32767 32767 32767 32767 32767 32767 32767 32767 32767 32767 32767 32767 32767 32767 32767 32767 32767 32767 32767 32767 32767 32767 32767 32767 32767 32767 32767 32767 32767 32767 32767 32767 32767 32767 32767 32767 32767 32767 32767 32767 32767 32767 32767 32767 32767 32767 32767 32767 32767 32767 
32767 32767 32767 32767 32767 32767 32767 32767 32767 32767 32767 32767 32767 32767 32767 32767 32767 32767 2609 2627 32767 32767 32767 2624 2603 2497 2287 2124 2223 2373 2296 2319 32767 32767 32767 32767 32767 32767 32767 32767 32767 32767 32767 32767 32767 32767 32767 32767 32767 32767 32767 32767 32767 32767 32767 32767 32767 32767 32767 32767 32767 32767 32767 32767 32767 32767 32767 32767 32767 32767 32767 32767 32767 32767 32767 32767 32767 32767 32767 32767 32767 32767 32767 32767 32767 32767 32767 32767 32767 32767 32767 32767 32767 32767 32767 32767 32767 32767 32767 32767 32767 
32767 32767 32767 32767 32767 32767 32767 32767 32767 32767 32767 32767 32767 32767 32767 32767 2672 2544 2382 2490 2632 2625 2638 2567 2422 2481 2329 2083 2038 2166 2078 2209 2281 32767 32767 32767 32767 32767 32767 32767 32767 32767 32767 32767 32767 32767 32767 32767 32767 32767 32767 32767 32767 32767 32767 32767 32767 32767 32767 32767 32767 32767 32767 32767 32767 32767 32767 32767 32767 32767 32767 32767 32767 32767 32767 32767 32767 32767 32767 32767 32767 32767 32767 32767 32767 32767 32767 32767 32767 32767 32767 32767 32767 32767 32767 32767 32767 32767 32767 32767 32767 
32767 32767 32767 32767 32767 32767 32767 32767 32767 32767 32767 32767 32767 32767 32767 32767 2438 2372 2269 2364 2566 2490 2523 2517 2342 2400 2201 2018 1888 1968 1879 1978 2088 2103 32767 32767 32767 32767 32767 32767 32767 32767 32767 32767 32767 32767 32767 32767 32767 32767 32767 32767 32767 32767 32767 32767 32767 32767 32767 32767 32767 32767 32767 32767 32767 32767 32767 32767 32767 32767 32767 32767 32767 32767 32767 32767 32767 32767 32767 32767 32767 32767 32767 32767 32767 32767 32767 32767 32767 32767 32767 32767 32767 32767 32767 32767 32767 32767 32767 32767 32767 
32767 32767 32767 32767 32767 32767 32767 32767 32767 32767 32767 32767 32767 32767 32767 32767 2312 2140 2155 2379 2542 2338 2384 2421 2300 2448 2154 1842 1682 1785 1730 1788 1937 1922 1847 32767 32767 32767 32767 32767 32767 32767 32767 32767 32767 32767 32767 32767 32767 32767 32767 32767 32767 32767 32767 32767 32767 32767 32767 32767 32767 32767 32767 32767 32767 32767 32767 32767 32767 32767 32767 32767 32767 32767 32767 32767 32767 32767 32767 32767 32767 32767 32767 32767 32767 32767 32767 32767 32767 32767 32767 32767 32767 32767 32767 32767 32767 32767 32767 32767 32767 
32767 32767 32767 32767 32767 32767 32767 32767 32767 32767 32767 32767 32767 32767 32767 2567 2378 2139 2127 2321 2524 2413 2236 2261 2261 2513 2394 2026 1731 1571 1613 1810 1896 1807 1703 1543 1511 1576 32767 32767 32767 32767 32767 32767 32767 32767 32767 32767 32767 32767 32767 32767 32767 32767 32767 32767 32767 32767 32767 32767 32767 32767 32767 32767 32767 32767 32767 32767 32767 32767 32767 32767 32767 32767 32767 32767 32767 32767 32767 32767 32767 32767 32767 32767 32767 32767 32767 32767 32767 32767 32767 32767 32767 32767 32767 32767 32767 32767 32767 32767 32767 
32767 32767 32767 32767 32767 32767 32767 32767 32767 32767 32767 32767 32767 32767 32767 2631 2530 2208 2012 2263 2360 2381 2256 2085 2278 2416 2263 2245 1979 1583 1495 1758 1750 1751 1738 1562 1437 1456 1468 1497 1522 32767 32767 32767 32767 32767 32767 32767 32767 32767 32767 32767 32767 32767 32767 32767 32767 32767 32767 32767 32767 32767 32767 32767 32767 32767 32767 32767 32767 32767 32767 32767 32767 32767 32767 32767 32767 32767 32767 32767 32767 32767 32767 32767 32767 32767 32767 32767 32767 32767 32767 32767 32767 32767 32767 32767 32767 32767 32767 32767 32767 
32767 32767 32767 32767 32767 32767 32767 32767 32767 32767 32767 32767 32767 32767 2710 2685 2497 2216 1938 2050 2028 1953 2037 2100 2336 2310 2011 2108 1964 1647 1425 1562 1592 1801 1714 1514 1414 1317 1352 1466 1477 32767 32767 32767 32767 32767 32767 32767 32767 32767 32767 32767 32767 32767 32767 32767 32767 32767 32767 32767 32767 32767 32767 32767 32767 32767 32767 32767 32767 32767 32767 32767 32767 32767 32767 32767 32767 32767 32767 32767 32767 32767 32767 32767 32767 32767 32767 32767 32767 32767 32767 32767 32767 32767 32767 32767 32767 32767 32767 32767 32767 
32767 32767 32767 32767 32767 32767 32767 32767 32767 32767 32767 32767 2541 2458 2461 2508 2312 2113 1821 1731 1614 1637 1903 2281 2380 2204 1817 1835 1826 1528 1363 1477 1634 1810 1733 1628 1519 1387 1281 1395 1460 1555 32767 32767 32767 32767 32767 32767 32767 32767 32767 32767 32767 32767 32767 32767 32767 32767 32767 32767 32767 32767 32767 32767 32767 32767 32767 32767 32767 32767 32767 32767 32767 32767 32767 32767 32767 32767 32767 32767 32767 32767 32767 32767 32767 32767 32767 32767 32767 32767 32767 32767 32767 32767 32767 32767 32767 32767 32767 32767 32767 
32767 32767 32767 32767 32767 32767 32767 32767 32767 32767 32767 32767 2434 2309 2295 2368 2270 2034 1772 1438 1462 1810 2172 2405 2285 2154 1790 1601 1671 1421 1431 1690 1796 1751 1555 1585 1629 1458 1277 1319 1447 1449 32767 32767 32767 32767 32767 32767 32767 32767 32767 32767 32767 32767 32767 32767 32767 32767 32767 32767 32767 32767 32767 32767 32767 32767 32767 32767 32767 32767 32767 32767 32767 32767 32767 32767 32767 32767 32767 32767 32767 32767 32767 32767 32767 32767 32767 32767 32767 32767 32767 32767 32767 32767 32767 32767 32767 32767 32767 32767 32767 
32767 32767 32767 32767 32767 32767 32767 32767 32767 32767 2398 2385 2417 2195 2084 2169 2137 1926 1625 1309 1538 1890 2170 2295 2191 2081 1834 1562 1420 1323 1542 1822 1758 1596 1499 1469 1576 1450 1272 1300 1359 1317 32767 32767 32767 32767 32767 32767 32767 32767 32767 32767 32767 32767 32767 32767 32767 32767 32767 32767 32767 32767 32767 32767 32767 32767 32767 32767 32767 32767 32767 32767 32767 32767 32767 32767 32767 32767 32767 32767 32767 32767 32767 32767 32767 32767 32767 32767 32767 32767 32767 32767 32767 32767 32767 32767 32767 32767 32767 32767 32767 
32767 32767 32767 32767 32767 32767 32767 2135 2173 2220 2211 2169 2260 2184 1986 1994 1887 1646 1422 1256 1563 1822 1943 2150 2072 2024 1994 1798 1492 1286 1544 1768 1683 1448 1371 1333 1451 1392 1271 1221 1254 32767 32767 32767 32767 32767 32767 32767 32767 32767 32767 32767 32767 32767 32767 32767 32767 32767 32767 32767 32767 32767 32767 32767 32767 32767 32767 32767 32767 32767 32767 32767 32767 32767 32767 32767 32767 32767 32767 32767 32767 32767 32767 32767 32767 32767 32767 32767 32767 32767 32767 32767 32767 32767 32767 32767 32767 32767 32767 32767 32767 
32767 32767 32767 32767 32767 32767 1960 1933 2011 1994 1926 1900 2047 1996 1930 1748 1642 1402 1254 1249 1506 1579 1774 2099 1985 1848 1853 1758 1530 1265 1390 1575 1594 1456 1251 1283 1374 1258 1229 1146 1227 32767 32767 32767 32767 32767 32767 32767 32767 32767 32767 32767 32767 32767 32767 32767 32767 32767 32767 32767 32767 32767 32767 32767 32767 32767 32767 32767 32767 32767 32767 32767 32767 32767 32767 32767 32767 32767 32767 32767 32767 32767 32767 32767 32767 32767 32767 32767 32767 32767 32767 32767 32767 32767 32767 32767 32767 32767 32767 32767 32767 
32767 32767 32767 32767 1877 1918 1885 1742 1799 1803 1695 1716 1847 1762 1878 1716 1504 1391 1249 1185 1325 1443 1785 2081 1962 1738 1610 1504 1394 1237 1221 1451 1425 1404 1219 1263 1318 1199 1130 1123 1256 32767 32767 32767 32767 32767 32767 32767 32767 32767 32767 32767 32767 32767 32767 32767 32767 32767 32767 32767 32767 32767 32767 32767 32767 32767 32767 32767 32767 32767 32767 32767 32767 32767 32767 32767 32767 32767 32767 32767 32767 32767 32767 32767 32767 32767 32767 32767 32767 32767 32767 32767 32767 32767 32767 32767 32767 32767 32767 32767 32767 
32767 32767 32767 32767 1746 1757 1792 1612 1616 1633 1517 1539 1628 1570 1704 1777 1771 1645 1344 1141 1335 1605 1856 2038 1969 1843 1742 1559 1341 1223 1138 1262 1262 1239 1130 1242 1216 1145 1079 1122 32767 32767 32767 32767 32767 32767 32767 32767 32767 32767 32767 32767 32767 32767 32767 32767 32767 32767 32767 32767 32767 32767 32767 32767 32767 32767 32767 32767 32767 32767 32767 32767 32767 32767 32767 32767 32767 32767 32767 32767 32767 32767 32767 32767 32767 32767 32767 32767 32767 32767 32767 32767 32767 32767 32767 32767 32767 32767 32767 32767 32767 
32767 32767 32767 32767 1685 1597 1623 1479 1447 1372 1312 1332 1365 1386 1453 1585 1675 1589 1306 1168 1473 1636 1753 1857 1900 1842 1879 1746 1485 1313 1170 1094 1111 1099 1125 1258 1153 1071 1050 1087 32767 32767 32767 32767 32767 32767 32767 32767 32767 32767 32767 32767 32767 32767 32767 32767 32767 32767 32767 32767 32767 32767 32767 32767 32767 32767 32767 32767 32767 32767 32767 32767 32767 32767 32767 32767 32767 32767 32767 32767 32767 32767 32767 32767 32767 32767 32767 32767 32767 32767 32767 32767 32767 32767 32767 32767 32767 32767 32767 32767 32767 
32767 32767 1817 1799 1677 1531 1492 1430 1368 1393 1295 1206 1172 1211 1247 1364 1430 1410 1190 1115 1294 1375 1481 1628 1711 1708 1867 1794 1602 1494 1321 1146 1045 1021 1051 1142 1073 1017 1059 32767 32767 32767 32767 32767 32767 32767 32767 32767 32767 32767 32767 32767 32767 32767 32767 32767 32767 32767 32767 32767 32767 32767 32767 32767 32767 32767 32767 32767 32767 32767 32767 32767 32767 32767 32767 32767 32767 32767 32767 32767 32767 32767 32767 32767 32767 32767 32767 32767 32767 32767 32767 32767 32767 32767 32767 32767 32767 32767 32767 32767 32767 
32767 32767 1814 1732 1721 1730 1714 1627 1523 1547 1485 1283 1195 1115 1105 1134 1158 1151 1105 1017 1061 1125 1221 1343 1496 1576 1754 1786 1670 1504 1291 1174 1146 1049 974 995 989 1032 32767 32767 32767 32767 32767 32767 32767 32767 32767 32767 32767 32767 32767 32767 32767 32767 32767 32767 32767 32767 32767 32767 32767 32767 32767 32767 32767 32767 32767 32767 32767 32767 32767 32767 32767 32767 32767 32767 32767 32767 32767 32767 32767 32767 32767 32767 32767 32767 32767 32767 32767 32767 32767 32767 32767 32767 32767 32767 32767 32767 32767 32767 32767 
2144 2009 1849 1806 1895 1968 32767 1829 1691 1632 1540 1370 1326 1202 1194 1157 1072 1049 1022 996 1081 1152 1144 1197 1333 1455 1612 1655 1539 1407 1318 1286 1228 1127 1033 980 1052 1062 32767 32767 32767 32767 32767 32767 32767 32767 32767 32767 32767 32767 32767 32767 32767 32767 32767 32767 32767 32767 32767 32767 32767 32767 32767 32767 32767 32767 32767 32767 32767 32767 32767 32767 32767 32767 32767 32767 32767 32767 32767 32767 32767 32767 32767 32767 32767 32767 32767 32767 32767 32767 32767 32767 32767 32767 32767 32767 32767 32767 32767 32767 32767 
32767 1946 1884 1915 32767 32767 32767 32767 1828 1748 1615 1561 1469 1373 1460 1377 1221 1191 1075 1029 1227 1310 1304 1316 1400 1471 1504 1601 1626 1548 1448 1393 1381 1327 1106 1027 1190 32767 32767 32767 32767 32767 32767 32767 32767 32767 32767 32767 32767 32767 32767 32767 32767 32767 32767 32767 32767 32767 32767 32767 32767 32767 32767 32767 32767 32767 32767 32767 32767 32767 32767 32767 32767 32767 32767 32767 32767 32767 32767 32767 32767 32767 32767 32767 32767 32767 32767 32767 32767 32767 32767 32767 32767 32767 32767 32767 32767 32767 32767 32767 32767 
32767 32767 32767 32767 32767 32767 32767 32767 32767 32767 1775 1712 1577 1597 1584 1410 1287 1213 1022 1063 1266 1509 1540 1479 1505 1534 1574 1662 1769 1732 1639 1575 1460 1245 1025 985 1070 32767 32767 32767 32767 32767 32767 32767 32767 32767 32767 32767 32767 32767 32767 32767 32767 32767 32767 32767 32767 32767 32767 32767 32767 32767 32767 32767 32767 32767 32767 32767 32767 32767 32767 32767 32767 32767 32767 32767 32767 32767 32767 32767 32767 32767 32767 32767 32767 32767 32767 32767 32767 32767 32767 32767 32767 32767 32767 32767 32767 32767 32767 32767 32767 
32767 32767 32767 32767 32767 32767 32767 32767 32767 32767 32767 1869 1787 1690 1482 1320 1222 1090 990 1217 1344 1659 1745 1665 1646 1667 1734 1784 1694 1579 1510 1455 1333 1142 1013 933 970 1038 32767 32767 32767 32767 32767 32767 32767 32767 32767 32767 32767 32767 32767 32767 32767 32767 32767 32767 32767 32767 32767 32767 32767 32767 32767 32767 32767 32767 32767 32767 32767 32767 32767 32767 32767 32767 32767 32767 32767 32767 32767 32767 32767 32767 32767 32767 32767 32767 32767 32767 32767 32767 32767 32767 32767 32767 32767 32767 32767 32767 32767 32767 32767 
32767 32767 32767 32767 32767 32767 32767 32767 32767 32767 1697 1813 1839 1818 1584 1451 1319 1135 989 1194 1319 1616 1864 1798 1769 1781 1780 1713 1600 1407 1288 1279 1285 1213 1114 944 936 1005 32767 32767 32767 32767 32767 32767 32767 32767 32767 32767 32767 32767 32767 32767 32767 32767 32767 32767 32767 32767 32767 32767 32767 32767 32767 32767 32767 32767 32767 32767 32767 32767 32767 32767 32767 32767 32767 32767 32767 32767 32767 32767 32767 32767 32767 32767 32767 32767 32767 32767 32767 32767 32767 32767 32767 32767 32767 32767 32767 32767 32767 32767 32767 
32767 32767 32767 32767 32767 32767 32767 32767 32767 32767 1504 1573 1570 1595 1566 1586 1356 1057 933 1070 1227 1516 1729 1662 1514 1500 1445 1347 1272 1235 1136 1114 1212 1238 1119 952 927 32767 32767 32767 32767 32767 32767 32767 32767 32767 32767 32767 32767 32767 32767 32767 32767 32767 32767 32767 32767 32767 32767 32767 32767 32767 32767 32767 32767 32767 32767 32767 32767 32767 32767 32767 32767 32767 32767 32767 32767 32767 32767 32767 32767 32767 32767 32767 32767 32767 32767 32767 32767 32767 32767 32767 32767 32767 32767 32767 32767 32767 32767 32767 32767 
32767 32767 32767 32767 32767 32767 32767 32767 32767 1370 1322 1348 1391 1397 1297 1367 1311 1026 926 1071 1297 1538 1644 1496 1273 1215 1264 1135 1060 1126 1074 996 1114 1100 1064 934 32767 32767 32767 32767 32767 32767 32767 32767 32767 32767 32767 32767 32767 32767 32767 32767 32767 32767 32767 32767 32767 32767 32767 32767 32767 32767 32767 32767 32767 32767 32767 32767 32767 32767 32767 32767 32767 32767 32767 32767 32767 32767 32767 32767 32767 32767 32767 32767 32767 32767 32767 32767 32767 32767 32767 32767 32767 32767 32767 32767 32767 32767 32767 32767 32767 
32767 32767 32767 32767 32767 32767 32767 32767 32767 1238 1136 1174 1189 1239 1132 1143 1243 1079 904 1034 1287 1541 1582 1466 1289 1102 1206 1151 988 1070 1059 943 994 984 956 890 32767 32767 32767 32767 32767 32767 32767 32767 32767 32767 32767 32767 32767 32767 32767 32767 32767 32767 32767 32767 32767 32767 32767 32767 32767 32767 32767 32767 32767 32767 32767 32767 32767 32767 32767 32767 32767 32767 32767 32767 32767 32767 32767 32767 32767 32767 32767 32767 32767 32767 32767 32767 32767 32767 32767 32767 32767 32767 32767 32767 32767 32767 32767 32767 32767 
32767 32767 32767 32767 32767 32767 32767 32767 32767 1199 1090 1091 1051 1113 1081 1115 1206 1056 902 1064 1301 1339 1338 1265 1221 1018 1103 1113 971 942 986 937 904 866 862 879 32767 32767 32767 32767 32767 32767 32767 32767 32767 32767 32767 32767 32767 32767 32767 32767 32767 32767 32767 32767 32767 32767 32767 32767 32767 32767 32767 32767 32767 32767 32767 32767 32767 32767 32767 32767 32767 32767 32767 32767 32767 32767 32767 32767 32767 32767 32767 32767 32767 32767 32767 32767 32767 32767 32767 32767 32767 32767 32767 32767 32767 32767 32767 32767 32767 
32767 32767 32767 32767 32767 32767 32767 32767 1100 1053 997 951 920 921 935 995 1044 1022 875 1011 1160 1147 1193 1107 1041 965 964 969 897 873 877 837 833 890 929 32767 32767 32767 32767 32767 32767 32767 32767 32767 32767 32767 32767 32767 32767 32767 32767 32767 32767 32767 32767 32767 32767 32767 32767 32767 32767 32767 32767 32767 32767 32767 32767 32767 32767 32767 32767 32767 32767 32767 32767 32767 32767 32767 32767 32767 32767 32767 32767 32767 32767 32767 32767 32767 32767 32767 32767 32767 32767 32767 32767 32767 32767 32767 32767 32767 32767 
32767 32767 32767 32767 32767 32767 32767 32767 32767 1087 1023 1003 973 921 869 938 942 923 819 859 962 1036 1033 957 918 914 866 884 838 812 804 842 883 969 32767 32767 32767 32767 32767 32767 32767 32767 32767 32767 32767 32767 32767 32767 32767 32767 32767 32767 32767 32767 32767 32767 32767 32767 32767 32767 32767 32767 32767 32767 32767 32767 32767 32767 32767 32767 32767 32767 32767 32767 32767 32767 32767 32767 32767 32767 32767 32767 32767 32767 32767 32767 32767 32767 32767 32767 32767 32767 32767 32767 32767 32767 32767 32767 32767 32767 32767 
32767 32767 32767 32767 32767 32767 32767 32767 32767 1102 1096 1058 1046 994 880 853 878 914 838 842 939 949 959 871 862 879 836 813 782 804 881 967 991 945 32767 32767 32767 32767 32767 32767 32767 32767 32767 32767 32767 32767 32767 32767 32767 32767 32767 32767 32767 32767 32767 32767 32767 32767 32767 32767 32767 32767 32767 32767 32767 32767 32767 32767 32767 32767 32767 32767 32767 32767 32767 32767 32767 32767 32767 32767 32767 32767 32767 32767 32767 32767 32767 32767 32767 32767 32767 32767 32767 32767 32767 32767 32767 32767 32767 32767 32767 
32767 32767 32767 32767 32767 32767 32767 32767 32767 1155 1143 1094 1144 1075 940 842 805 800 790 836 929 892 876 853 829 806 771 761 782 886 1000 1039 1026 976 32767 32767 32767 32767 32767 32767 32767 32767 32767 32767 32767 32767 32767 32767 32767 32767 32767 32767 32767 32767 32767 32767 32767 32767 32767 32767 32767 32767 32767 32767 32767 32767 32767 32767 32767 32767 32767 32767 32767 32767 32767 32767 32767 32767 32767 32767 32767 32767 32767 32767 32767 32767 32767 32767 32767 32767 32767 32767 32767 32767 32767 32767 32767 32767 32767 32767 32767 
32767 32767 32767 32767 32767 32767 32767 32767 32767 1316 1233 1195 1251 1195 998 876 866 827 760 783 834 817 773 760 751 764 801 851 828 851 927 963 1004 1022 32767 32767 32767 32767 32767 32767 32767 32767 32767 32767 32767 32767 32767 32767 32767 32767 32767 32767 32767 32767 32767 32767 32767 32767 32767 32767 32767 32767 32767 32767 32767 32767 32767 32767 32767 32767 32767 32767 32767 32767 32767 32767 32767 32767 32767 32767 32767 32767 32767 32767 32767 32767 32767 32767 32767 32767 32767 32767 32767 32767 32767 32767 32767 32767 32767 32767 32767 
32767 32767 32767 32767 32767 32767 32767 32767 32767 32767 1355 1316 1219 1148 1036 926 915 878 778 769 827 774 734 772 784 859 945 948 875 852 901 985 1052 32767 32767 32767 32767 32767 32767 32767 32767 32767 32767 32767 32767 32767 32767 32767 32767 32767 32767 32767 32767 32767 32767 32767 32767 32767 32767 32767 32767 32767 32767 32767 32767 32767 32767 32767 32767 32767 32767 32767 32767 32767 32767 32767 32767 32767 32767 32767 32767 32767 32767 32767 32767 32767 32767 32767 32767 32767 32767 32767 32767 32767 32767 32767 32767 32767 32767 32767 32767 
32767 32767 32767 32767 32767 32767 32767 32767 32767 32767 32767 32767 1125 1038 984 1001 982 910 799 739 755 724 770 828 858 872 920 954 971 1010 1020 1046 1067 32767 32767 32767 32767 32767 32767 32767 32767 32767 32767 32767 32767 32767 32767 32767 32767 32767 32767 32767 32767 32767 32767 32767 32767 32767 32767 32767 32767 32767 32767 32767 32767 32767 32767 32767 32767 32767 32767 32767 32767 32767 32767 32767 32767 32767 32767 32767 32767 32767 32767 32767 32767 32767 32767 32767 32767 32767 32767 32767 32767 32767 32767 32767 32767 32767 32767 32767 32767 
32767 32767 32767 32767 32767 32767 32767 32767 32767 32767 32767 32767 1123 1013 989 972 922 885 812 753 709 764 885 909 887 946 912 989 1032 1084 1094 1134 1181 1230 32767 32767 32767 32767 32767 32767 32767 32767 32767 32767 32767 32767 32767 32767 32767 32767 32767 32767 32767 32767 32767 32767 32767 32767 32767 32767 32767 32767 32767 32767 32767 32767 32767 32767 32767 32767 32767 32767 32767 32767 32767 32767 32767 32767 32767 32767 32767 32767 32767 32767 32767 32767 32767 32767 32767 32767 32767 32767 32767 32767 32767 32767 32767 32767 32767 32767 32767 
32767 32767 32767 32767 32767 32767 32767 32767 32767 32767 32767 32767 1100 1021 980 958 908 880 929 900 767 712 792 856 890 878 833 859 878 918 943 987 1044 1090 32767 32767 32767 32767 32767 32767 32767 32767 32767 32767 32767 32767 32767 32767 32767 32767 32767 32767 32767 32767 32767 32767 32767 32767 32767 32767 32767 32767 32767 32767 32767 32767 32767 32767 32767 32767 32767 32767 32767 32767 32767 32767 32767 32767 32767 32767 32767 32767 32767 32767 32767 32767 32767 32767 32767 32767 32767 32767 32767 32767 32767 32767 32767 32767 32767 32767 32767 
32767 32767 32767 32767 32767 32767 32767 32767 32767 32767 32767 32767 1112 1101 1071 1053 977 889 889 862 766 727 893 961 904 828 899 931 950 983 1005 1005 1096 1142 1191 32767 32767 32767 32767 32767 32767 32767 32767 32767 32767 32767 32767 32767 32767 32767 32767 32767 32767 32767 32767 32767 32767 32767 32767 32767 32767 32767 32767 32767 32767 32767 32767 32767 32767 32767 32767 32767 32767 32767 32767 32767 32767 32767 32767 32767 32767 32767 32767 32767 32767 32767 32767 32767 32767 32767 32767 32767 32767 32767 32767 32767 32767 32767 32767 32767 32767 
32767 32767 32767 32767 32767 32767 32767 32767 32767 32767 32767 32767 1227 1186 1088 1097 1009 881 792 753 721 720 856 949 839 929 996 1056 1074 1137 1112 1100 1185 1257 1266 32767 32767 32767 32767 32767 32767 32767 32767 32767 32767 32767 32767 32767 32767 32767 32767 32767 32767 32767 32767 32767 32767 32767 32767 32767 32767 32767 32767 32767 32767 32767 32767 32767 32767 32767 32767 32767 32767 32767 32767 32767 32767 32767 32767 32767 32767 32767 32767 32767 32767 32767 32767 32767 32767 32767 32767 32767 32767 32767 32767 32767 32767 32767 32767 32767 32767 
32767 32767 32767 32767 32767 32767 32767 32767 32767 32767 32767 32767 32767 1138 1016 971 911 843 779 750 761 709 813 917 828 952 1059 1163 1235 1286 1208 1162 1239 1333 1339 32767 32767 32767 32767 32767 32767 32767 32767 32767 32767 32767 32767 32767 32767 32767 32767 32767 32767 32767 32767 32767 32767 32767 32767 32767 32767 32767 32767 32767 32767 32767 32767 32767 32767 32767 32767 32767 32767 32767 32767 32767 32767 32767 32767 32767 32767 32767 32767 32767 32767 32767 32767 32767 32767 32767 32767 32767 32767 32767 32767 32767 32767 32767 32767 32767 32767 
32767 32767 32767 32767 32767 32767 32767 32767 32767 32767 32767 32767 32767 1071 1025 923 847 793 786 821 803 688 769 874 818 931 1096 1220 1344 1392 1310 1265 1316 32767 32767 32767 32767 32767 32767 32767 32767 32767 32767 32767 32767 32767 32767 32767 32767 32767 32767 32767 32767 32767 32767 32767 32767 32767 32767 32767 32767 32767 32767 32767 32767 32767 32767 32767 32767 32767 32767 32767 32767 32767 32767 32767 32767 32767 32767 32767 32767 32767 32767 32767 32767 32767 32767 32767 32767 32767 32767 32767 32767 32767 32767 32767 32767 32767 32767 32767 32767 
32767 32767 32767 32767 32767 32767 32767 32767 32767 32767 32767 32767 32767 32767 1038 922 854 861 881 878 790 689 727 815 775 881 1114 1272 1352 1404 1414 1381 1407 32767 32767 32767 32767 32767 32767 32767 32767 32767 32767 32767 32767 32767 32767 32767 32767 32767 32767 32767 32767 32767 32767 32767 32767 32767 32767 32767 32767 32767 32767 32767 32767 32767 32767 32767 32767 32767 32767 32767 32767 32767 32767 32767 32767 32767 32767 32767 32767 32767 32767 32767 32767 32767 32767 32767 32767 32767 32767 32767 32767 32767 32767 32767 32767 32767 32767 32767 32767 
32767 32767 32767 32767 32767 32767 32767 32767 32767 32767 32767 32767 32767 1014 979 901 888 884 926 947 812 704 698 753 830 897 1011 1090 1190 1324 1378 1316 1315 32767 32767 32767 32767 32767 32767 32767 32767 32767 32767 32767 32767 32767 32767 32767 32767 32767 32767 32767 32767 32767 32767 32767 32767 32767 32767 32767 32767 32767 32767 32767 32767 32767 32767 32767 32767 32767 32767 215 214 32767 32767 32767 32767 32767 32767 32767 32767 32767 32767 32767 32767 32767 32767 32767 32767 32767 32767 32767 32767 32767 32767 32767 32767 32767 32767 32767 32767 
32767 32767 32767 32767 32767 32767 32767 32767 32767 32767 32767 32767 32767 993 961 941 915 901 936 969 902 737 704 755 814 840 896 1007 1182 1264 1255 1194 1234 1313 32767 32767 32767 32767 32767 32767 32767 32767 32767 32767 32767 32767 32767 32767 32767 32767 32767 32767 32767 32767 32767 32767 32767 32767 32767 32767 32767 32767 32767 32767 32767 32767 32767 32767 32767 32767 225 198 195 201 32767 32767 32767 32767 32767 32767 32767 32767 32767 32767 32767 32767 32767 32767 32767 32767 32767 32767 32767 32767 32767 32767 32767 32767 32767 32767 32767 
32767 32767 32767 32767 32767 32767 32767 32767 32767 32767 32767 32767 32767 1109 1087 1075 1018 977 972 962 942 790 674 706 782 841 932 1055 1161 1199 1197 1090 1123 1216 32767 32767 32767 32767 32767 32767 32767 32767 32767 32767 32767 32767 32767 32767 32767 32767 32767 32767 32767 32767 32767 32767 32767 32767 32767 32767 32767 32767 32767 32767 32767 32767 250 225 222 222 203 190 179 187 170 32767 32767 32767 32767 32767 32767 32767 32767 32767 32767 32767 32767 32767 32767 32767 32767 32767 32767 32767 32767 32767 32767 32767 32767 32767 32767 
32767 32767 32767 32767 32767 32767 32767 32767 32767 32767 32767 32767 32767 1037 1009 988 979 967 949 921 857 702 648 727 806 854 887 951 1047 1051 1086 1017 1088 1203 1270 32767 32767 32767 32767 32767 32767 32767 32767 32767 32767 32767 32767 32767 32767 32767 32767 32767 32767 32767 32767 32767 32767 32767 32767 32767 32767 32767 32767 32767 32767 32767 259 197 196 220 187 164 158 157 153 177 32767 32767 32767 32767 32767 32767 32767 32767 32767 32767 32767 32767 32767 32767 32767 32767 32767 32767 32767 32767 32767 32767 32767 32767 32767 
32767 32767 32767 32767 32767 32767 32767 32767 32767 32767 32767 32767 32767 929 930 908 886 830 793 759 765 668 643 717 746 815 855 938 962 1019 1106 993 1050 1118 1165 1252 32767 32767 32767 32767 32767 32767 32767 32767 32767 32767 32767 32767 32767 32767 32767 32767 32767 32767 32767 32767 32767 32767 32767 32767 32767 32767 32767 32767 32767 32767 240 190 183 203 192 154 145 133 140 168 165 163 150 32767 149 32767 32767 32767 32767 32767 32767 32767 32767 32767 32767 32767 32767 32767 32767 32767 32767 32767 32767 32767 32767 
32767 32767 32767 32767 32767 32767 32767 32767 32767 32767 32767 32767 32767 845 839 840 826 786 752 690 664 625 660 717 805 829 812 869 913 989 1023 940 964 1022 1088 1186 32767 32767 32767 32767 32767 32767 32767 32767 32767 32767 620 689 692 688 776 32767 32767 32767 32767 32767 32767 32767 32767 32767 32767 32767 32767 32767 32767 32767 240 181 177 176 179 152 137 138 128 151 145 149 134 129 132 136 131 108 98 32767 32767 32767 32767 32767 32767 32767 32767 32767 32767 32767 32767 32767 32767 32767 32767 
32767 32767 32767 32767 32767 32767 32767 32767 32767 32767 32767 32767 32767 32767 804 762 731 716 695 655 687 635 618 708 738 724 755 837 889 954 1002 916 980 1060 1145 1203 32767 32767 32767 32767 32767 32767 32767 32767 32767 614 621 646 633 680 791 821 825 32767 32767 32767 32767 32767 32767 32767 32767 32767 32767 32767 32767 32767 254 182 177 161 158 151 126 143 123 129 127 150 142 109 109 121 122 95 81 80 32767 32767 32767 32767 32767 32767 32767 32767 32767 32767 32767 32767 32767 32767 32767 
32767 32767 32767 32767 32767 32767 32767 32767 32767 32767 32767 32767 32767 32767 32767 781 721 692 667 689 731 677 586 627 635 664 732 834 967 1031 973 898 1077 1174 1186 1093 32767 32767 32767 32767 32767 32767 32767 32767 32767 619 595 588 625 687 749 774 798 794 710 673 32767 32767 32767 32767 32767 32767 32767 32767 491 449 301 192 178 153 139 145 125 132 129 111 112 130 139 119 95 105 122 113 89 74 82 89 107 96 93 99 115 32767 32767 32767 32767 32767 32767 32767 32767 
32767 32767 32767 32767 32767 32767 32767 32767 32767 32767 32767 32767 32767 32767 32767 814 792 741 706 727 697 647 588 580 596 686 761 919 1042 1068 884 869 992 1078 1050 1011 1059 1060 32767 32767 32767 32767 32767 32767 32767 589 546 563 638 644 676 751 697 592 586 610 584 32767 32767 32767 32767 32767 32767 32767 411 366 303 201 182 149 132 125 121 119 121 115 97 111 133 134 94 88 102 106 87 58 72 61 79 84 68 84 94 32767 32767 32767 32767 32767 32767 32767 32767 
32767 32767 32767 32767 32767 32767 32767 32767 32767 32767 32767 32767 32767 32767 32767 32767 870 787 736 706 680 639 635 591 574 645 760 904 956 925 839 833 905 926 881 881 918 937 1016 1114 32767 32767 32767 32767 32767 554 527 572 596 589 578 694 598 479 486 515 542 32767 32767 32767 32767 32767 32767 32767 409 316 243 202 181 153 134 117 108 108 112 123 98 104 137 140 108 76 77 85 77 49 56 44 65 68 57 70 70 55 32767 32767 32767 32767 32767 32767 32767 
32767 32767 32767 32767 32767 32767 32767 32767 32767 32767 32767 32767 32767 32767 32767 32767 836 790 765 739 705 685 652 571 573 657 717 746 742 724 704 707 759 812 796 815 852 933 1039 32767 32767 32767 32767 32767 32767 585 519 546 539 562 509 638 653 479 409 427 570 32767 32767 32767 32767 32767 32767 492 482 439 352 266 201 166 137 125 114 98 97 109 110 91 119 129 118 89 62 69 63 44 36 33 40 46 47 58 47 28 13 32767 32767 32767 32767 32767 32767 
32767 32767 32767 32767 32767 32767 32767 32767 32767 32767 32767 32767 32767 32767 32767 32767 917 918 900 827 807 736 613 559 548 593 689 649 642 651 635 652 689 731 753 806 870 972 1108 32767 32767 32767 32767 32767 32767 594 504 502 535 555 474 541 589 466 401 429 589 701 659 32767 32767 32767 32767 461 371 392 437 403 300 207 149 133 117 101 90 91 111 87 100 109 108 88 55 59 53 29 19 16 16 28 36 40 28 14 6 32767 32767 32767 32767 32767 32767 
32767 32767 32767 32767 32767 32767 32767 32767 32767 32767 32767 32767 32767 32767 32767 857 921 955 917 868 802 707 610 562 540 571 658 605 583 600 595 618 643 685 736 802 894 979 1092 32767 32767 32767 32767 32767 32767 691 556 480 502 496 448 455 497 449 383 387 496 609 558 553 627 757 750 511 407 392 344 333 318 252 174 141 129 108 101 85 110 90 85 101 85 85 55 46 49 22 15 22 9 17 25 22 13 4 3 4 6 32767 32767 32767 32767 
32767 32767 32767 32767 32767 32767 32767 32767 32767 32767 32767 32767 32767 32767 32767 845 851 886 866 861 784 705 668 619 558 558 598 580 546 563 579 618 667 728 752 830 928 949 976 1122 32767 32767 32767 32767 32767 918 733 550 461 450 409 409 445 443 376 349 377 488 467 426 512 713 772 572 464 465 393 346 270 243 208 157 135 116 111 86 93 89 75 92 66 52 34 27 30 31 22 33 13 9 13 11 4 0 1 2 4 25 62 32767 32767 
32767 32767 32767 32767 32767 32767 32767 32767 32767 32767 32767 32767 32767 32767 32767 845 803 811 828 837 860 736 678 643 558 521 540 539 529 554 599 649 700 760 776 830 891 905 934 1058 1125 32767 32767 32767 32767 1030 944 724 498 395 369 366 399 399 394 398 317 354 371 380 499 682 766 575 436 425 343 352 343 251 221 189 162 125 103 80 80 82 70 71 41 25 22 22 20 28 21 47 23 3 2 2 3 1 1 1 1 28 102 118 32767 
32767 32767 32767 32767 32767 32767 32767 32767 32767 32767 32767 32767 32767 32767 32767 834 800 780 806 801 737 697 650 619 551 510 521 514 540 578 619 629 682 731 769 775 816 859 914 976 1002 987 954 963 1011 1041 1060 867 602 411 350 357 387 355 367 423 337 297 320 400 545 668 710 610 437 372 335 290 313 293 266 221 184 136 111 81 72 74 50 37 26 24 22 20 17 20 36 67 43 4 -1 -3 -3 0 -1 -1 -2 10 96 147 32767 
32767 32767 32767 32767 32767 32767 32767 32767 32767 32767 32767 32767 32767 32767 32767 810 796 765 794 830 688 640 627 572 515 493 498 517 555 593 598 600 648 688 727 735 771 830 890 951 996 958 937 943 987 1029 1083 986 738 521 365 350 374 320 357 430 419 333 318 459 590 628 598 559 438 337 316 267 277 258 244 236 196 132 116 75 60 60 35 31 29 28 27 27 22 38 75 96 69 17 5 3 -1 -3 -2 -2 -3 -1 25 86 32767 
32767 32767 32767 32767 32767 32767 32767 32767 32767 32767 32767 32767 32767 32767 32767 32767 783 760 828 856 707 610 593 542 497 489 505 529 554 578 564 568 605 647 682 706 735 803 891 975 1017 953 921 920 969 1019 1006 1010 899 628 422 327 316 305 350 445 470 410 299 372 547 534 515 471 360 298 307 256 234 242 205 198 180 117 118 101 52 37 34 33 33 32 34 42 40 49 88 125 80 22 8 6 3 -1 -5 -5 -7 -7 -4 17 32767 
32767 32767 32767 32767 32767 32767 32767 32767 32767 32767 32767 32767 32767 32767 32767 803 789 780 855 888 796 637 570 531 495 489 494 523 547 563 543 536 569 600 624 675 711 804 911 995 1027 947 904 901 952 1032 1036 931 966 723 551 399 272 262 348 422 430 405 366 271 328 391 422 390 335 274 240 209 192 200 184 163 173 125 102 101 65 36 37 41 41 42 45 61 67 62 85 121 87 32 17 12 5 3 0 -3 -6 -6 -9 -8 32767 
32767 32767 32767 32767 32767 32767 32767 32767 32767 32767 32767 32767 32767 32767 32767 32767 768 783 829 839 847 736 628 589 504 475 481 510 533 546 527 516 541 572 604 661 731 829 904 991 1053 977 907 883 942 1004 1022 805 918 904 692 463 364 273 300 411 440 464 458 306 255 309 368 321 368 317 225 187 171 168 149 135 145 110 66 62 81 41 46 52 52 56 62 81 94 74 77 118 103 55 32 22 8 7 3 -1 -2 -3 -5 -8 32767 
32767 32767 32767 32767 32767 32767 32767 32767 32767 32767 32767 32767 32767 32767 32767 32767 766 752 777 779 807 813 725 628 523 483 484 506 504 501 514 503 503 523 583 640 743 827 895 978 1054 1047 950 883 903 908 862 666 713 922 750 555 482 302 246 342 404 444 463 447 315 260 286 234 267 261 224 178 160 170 161 129 116 78 54 59 76 90 73 72 72 77 87 93 121 101 74 105 112 70 43 29 11 9 7 3 8 9 -4 32767 32767 
32767 32767 32767 32767 32767 32767 32767 32767 32767 32767 32767 32767 32767 32767 32767 32767 32767 741 725 734 726 757 730 631 530 478 480 487 470 469 502 499 473 488 559 644 767 822 891 954 1016 1112 1012 878 777 647 586 557 633 772 777 713 600 445 247 224 292 397 376 451 397 272 244 239 189 179 191 166 149 150 150 136 98 66 83 125 152 196 125 100 106 107 105 95 122 118 87 99 116 82 44 35 20 14 12 6 26 27 2 32767 32767 
32767 32767 32767 32767 32767 32767 32767 32767 32767 32767 32767 32767 32767 32767 32767 32767 32767 790 731 677 637 632 629 594 509 464 478 469 454 457 488 505 478 480 571 659 760 799 875 903 971 1077 989 785 736 581 506 475 548 668 782 821 757 581 318 199 244 306 261 269 287 291 318 334 230 173 145 160 144 137 133 125 90 58 100 165 198 239 178 137 155 154 127 110 119 125 118 109 118 97 54 30 23 17 19 8 23 33 32767 32767 32767 
32767 32767 32767 32767 32767 32767 32767 32767 32767 32767 32767 32767 32767 32767 32767 32767 32767 782 768 747 665 577 559 548 492 457 463 452 444 447 475 488 474 456 527 650 721 710 810 832 956 900 769 716 705 651 586 445 482 688 687 679 703 636 432 225 188 219 244 227 240 270 287 338 332 194 125 143 134 120 119 111 98 63 106 159 226 258 208 182 214 189 166 131 125 129 148 122 111 103 68 31 20 19 29 15 16 32767 32767 32767 32767 
32767 32767 32767 32767 32767 32767 32767 32767 32767 32767 32767 32767 32767 32767 32767 32767 32767 32767 811 763 700 607 539 519 485 456 455 444 435 445 457 472 492 441 460 616 701 673 732 781 827 668 638 715 660 536 564 495 450 668 562 436 444 522 472 249 180 196 231 259 235 235 246 262 355 237 122 112 117 104 100 87 83 69 124 146 192 281 237 222 263 245 207 160 136 139 147 121 98 78 60 30 24 24 33 21 16 32767 32767 32767 32767 
32767 32767 32767 32767 32767 32767 32767 32767 32767 32767 32767 32767 32767 32767 32767 32767 32767 32767 828 812 771 636 565 517 482 477 491 462 436 436 440 462 510 476 450 541 632 582 698 700 593 560 621 731 810 647 462 470 394 464 386 287 280 312 414 243 167 200 237 261 214 213 199 199 282 266 148 96 94 88 82 73 64 61 95 111 185 288 252 272 297 312 263 211 161 150 123 108 99 68 44 28 32 44 46 35 33 32767 32767 32767 32767 
32767 32767 32767 32767 32767 32767 32767 32767 32767 32767 32767 32767 32767 32767 32767 32767 32767 32767 823 859 802 656 577 524 492 493 490 467 444 431 433 446 485 504 479 481 491 555 625 559 507 498 573 702 831 712 426 373 341 323 308 411 406 287 282 205 160 195 237 213 186 168 146 127 159 211 168 107 82 77 71 64 59 65 103 116 186 282 279 308 362 389 343 246 184 149 125 94 75 57 37 28 29 46 51 39 32767 32767 32767 32767 32767 
32767 32767 32767 32767 32767 32767 32767 32767 32767 32767 32767 32767 32767 32767 32767 32767 32767 779 812 810 695 622 571 539 509 493 479 461 447 441 435 469 452 475 533 467 404 409 438 470 463 434 587 665 739 599 350 320 344 483 503 645 670 522 282 238 177 177 234 177 152 126 114 124 119 139 146 108 80 76 73 70 68 69 99 125 194 247 256 312 353 336 267 197 157 133 114 85 58 54 47 30 40 36 42 51 32767 32767 32767 32767 32767 
32767 32767 32767 32767 32767 32767 32767 32767 32767 32767 32767 32767 32767 32767 32767 32767 32767 755 776 746 649 606 572 538 508 494 479 460 446 451 452 461 464 493 591 610 510 397 410 426 424 384 494 575 558 482 403 438 446 596 659 828 920 640 466 360 198 159 200 185 143 134 140 155 163 103 98 92 95 82 79 75 73 74 88 94 170 228 229 289 319 267 235 195 150 110 90 70 62 78 68 36 54 42 47 32767 32767 32767 32767 32767 32767 
32767 32767 32767 32767 32767 32767 32767 32767 32767 32767 32767 32767 32767 32767 32767 32767 761 712 731 748 715 714 624 542 505 489 475 458 454 461 483 487 489 547 623 695 642 479 473 474 499 490 400 408 378 368 472 696 659 606 678 760 937 773 662 446 221 144 138 137 129 168 183 175 181 127 102 123 141 95 83 80 79 95 104 91 145 202 243 314 339 304 321 282 229 150 98 83 82 85 62 37 53 51 49 32767 32767 32767 32767 32767 32767 
32767 32767 32767 32767 32767 32767 32767 32767 32767 32767 32767 32767 32767 32767 32767 32767 751 707 686 738 732 743 663 545 504 484 470 461 467 476 498 508 538 605 666 700 611 507 511 523 514 636 471 372 440 564 579 844 830 564 495 596 721 628 445 373 224 156 147 145 142 191 238 225 211 174 163 186 151 113 92 90 91 113 106 91 148 210 275 317 358 312 278 266 226 158 110 106 96 74 48 37 50 56 54 32767 32767 32767 32767 32767 32767 
32767 32767 32767 32767 32767 32767 32767 32767 32767 32767 32767 32767 32767 32767 32767 32767 750 708 658 703 704 719 620 535 496 480 472 469 474 493 511 535 577 645 702 707 574 518 546 524 571 719 711 529 527 687 733 962 850 525 410 411 506 448 315 303 246 206 182 202 178 190 225 237 241 211 221 197 163 134 104 98 102 107 85 93 151 194 254 306 328 279 218 212 186 133 100 105 87 56 41 43 55 65 65 67 32767 32767 32767 32767 32767 
32767 32767 32767 32767 32767 32767 32767 32767 32767 32767 32767 32767 32767 32767 32767 32767 746 699 643 652 660 659 582 533 493 483 485 473 476 498 524 553 577 658 731 738 606 557 555 509 655 790 821 677 587 735 907 907 721 562 534 400 376 393 411 478 445 284 216 226 196 207 214 234 249 221 211 180 159 144 120 107 112 97 91 104 143 188 242 276 324 316 246 193 154 124 102 95 80 54 48 54 74 89 87 32767 32767 32767 32767 32767 32767 
32767 32767 32767 32767 32767 32767 32767 32767 32767 32767 32767 32767 32767 32767 32767 32767 726 674 642 627 590 566 555 537 508 498 489 473 480 503 538 570 594 653 702 742 628 587 530 526 674 790 901 865 773 801 952 777 632 702 672 490 411 502 578 525 594 369 245 214 201 195 195 223 214 200 186 178 162 145 126 116 112 91 106 108 140 189 228 243 292 332 264 180 134 133 139 109 84 67 61 62 84 124 129 32767 32767 32767 32767 32767 32767 
32767 32767 32767 32767 32767 32767 32767 32767 32767 32767 32767 32767 32767 32767 32767 32767 730 725 692 689 684 608 534 525 504 494 484 478 487 508 548 586 605 674 710 699 631 591 533 542 597 711 864 951 972 964 851 686 783 911 722 557 486 498 666 573 638 445 283 230 212 193 178 182 188 192 185 178 162 147 130 119 105 88 109 123 135 172 188 213 292 336 239 167 175 175 176 149 121 84 74 75 95 126 157 32767 32767 32767 32767 32767 32767 
32767 32767 32767 32767 32767 32767 32767 32767 32767 32767 32767 32767 32767 32767 32767 32767 774 743 662 669 672 592 536 511 497 489 482 485 501 517 558 591 620 701 748 663 618 607 542 614 608 656 767 938 1080 1040 867 705 844 995 775 651 562 615 691 628 681 501 334 259 227 203 179 161 162 170 176 169 152 137 130 119 95 91 107 119 130 156 173 215 293 338 231 210 247 235 193 180 148 121 92 95 126 155 153 32767 32767 32767 32767 32767 32767 
32767 32767 32767 32767 32767 32767 32767 32767 32767 32767 32767 32767 32767 32767 32767 32767 816 712 645 627 593 555 535 515 499 490 487 491 511 549 576 610 654 730 701 638 590 553 554 627 698 683 761 922 1103 1097 948 739 778 915 849 742 665 688 652 656 640 463 368 281 232 207 183 166 155 151 165 153 146 129 118 108 93 96 103 111 126 149 173 212 277 302 252 236 276 301 251 209 162 157 120 116 148 189 175 196 32767 32767 32767 32767 32767 
32767 32767 32767 32767 32767 32767 32767 32767 32767 32767 32767 32767 32767 32767 32767 32767 798 708 678 638 580 580 551 515 498 496 493 497 514 552 589 628 689 727 652 611 568 562 612 687 749 788 834 931 1046 1005 883 753 796 860 913 875 798 710 32767 32767 32767 32767 390 280 219 200 185 168 154 142 142 139 137 134 118 106 98 96 111 121 129 162 177 198 254 308 287 251 321 357 303 224 178 187 144 124 174 218 219 212 216 235 32767 32767 32767 
32767 32767 32767 32767 32767 32767 32767 32767 32767 32767 32767 32767 32767 32767 32767 32767 851 774 711 636 634 661 578 520 504 500 499 508 529 562 599 650 708 713 631 585 557 593 628 751 786 849 887 967 952 891 776 757 838 32767 32767 32767 822 32767 32767 32767 32767 32767 32767 259 221 238 207 170 152 140 130 132 128 131 124 117 109 97 110 119 131 163 181 202 238 283 279 250 302 373 334 249 235 259 197 174 166 195 226 232 249 253 32767 32767 32767 
32767 32767 32767 32767 32767 32767 32767 32767 32767 32767 32767 32767 32767 32767 32767 32767 32767 837 734 651 683 710 623 529 511 510 509 539 564 593 614 655 714 691 623 579 584 633 686 759 858 874 936 926 909 845 806 809 32767 32767 32767 32767 32767 32767 32767 32767 32767 32767 32767 32767 32767 32767 195 168 156 140 124 127 123 121 116 112 104 97 107 116 123 137 172 210 228 225 247 263 282 349 359 301 323 358 288 259 244 32767 32767 32767 32767 32767 32767 32767 32767 
32767 32767 32767 32767 32767 32767 32767 32767 32767 32767 32767 32767 32767 32767 32767 32767 859 793 703 675 727 749 646 553 535 517 517 559 594 623 648 672 722 672 621 602 633 686 738 838 907 947 957 966 978 887 835 810 32767 32767 32767 32767 32767 32767 32767 32767 32767 32767 32767 32767 32767 32767 32767 161 149 137 125 121 118 115 107 102 98 97 104 113 116 130 152 185 219 199 205 260 313 344 393 407 439 32767 32767 32767 32767 32767 32767 32767 32767 32767 32767 32767 32767 
32767 32767 32767 32767 32767 32767 32767 32767 32767 32767 32767 32767 32767 32767 32767 32767 845 739 697 744 775 709 610 567 540 527 527 558 607 643 692 717 716 644 612 669 723 703 799 890 941 1001 1009 978 994 918 850 807 32767 32767 32767 32767 32767 32767 32767 32767 32767 32767 32767 32767 32767 32767 32767 32767 154 139 125 116 113 108 104 102 103 100 102 106 114 123 138 157 179 181 209 249 313 354 359 32767 32767 32767 32767 32767 32767 32767 32767 32767 32767 32767 32767 32767 32767 
32767 32767 32767 32767 32767 32767 32767 32767 32767 32767 32767 32767 32767 32767 32767 32767 834 758 775 790 804 688 610 598 550 538 540 577 615 653 715 757 690 636 639 729 746 762 761 828 877 1007 1054 1006 32767 32767 32767 817 32767 32767 32767 32767 32767 32767 32767 32767 32767 32767 32767 32767 32767 32767 32767 32767 142 133 128 122 113 108 108 114 106 105 109 107 118 123 133 140 147 157 185 226 262 266 289 32767 32767 32767 32767 32767 32767 32767 32767 32767 32767 32767 32767 32767 32767 
32767 32767 32767 32767 32767 32767 32767 32767 32767 32767 32767 32767 32767 32767 32767 32767 823 823 844 808 824 719 630 603 553 551 547 578 626 669 712 754 705 699 679 762 774 767 781 750 846 994 32767 32767 32767 32767 32767 32767 32767 32767 32767 32767 32767 32767 32767 32767 32767 32767 32767 32767 32767 32767 32767 32767 141 141 32767 129 121 115 118 116 106 112 117 108 116 120 124 134 141 154 183 201 216 277 32767 32767 32767 32767 32767 32767 32767 32767 32767 32767 32767 32767 32767 32767 32767 
32767 32767 32767 32767 32767 32767 32767 32767 32767 32767 32767 32767 32767 32767 32767 32767 857 835 910 895 816 674 618 586 558 565 561 584 639 698 751 762 728 741 709 795 809 785 819 787 807 921 32767 32767 32767 32767 32767 32767 32767 32767 32767 32767 32767 32767 32767 32767 32767 32767 32767 32767 32767 32767 32767 32767 32767 32767 32767 32767 127 126 119 114 111 114 121 108 112 115 121 134 146 153 172 187 32767 32767 32767 32767 32767 32767 32767 32767 32767 32767 32767 32767 32767 32767 32767 32767 32767 
32767 32767 32767 32767 32767 32767 32767 32767 32767 32767 32767 32767 32767 32767 32767 32767 925 875 924 929 798 687 635 599 572 586 568 593 651 711 743 740 726 711 704 786 823 798 852 836 800 32767 32767 32767 32767 32767 32767 32767 32767 32767 32767 32767 32767 32767 32767 32767 32767 32767 32767 32767 32767 32767 32767 32767 32767 32767 32767 32767 32767 32767 126 32767 116 115 125 110 110 117 120 127 143 153 166 182 32767 32767 32767 32767 32767 32767 32767 32767 32767 32767 32767 32767 32767 32767 32767 32767 32767 
32767 32767 32767 32767 32767 32767 32767 32767 32767 32767 32767 32767 32767 32767 32767 32767 965 942 985 950 844 720 645 604 594 595 592 608 646 672 690 730 781 799 733 753 782 824 889 860 820 32767 32767 32767 32767 32767 32767 32767 32767 32767 32767 32767 32767 32767 32767 32767 32767 32767 32767 32767 32767 32767 32767 32767 32767 32767 32767 32767 32767 32767 32767 32767 32767 115 124 118 110 113 117 129 136 144 149 157 32767 32767 32767 32767 32767 32767 32767 32767 32767 32767 32767 32767 32767 32767 32767 32767 32767 
32767 32767 32767 32767 32767 32767 32767 32767 32767 32767 32767 32767 32767 32767 32767 32767 32767 32767 32767 32767 32767 32767 32767 32767 32767 32767 615 630 668 675 717 807 890 943 767 806 801 855 951 927 32767 32767 32767 32767 32767 32767 32767 32767 32767 32767 32767 32767 32767 32767 32767 32767 32767 32767 32767 32767 32767 32767 32767 32767 32767 32767 32767 32767 32767 32767 32767 32767 32767 118 121 130 115 113 117 125 129 134 135 32767 32767 32767 32767 32767 32767 32767 32767 32767 32767 32767 32767 32767 32767 32767 32767 32767 32767 
32767 32767 32767 32767 32767 32767 32767 32767 32767 32767 32767 32767 32767 32767 32767 32767 32767 32767 32767 32767 32767 32767 32767 32767 32767 32767 32767 667 695 708 796 925 964 1064 837 889 891 876 1002 1020 32767 32767 32767 32767 32767 32767 32767 32767 32767 32767 32767 32767 32767 32767 32767 32767 32767 32767 32767 32767 32767 32767 32767 32767 32767 32767 32767 32767 32767 32767 32767 32767 32767 32767 120 127 122 118 118 125 127 127 131 32767 32767 32767 32767 32767 32767 32767 32767 32767 32767 32767 32767 32767 32767 32767 32767 32767 32767 
32767 32767 32767 32767 32767 32767 32767 32767 32767 32767 32767 32767 32767 32767 32767 32767 32767 32767 32767 32767 32767 32767 32767 32767 32767 32767 32767 712 744 753 795 947 1070 1122 943 1034 1020 915 983 32767 32767 32767 32767 32767 32767 32767 32767 32767 32767 32767 32767 32767 32767 32767 32767 32767 32767 32767 32767 32767 32767 32767 32767 32767 32767 32767 32767 32767 32767 32767 32767 32767 32767 32767 129 124 128 130 130 125 132 135 32767 32767 32767 32767 32767 32767 32767 32767 32767 32767 32767 32767 32767 32767 32767 32767 32767 32767 32767 
32767 32767 32767 32767 32767 32767 32767 32767 32767 32767 32767 32767 32767 32767 32767 32767 32767 32767 32767 32767 32767 32767 32767 32767 32767 32767 32767 32767 766 796 822 922 32767 1161 1176 1310 1234 1013 32767 32767 32767 32767 32767 32767 32767 32767 32767 32767 32767 32767 32767 32767 32767 32767 32767 32767 32767 32767 32767 32767 32767 32767 32767 32767 32767 32767 32767 32767 32767 32767 32767 32767 32767 32767 139 140 135 143 143 131 139 32767 32767 32767 32767 32767 32767 32767 32767 32767 32767 32767 32767 32767 32767 32767 32767 32767 32767 32767 32767 
32767 32767 32767 32767 32767 32767 32767 32767 32767 32767 32767 32767 32767 32767 32767 32767 32767 32767 32767 32767 32767 32767 32767 32767 32767 32767 32767 32767 32767 32767 32767 32767 32767 32767 1313 1454 1430 1187 32767 32767 32767 32767 32767 32767 32767 32767 32767 32767 32767 32767 32767 32767 32767 32767 32767 32767 32767 32767 32767 32767 32767 32767 32767 32767 32767 32767 32767 32767 32767 32767 32767 32767 32767 32767 148 149 145 139 145 139 136 32767 32767 32767 32767 32767 32767 32767 32767 32767 32767 32767 32767 32767 32767 32767 32767 32767 32767 32767 32767 
32767 32767 32767 32767 32767 32767 32767 32767 32767 32767 32767 32767 32767 32767 32767 32767 32767 32767 32767 32767 32767 32767 32767 32767 32767 32767 32767 32767 32767 32767 32767 32767 32767 32767 32767 32767 32767 1454 32767 32767 32767 32767 32767 32767 32767 32767 32767 32767 32767 32767 32767 32767 32767 32767 32767 32767 32767 32767 32767 32767 32767 32767 32767 32767 32767 32767 32767 32767 32767 32767 32767 32767 32767 32767 159 155 155 149 151 149 140 32767 32767 32767 32767 32767 32767 32767 32767 32767 32767 32767 32767 32767 32767 32767 32767 32767 32767 32767 32767 
32767 32767 32767 32767 32767 32767 32767 32767 32767 32767 32767 32767 32767 32767 32767 32767 32767 32767 32767 32767 32767 32767 32767 32767 32767 32767 32767 32767 32767 32767 32767 32767 32767 32767 32767 32767 32767 32767 32767 32767 32767 32767 32767 32767 32767 32767 32767 32767 32767 32767 32767 32767 32767 32767 32767 32767 32767 32767 32767 32767 32767 32767 32767 32767 32767 32767 32767 32767 32767 32767 32767 32767 32767 32767 32767 32767 166 163 176 179 155 32767 32767 32767 32767 32767 32767 32767 32767 32767 32767 32767 32767 32767 32767 32767 32767 32767 32767 32767 32767 
32767 32767 32767 32767 32767 32767 32767 32767 32767 32767 32767 32767 32767 32767 32767 32767 32767 32767 32767 32767 32767 32767 32767 32767 32767 32767 32767 32767 32767 32767 32767 32767 32767 32767 32767 32767 32767 32767 32767 32767 32767 32767 32767 32767 32767 32767 32767 32767 32767 32767 32767 32767 32767 32767 32767 32767 32767 32767 32767 32767 32767 32767 32767 32767 32767 32767 32767 32767 32767 32767 32767 32767 32767 32767 32767 32767 32767 194 209 222 170 32767 32767 32767 32767 32767 32767 32767 32767 32767 32767 32767 32767 32767 32767 32767 32767 32767 32767 32767 32767 
32767 32767 32767 32767 32767 32767 32767 32767 32767 32767 32767 32767 32767 32767 32767 32767 32767 32767 32767 32767 32767 32767 32767 32767 32767 32767 32767 32767 32767 32767 32767 32767 32767 32767 32767 32767 32767 32767 32767 32767 32767 32767 32767 32767 32767 32767 32767 32767 32767 32767 32767 32767 32767 32767 32767 32767 32767 32767 32767 32767 32767 32767 32767 32767 32767 32767 32767 32767 32767 32767 32767 32767 32767 32767 32767 32767 32767 248 255 244 189 198 32767 32767 32767 32767 32767 32767 32767 32767 32767 32767 32767 32767 32767 32767 32767 32767 32767 32767 32767 
32767 32767 32767 32767 32767 32767 32767 32767 32767 32767 32767 32767 32767 32767 32767 32767 32767 32767 32767 32767 32767 32767 32767 32767 32767 32767 32767 32767 32767 32767 32767 32767 32767 32767 32767 32767 32767 32767 32767 32767 32767 32767 32767 32767 32767 32767 32767 32767 32767 32767 32767 32767 32767 32767 32767 32767 32767 32767 32767 32767 32767 32767 32767 32767 32767 32767 32767 32767 32767 32767 32767 32767 32767 32767 32767 32767 32767 32767 32767 299 231 232 32767 32767 32767 32767 32767 32767 32767 32767 32767 32767 32767 32767 32767 32767 32767 32767 32767 32767 32767 
32767 32767 32767 32767 32767 32767 32767 32767 32767 32767 32767 32767 32767 32767 32767 32767 32767 32767 32767 32767 32767 32767 32767 32767 32767 32767 32767 32767 32767 32767 32767 32767 32767 32767 32767 32767 32767 32767 32767 32767 32767 32767 32767 32767 32767 32767 32767 32767 32767 32767 32767 32767 32767 32767 32767 32767 32767 32767 32767 32767 32767 32767 32767 32767 32767 32767 32767 32767 32767 32767 32767 32767 32767 32767 32767 32767 32767 32767 32767 32767 312 292 32767 32767 32767 32767 32767 32767 32767 32767 32767 32767 32767 32767 32767 32767 32767 32767 32767 32767 32767 
