ncols        101
nrows        101
xllcorner    412736.042777144641
yllcorner    4624596.874991853721
dx           982.704863755106
dy           742.907128512748
NODATA_value 255
255 255 255 255 255 255 255 255 255 255 255 255 255 255 255 255 255 255 255 255 255 255 255 255 255 255 4 255 255 255 255 255 255 255 255 255 255 255 255 255 255 255 255 255 255 255 255 255 255 255 255 255 255 255 255 255 255 255 255 255 255 255 255 255 255 255 255 255 255 255 255 255 255 255 255 255 255 255 255 255 255 255 255 255 255 255 255 255 255 255 255 255 255 255 255 255 255 255 255 255 255 
255 255 255 255 255 255 255 255 255 255 255 255 255 255 255 255 255 255 255 255 255 255 255 255 255 255 4 255 255 255 255 255 255 255 255 255 255 255 255 255 255 255 255 255 255 255 255 255 255 255 255 255 255 255 255 255 255 255 255 255 255 255 255 255 255 255 255 255 255 255 255 255 255 255 255 255 255 255 255 255 255 255 255 255 255 255 255 255 255 255 255 255 255 255 255 255 255 255 255 255 255 
255 255 255 255 255 255 255 255 255 255 255 255 255 255 255 255 255 255 255 255 255 255 255 255 255 2 2 4 255 255 255 255 255 255 255 255 255 255 255 255 255 255 255 255 255 255 255 255 255 255 255 255 255 255 255 255 255 255 255 255 255 255 255 255 255 255 255 255 255 255 255 255 255 255 255 255 255 255 255 255 255 255 255 255 255 255 255 255 255 255 255 255 255 255 255 255 255 255 255 255 255 
255 255 255 255 255 255 255 255 255 255 255 255 255 255 255 255 255 2 4 8 4 255 255 1 4 1 1 1 4 4 4 8 4 255 255 255 255 255 255 255 255 255 255 255 255 255 255 255 255 255 255 255 255 255 255 255 255 255 255 255 255 255 255 255 255 255 255 255 255 255 255 255 255 255 255 255 255 255 255 255 255 255 255 255 255 255 255 255 255 255 255 255 255 255 255 255 255 255 255 255 255 
255 255 255 255 255 255 255 255 255 255 255 255 255 255 255 255 2 8 8 4 8 2 8 2 4 4 4 1 4 2 4 8 8 4 255 255 255 255 255 255 255 255 255 255 255 255 255 255 255 255 255 255 255 255 255 255 255 255 255 255 255 255 255 255 255 255 255 255 255 255 255 255 255 255 255 255 255 255 255 255 255 255 255 255 255 255 255 255 255 255 255 255 255 255 255 255 255 255 255 255 255 
255 255 255 255 255 255 255 255 255 255 255 255 255 255 255 1 1 4 4 16 16 2 4 1 4 1 1 2 4 8 4 4 8 4 255 255 255 255 255 255 255 255 255 255 255 255 255 255 255 255 255 255 255 255 255 255 255 255 255 255 255 255 255 255 255 255 255 255 255 255 255 255 255 255 255 255 255 255 255 255 255 255 255 255 255 255 255 255 255 255 255 255 255 255 255 255 255 255 255 255 255 
255 255 255 255 255 255 255 255 255 255 255 255 255 255 255 2 1 2 8 32 8 1 4 2 8 128 128 2 4 8 4 4 8 4 4 255 255 255 255 255 255 255 255 255 255 255 255 255 255 255 255 255 255 255 255 255 255 255 255 255 255 255 255 255 255 255 255 255 255 255 255 255 255 255 255 255 255 255 255 255 255 255 255 255 255 255 255 255 255 255 255 255 255 255 255 255 255 255 255 255 255 
255 255 255 255 255 255 255 255 255 255 255 255 255 255 255 1 1 1 16 8 16 1 2 2 8 128 64 128 1 4 8 16 2 4 1 2 4 255 255 255 255 255 255 255 255 255 255 255 255 255 255 255 255 255 255 255 255 255 255 255 255 255 255 255 255 255 255 255 255 255 255 255 255 255 255 255 255 255 255 255 255 255 255 255 255 255 255 255 255 255 255 255 255 255 255 255 255 255 255 255 255 
255 255 255 255 255 255 255 255 255 255 255 255 255 255 255 128 64 128 4 4 2 4 1 8 16 2 4 128 128 1 16 16 4 16 2 4 1 4 8 8 4 255 255 255 255 255 255 255 255 255 255 255 255 255 255 255 255 255 255 255 255 255 255 255 255 255 255 255 255 255 255 255 255 255 255 255 255 255 255 255 255 255 255 255 255 255 255 255 255 255 255 255 255 255 255 255 255 255 255 255 255 
255 255 255 255 255 255 255 255 255 255 255 255 255 255 255 64 1 128 4 4 4 4 4 16 32 2 4 8 4 64 16 4 4 16 1 2 1 4 8 16 4 255 255 255 255 255 255 255 255 255 255 255 255 255 255 255 255 255 255 255 255 255 255 255 255 255 255 255 255 255 255 255 255 255 255 255 255 255 255 255 255 255 255 255 255 255 255 255 255 255 255 255 255 255 255 255 255 255 255 255 255 
255 255 255 255 255 255 255 255 255 255 255 255 2 2 8 1 1 1 2 2 4 16 32 64 2 1 1 4 4 1 16 64 32 1 4 4 64 128 2 4 16 4 255 255 255 255 255 255 255 255 255 255 255 255 255 255 255 255 255 255 255 255 255 255 255 255 255 255 255 255 255 255 255 255 255 255 255 255 255 255 255 255 255 255 255 255 255 255 255 255 255 255 255 255 255 255 255 255 255 255 255 
255 255 255 255 255 255 255 255 255 255 255 255 1 4 8 4 2 2 1 4 8 64 32 2 2 1 128 2 4 4 32 32 32 4 4 4 64 128 2 4 32 4 255 255 255 255 255 255 255 255 255 255 255 255 255 255 255 255 255 255 255 255 255 255 255 255 255 255 255 255 255 255 255 255 255 255 255 255 255 255 255 255 255 255 255 255 255 255 255 255 255 255 255 255 255 255 255 255 255 255 255 
255 255 255 255 255 255 255 255 255 255 2 4 2 1 2 16 2 4 1 16 32 32 4 2 1 1 1 1 2 4 32 16 2 4 1 4 8 128 128 16 4 8 255 255 255 255 255 255 255 255 255 255 255 255 255 255 255 255 255 255 255 255 255 255 255 255 255 255 255 255 255 255 255 255 255 255 255 255 255 255 255 255 255 255 255 255 255 255 255 255 255 255 255 255 255 255 255 255 255 255 255 
255 255 255 255 255 255 255 4 4 4 2 4 4 128 1 4 2 4 2 16 32 4 8 8 2 4 128 128 128 4 8 4 1 1 4 4 2 4 1 4 8 255 255 255 255 255 255 255 255 255 255 255 255 255 255 255 255 255 255 255 255 255 255 255 255 255 255 255 255 255 255 255 255 255 255 255 255 255 255 255 255 255 255 255 255 255 255 255 255 255 255 255 255 255 255 255 255 255 255 255 255 
255 255 255 255 255 255 255 4 4 4 4 4 2 4 1 4 1 4 4 32 16 4 8 16 2 8 4 2 1 4 8 8 4 1 2 4 1 4 2 4 16 255 255 255 255 255 255 255 255 255 255 255 255 255 255 255 255 255 255 255 255 255 255 255 255 255 255 255 255 255 255 255 255 255 255 255 255 255 255 255 255 255 255 255 255 255 255 255 255 255 255 255 255 255 255 255 255 255 255 255 255 
255 255 255 255 4 4 8 4 8 2 2 8 2 4 4 64 64 64 64 16 16 16 32 1 1 1 1 1 1 128 16 4 2 2 4 16 2 1 1 16 255 255 255 255 255 255 255 255 255 255 255 255 255 255 255 255 255 255 255 255 255 255 255 255 255 255 255 255 255 255 255 255 255 255 255 255 255 255 255 255 255 255 255 255 255 255 255 255 255 255 255 255 255 255 255 255 255 255 255 255 255 
255 255 255 255 1 4 8 2 2 4 4 16 4 4 4 4 8 2 2 16 64 32 4 8 2 8 128 64 128 32 1 4 4 2 8 16 1 8 4 64 255 255 255 255 255 255 255 255 255 255 255 255 255 255 255 255 255 255 255 255 255 255 255 255 255 255 255 255 255 255 255 255 255 255 255 255 255 255 255 255 255 255 255 255 255 255 255 255 255 255 255 255 255 255 255 255 255 255 255 255 255 
255 255 255 255 1 2 4 4 4 1 2 4 8 4 4 4 4 2 2 32 4 4 4 4 4 8 64 64 128 32 1 4 4 2 16 32 1 4 4 8 255 255 255 255 255 255 255 255 255 255 255 255 255 255 255 255 255 255 255 255 255 255 255 255 255 255 255 255 255 255 255 255 255 255 255 255 255 255 255 255 255 255 255 255 255 255 255 255 255 255 255 255 255 255 255 255 255 255 255 255 255 
255 255 4 2 1 128 64 64 64 64 64 64 2 4 4 4 4 4 2 16 4 4 4 4 4 8 8 1 128 64 2 64 1 2 4 2 4 16 64 255 255 255 255 255 255 255 255 255 255 255 255 255 255 255 255 255 255 255 255 255 255 255 255 255 255 255 255 255 255 255 255 255 255 255 255 255 255 255 255 255 255 255 255 255 255 255 255 255 255 255 255 255 255 255 255 255 255 255 255 255 255 
255 255 2 1 128 64 64 64 64 64 64 64 2 4 4 4 4 4 1 4 4 4 8 2 8 4 4 128 128 2 4 1 64 1 2 4 8 64 255 255 255 255 255 255 255 255 255 255 255 255 255 255 255 255 255 255 255 255 255 255 255 255 255 255 255 255 255 255 255 255 255 255 255 255 255 255 255 255 255 255 255 255 255 255 255 255 255 255 255 255 255 255 255 255 255 255 255 255 255 255 255 
1 1 1 128 64 64 64 64 64 16 1 128 64 64 64 1 1 1 2 16 16 32 16 16 16 4 8 2 1 128 64 64 1 128 128 16 64 64 255 255 255 255 255 255 255 255 255 255 255 255 255 255 255 255 255 255 255 255 255 255 255 255 255 255 255 255 255 255 255 255 255 255 255 255 255 255 255 255 255 255 255 255 255 255 255 255 255 255 255 255 255 255 255 255 255 255 255 255 255 255 255 
255 128 255 255 255 255 255 255 64 128 128 64 128 64 64 2 64 64 4 16 16 64 64 32 64 64 64 32 16 64 64 64 64 2 128 8 4 255 255 255 255 255 255 255 255 255 255 255 255 255 255 255 255 255 255 255 255 255 255 255 255 255 255 255 255 255 255 255 255 255 255 255 255 255 255 255 255 255 255 255 255 255 255 255 255 255 255 255 255 255 255 255 255 255 255 255 255 255 255 255 255 
255 255 255 255 255 255 255 255 255 255 64 64 64 32 4 4 4 4 4 32 16 16 64 32 32 64 32 32 2 4 4 4 2 2 128 8 4 255 255 255 255 255 255 255 255 255 255 255 255 255 255 255 255 255 255 255 255 255 255 255 255 255 255 255 255 255 255 255 255 255 255 255 255 255 255 255 255 255 255 255 255 255 255 255 255 255 255 255 255 255 255 255 255 255 255 255 255 255 255 255 255 
255 255 255 255 255 255 255 255 255 255 255 255 64 128 1 128 64 64 4 4 4 16 128 64 64 64 32 64 1 4 4 4 1 1 128 16 8 8 255 255 255 255 255 255 255 255 255 255 255 255 255 255 255 255 255 255 255 255 255 255 255 255 255 255 255 255 255 255 255 255 255 255 255 255 255 255 255 255 255 255 255 255 255 255 255 255 255 255 255 255 255 255 255 255 255 255 255 255 255 255 255 
255 255 255 255 255 255 255 255 255 255 255 4 4 4 1 128 64 64 4 4 4 8 64 64 64 64 64 4 4 2 4 4 128 128 64 2 8 16 255 255 255 255 255 255 255 255 255 255 255 255 255 255 255 255 255 255 255 255 255 255 255 255 255 255 255 255 255 255 255 255 255 255 255 255 255 255 255 255 255 255 255 255 255 255 255 255 255 255 255 255 255 255 255 255 255 255 255 255 255 255 255 
255 255 255 255 255 255 255 255 255 255 4 2 4 4 4 64 1 2 4 16 16 16 4 4 4 4 4 4 4 8 2 4 8 2 1 4 16 255 255 255 255 255 255 255 255 255 255 255 255 255 255 255 255 255 255 255 255 255 255 255 255 255 255 255 255 255 255 255 255 255 255 255 255 255 255 255 255 255 255 255 255 255 255 255 255 255 255 255 255 255 255 255 255 255 255 255 255 255 255 255 255 
255 255 255 255 255 255 255 255 255 4 4 4 4 2 4 4 1 1 2 8 16 32 1 1 2 4 8 1 4 16 1 16 8 8 4 8 255 255 255 255 255 255 255 255 255 255 255 255 255 255 255 255 255 255 255 255 255 255 255 255 255 255 255 255 255 255 255 255 255 255 255 255 255 255 255 255 255 255 255 255 255 255 255 255 255 255 255 255 255 255 255 255 255 255 255 255 255 255 255 255 255 
255 255 255 255 255 255 255 255 255 1 1 8 4 1 2 8 1 2 1 16 16 16 8 4 1 4 8 2 1 8 4 2 8 4 4 16 255 255 255 255 255 255 255 255 255 255 255 255 255 255 255 255 255 255 255 255 255 255 255 255 255 255 255 255 255 255 255 255 255 255 255 255 255 255 255 255 255 255 255 255 255 255 255 255 255 255 255 255 255 255 255 255 255 255 255 255 255 255 255 255 255 
255 255 255 255 255 255 255 255 4 4 1 4 4 8 1 32 4 64 1 4 4 4 8 2 4 2 8 4 64 16 4 2 4 8 16 16 255 255 255 255 255 255 255 255 255 255 255 255 255 255 255 255 255 255 255 255 255 255 255 255 255 255 255 255 255 255 255 255 255 255 255 255 255 255 255 255 255 255 255 255 255 255 255 255 255 255 255 255 255 255 255 255 255 255 255 255 255 255 255 255 255 
255 255 255 255 255 255 255 255 128 1 1 64 64 1 4 8 4 2 1 4 4 8 2 4 4 2 4 2 4 16 4 16 16 32 64 255 255 255 255 255 255 255 255 255 255 255 255 255 255 255 255 255 255 255 255 255 255 255 255 255 255 255 255 255 255 255 255 255 255 255 255 255 255 255 255 255 255 255 255 255 255 255 255 255 255 255 255 255 255 255 255 255 255 255 255 255 255 255 255 255 255 
255 255 255 255 255 255 255 255 128 1 1 64 64 1 4 16 4 1 1 4 8 16 2 4 4 1 4 8 4 4 8 64 64 32 255 255 255 255 255 255 255 255 255 255 255 255 255 255 255 255 255 255 255 255 255 255 255 255 255 255 255 255 255 255 255 255 255 255 255 255 255 255 255 255 255 255 255 255 255 255 255 255 255 255 255 255 255 255 255 255 255 255 255 255 255 255 255 255 255 255 255 
255 255 255 255 255 255 255 255 1 1 128 64 128 128 1 4 8 4 128 16 32 4 2 2 8 4 1 4 4 64 32 64 64 32 255 255 255 255 255 255 255 255 255 255 255 255 255 255 255 255 255 255 255 255 255 255 255 255 255 255 255 255 255 255 255 255 255 255 255 255 255 255 255 255 255 255 255 255 255 255 255 255 255 255 255 255 255 255 255 255 255 255 255 255 255 255 255 255 255 255 255 
255 255 255 255 255 255 255 255 255 128 64 128 64 1 128 2 4 4 4 16 64 4 4 1 16 4 4 4 8 32 32 32 1 64 255 255 255 255 255 255 255 255 255 255 255 255 255 255 255 255 255 255 255 255 255 255 255 255 255 255 255 255 255 255 255 255 255 255 255 255 255 255 255 255 255 255 255 255 255 255 255 255 255 255 255 255 255 255 255 255 255 255 255 255 255 255 255 255 255 255 255 
255 255 255 255 255 255 255 255 255 64 128 64 4 128 128 64 128 64 1 16 16 2 8 16 16 64 64 64 64 32 16 64 64 255 255 255 255 255 255 255 255 255 255 255 255 255 255 255 255 255 255 255 255 255 255 255 255 255 255 255 255 255 255 255 255 255 255 255 255 255 255 255 255 255 255 255 255 255 255 255 255 255 255 255 255 255 255 255 255 255 255 255 255 255 255 255 255 255 255 255 255 
255 255 255 255 255 255 255 255 255 255 255 255 2 4 1 64 64 64 128 4 4 1 16 64 64 16 64 32 64 64 32 32 16 255 255 255 255 255 255 255 255 255 255 255 255 255 255 255 255 255 255 255 255 255 255 255 255 255 255 255 255 255 255 255 255 255 255 255 255 255 255 255 255 255 255 255 255 255 255 255 255 255 255 255 255 255 255 255 255 255 255 255 255 255 255 255 255 255 255 255 255 
255 255 255 255 255 255 255 255 255 255 255 255 1 2 1 64 64 64 128 4 4 4 64 128 32 32 16 8 128 64 64 32 16 255 255 255 255 255 255 255 255 255 255 255 255 255 255 255 255 255 255 255 255 255 255 255 255 255 255 255 255 255 255 255 255 255 255 255 255 255 255 255 255 255 255 255 255 255 255 255 255 255 255 255 255 255 255 255 255 255 255 255 255 255 255 255 255 255 255 255 255 
255 255 255 255 255 255 255 255 255 255 255 255 1 1 128 4 4 8 1 64 2 16 64 64 32 64 4 8 4 4 4 4 4 4 255 255 255 255 255 255 255 255 255 255 255 255 255 255 255 255 255 255 255 255 255 255 255 255 255 255 255 255 255 255 255 255 255 255 255 255 255 255 255 255 255 255 255 255 255 255 255 255 255 255 255 255 255 255 255 255 255 255 255 255 255 255 255 255 255 255 255 
255 255 255 255 255 255 255 255 255 255 255 255 1 64 1 1 1 4 128 64 64 16 8 8 2 2 8 4 4 4 4 4 4 8 255 255 255 255 255 255 255 255 255 255 255 255 255 255 255 255 255 255 255 255 255 255 255 255 255 255 255 255 255 255 255 255 255 255 255 255 255 255 255 255 255 255 255 255 255 255 255 255 255 255 255 255 255 255 255 255 255 255 255 255 255 255 255 255 255 255 255 
255 255 255 255 255 255 255 255 255 255 255 255 1 64 64 64 128 2 16 4 128 4 64 64 2 16 64 64 64 64 64 64 64 64 16 255 255 255 255 255 255 255 255 255 255 255 255 255 255 255 255 255 255 255 255 255 255 255 255 255 255 255 255 255 255 255 255 255 255 255 255 255 255 255 255 255 255 255 255 255 255 255 255 255 255 255 255 255 255 255 255 255 255 255 255 255 255 255 255 255 255 
255 255 255 255 255 255 255 255 255 255 255 255 255 2 1 4 4 2 4 1 1 16 8 16 4 8 128 16 64 64 64 64 32 16 32 255 255 255 255 255 255 255 255 255 255 255 255 255 255 255 255 255 255 255 255 255 255 255 255 255 255 255 255 255 255 255 255 255 255 255 255 255 255 255 255 255 255 255 255 255 255 255 255 255 255 255 255 255 255 255 255 255 255 255 255 255 255 255 255 255 255 
255 255 255 255 255 255 255 255 255 255 255 255 255 1 1 4 4 4 4 64 64 16 8 16 4 8 128 16 64 128 128 64 64 16 32 255 255 255 255 255 255 255 255 255 255 255 255 255 255 255 255 255 255 255 255 255 255 255 255 255 255 255 255 255 255 255 255 255 255 255 255 255 255 255 255 255 255 255 255 255 255 255 255 255 255 255 255 255 255 255 255 255 255 255 255 255 255 255 255 255 255 
255 255 255 255 255 255 255 255 255 255 255 255 255 128 128 2 1 128 128 32 1 2 8 16 4 8 8 32 64 64 64 64 32 32 255 255 255 255 255 255 255 255 255 255 255 255 255 255 255 255 255 255 255 255 255 255 255 255 255 255 255 255 255 255 255 255 255 255 255 255 255 255 255 255 255 255 255 255 255 255 255 255 255 255 255 255 255 255 255 255 255 255 255 255 255 255 255 255 255 255 255 
255 255 255 255 255 255 255 255 255 255 255 255 255 255 1 1 64 64 64 1 1 128 16 4 16 16 16 4 4 8 64 4 4 255 255 255 255 255 255 255 255 255 255 255 255 255 255 255 255 255 255 255 255 255 255 255 255 255 255 255 255 255 255 255 255 255 255 255 255 255 255 255 255 255 255 255 255 255 255 255 255 255 255 255 255 255 255 255 255 255 255 255 255 255 255 255 255 255 255 255 255 
255 255 255 255 255 255 255 255 255 255 255 255 255 4 4 1 64 64 16 128 1 2 16 8 64 32 4 4 8 4 4 4 4 16 255 255 255 255 255 255 255 255 255 255 255 255 255 255 255 255 255 255 255 255 255 255 255 255 255 255 255 255 255 255 255 255 255 255 255 255 255 4 255 255 255 255 255 255 255 255 255 255 255 255 255 255 255 255 255 255 255 255 255 255 255 255 255 255 255 255 255 
255 255 255 255 255 255 255 255 255 255 255 255 255 64 64 64 64 64 32 128 64 128 4 16 16 16 16 32 8 4 1 4 8 8 255 255 255 255 255 255 255 255 255 255 255 255 255 255 255 255 255 255 255 255 255 255 255 255 255 255 255 255 255 255 255 255 255 255 255 255 2 1 16 4 255 255 255 255 255 255 255 255 255 255 255 255 255 255 255 255 255 255 255 255 255 255 255 255 255 255 255 
255 255 255 255 255 255 255 255 255 255 255 255 255 4 4 4 128 32 2 2 1 2 8 16 64 64 32 4 8 4 1 4 8 8 255 255 255 255 255 255 255 255 255 255 255 255 255 255 255 255 255 255 255 255 255 255 255 255 255 255 255 255 255 255 255 255 2 4 4 1 2 4 8 4 4 255 255 255 255 255 255 255 255 255 255 255 255 255 255 255 255 255 255 255 255 255 255 255 255 255 255 
255 255 255 255 255 255 255 255 255 255 255 255 255 4 4 2 4 4 4 4 4 2 8 32 8 4 4 8 4 8 16 4 16 4 4 255 255 255 255 255 255 255 255 255 255 255 255 255 255 255 255 255 255 255 255 255 255 255 255 255 255 255 255 255 255 255 1 2 4 8 128 2 4 4 2 2 8 2 4 255 255 255 255 255 255 255 255 255 255 255 255 255 255 255 255 255 255 255 255 255 255 
255 255 255 255 255 255 255 255 255 255 255 255 255 4 8 2 8 4 2 4 4 1 2 4 8 64 4 4 4 16 2 2 4 4 8 4 255 255 255 255 255 255 255 255 255 255 4 8 4 4 255 255 255 255 255 255 255 255 255 255 255 255 255 255 255 1 2 1 2 4 1 1 1 1 4 4 4 4 2 4 4 8 255 255 255 255 255 255 255 255 255 255 255 255 255 255 255 255 255 255 255 
255 255 255 255 255 255 255 255 255 255 255 255 255 2 4 2 4 4 1 4 4 4 4 8 16 4 4 8 8 8 1 1 4 8 16 16 255 255 255 255 255 255 255 255 255 255 8 16 4 8 16 255 255 255 255 255 255 255 255 255 255 255 255 255 255 64 1 1 2 4 1 1 1 1 4 4 4 4 2 4 4 8 255 255 255 255 255 255 255 255 255 255 255 255 255 255 255 255 255 255 255 
255 255 255 255 255 255 255 255 255 255 255 255 255 255 1 1 2 4 4 128 64 1 16 32 4 2 4 4 16 16 2 8 64 32 64 4 255 255 255 255 255 255 255 255 255 255 16 4 4 16 16 2 8 255 255 255 255 255 255 255 255 255 255 255 255 1 1 1 128 4 4 1 16 128 64 2 4 8 128 4 8 16 2 2 4 4 255 255 255 255 255 255 255 255 255 255 255 255 255 255 255 
255 255 255 255 255 255 255 255 255 255 255 255 255 255 255 128 64 64 64 64 32 2 2 8 4 16 16 32 32 2 2 16 16 16 64 4 255 255 255 255 255 255 255 255 255 1 8 2 8 16 8 4 16 4 255 255 255 255 255 255 255 255 255 255 255 1 128 1 2 4 4 1 4 16 1 8 4 4 64 1 4 4 1 1 1 4 2 4 4 4 8 4 255 255 255 255 255 255 255 255 255 
255 255 255 255 255 255 255 255 255 255 255 255 255 255 255 128 64 1 2 2 1 4 64 16 4 64 8 64 32 1 1 16 32 4 4 4 4 4 255 255 255 255 255 255 255 4 4 16 32 4 4 1 2 4 4 2 4 255 255 255 255 255 255 255 1 4 1 4 4 1 128 2 4 16 2 64 4 4 16 1 1 4 8 8 2 1 16 4 8 8 4 4 2 255 255 255 255 255 255 255 255 
255 255 255 255 255 255 255 255 255 255 255 255 255 255 255 255 2 128 1 1 128 64 64 64 8 16 4 4 4 4 2 16 4 4 2 4 8 16 16 16 255 255 255 255 255 1 16 4 4 16 4 4 128 1 4 4 16 255 255 255 255 255 255 4 64 64 1 64 1 32 2 64 2 4 4 4 2 16 8 4 1 64 16 16 4 128 8 4 4 4 2 16 4 4 255 255 255 255 255 255 255 
255 255 255 255 255 255 255 255 255 255 255 255 255 255 255 255 1 1 128 128 64 128 1 1 16 8 8 2 4 4 1 16 8 4 4 16 16 16 64 255 255 255 255 255 255 1 16 4 8 1 4 8 1 128 2 16 32 255 255 255 255 255 255 2 4 128 128 32 64 1 1 64 64 1 1 8 1 16 8 8 128 128 16 16 2 4 16 4 4 4 1 16 2 2 4 255 255 255 255 255 255 
255 255 255 255 255 255 255 255 255 255 255 255 255 255 255 255 64 64 64 64 64 1 2 2 4 8 16 2 4 2 4 32 4 4 4 16 32 16 16 255 255 255 255 255 255 1 1 4 8 1 4 4 1 2 1 16 16 8 4 255 255 255 1 1 1 4 8 128 64 1 128 1 128 64 128 16 128 4 8 16 4 1 2 4 1 2 2 2 4 8 1 8 4 2 8 255 255 255 255 255 255 
255 255 255 255 255 255 255 255 255 255 255 255 255 255 255 255 8 64 128 128 4 1 1 1 1 16 4 1 4 1 8 4 8 16 8 16 16 32 4 255 255 255 255 255 255 1 1 4 16 1 4 4 8 1 1 8 4 8 4 4 4 8 1 1 1 1 4 4 128 128 64 1 2 4 64 16 128 2 16 4 4 1 1 8 1 1 4 1 16 8 1 8 2 4 4 4 255 255 255 255 255 
255 255 255 255 255 255 255 255 255 255 255 255 255 255 255 1 4 2 2 4 64 64 8 128 1 16 8 4 4 1 16 8 16 64 16 16 32 4 4 255 255 255 255 255 255 64 64 64 2 8 4 4 8 1 128 2 8 4 2 4 8 16 1 128 64 64 64 64 1 4 64 4 1 64 64 64 16 1 4 4 2 4 4 16 4 128 64 16 64 8 128 16 1 4 16 4 4 8 255 255 255 
255 255 255 255 255 255 255 255 255 255 255 255 255 255 255 1 2 4 1 2 4 1 4 1 128 4 16 4 16 64 32 4 8 4 64 4 8 8 8 4 4 2 4 255 8 8 128 128 1 1 2 8 16 8 8 128 64 4 8 16 32 16 4 128 1 4 1 4 2 64 64 32 128 64 2 1 8 2 4 4 1 2 1 16 4 4 64 16 1 1 1 1 4 1 4 2 4 4 4 32 255 
255 255 255 255 255 255 255 255 255 255 255 255 255 255 255 128 1 4 8 1 4 4 2 4 4 8 2 4 16 64 32 4 16 4 16 4 8 8 8 4 8 4 4 4 8 8 128 128 128 64 1 16 2 2 16 128 128 2 16 32 32 16 4 2 1 4 1 2 8 4 8 128 1 4 1 1 16 1 2 4 128 64 64 1 1 1 64 32 1 64 64 64 2 8 16 4 2 4 8 4 255 
255 255 255 255 255 255 255 255 255 255 255 255 255 255 255 2 4 4 16 1 1 4 1 2 4 8 16 16 16 2 4 4 8 8 8 4 4 4 8 16 1 1 8 8 8 2 4 128 128 64 1 4 8 4 32 16 64 128 4 4 8 2 2 1 4 4 8 1 4 2 4 64 1 2 1 1 16 4 1 128 64 128 128 64 64 64 32 16 128 128 32 128 64 4 4 2 1 8 4 8 255 
255 255 255 255 255 255 255 255 255 255 255 255 255 255 255 255 1 8 64 1 1 1 4 4 1 64 32 8 8 1 2 8 8 2 4 2 4 16 16 32 16 1 8 8 8 1 2 8 128 1 128 1 4 8 8 8 2 128 2 8 4 4 1 4 4 2 16 2 4 1 2 4 1 2 4 1 16 1 1 1 64 128 128 64 64 64 32 64 1 1 64 64 64 64 1 4 4 4 4 8 255 
255 255 255 255 255 255 255 255 255 255 255 255 255 255 255 2 128 16 4 128 128 64 1 1 1 4 8 8 8 4 2 4 8 2 4 2 4 16 16 32 16 1 4 8 8 8 1 4 128 128 128 64 1 4 16 8 1 1 1 16 4 4 4 1 1 2 16 2 4 4 1 4 128 1 4 1 1 1 16 1 64 64 64 64 64 1 8 16 1 128 64 128 64 128 64 1 1 1 1 4 255 
255 255 255 255 255 255 255 255 255 255 255 255 255 255 255 255 1 4 2 4 4 64 64 64 1 2 16 16 8 4 1 4 4 1 16 4 32 16 4 4 128 1 64 2 8 4 4 2 8 8 1 1 64 1 4 8 2 8 128 128 1 2 2 4 8 128 1 4 2 64 1 1 8 4 1 64 4 16 64 1 64 64 64 8 64 128 16 16 128 128 64 1 64 1 16 1 16 1 1 255 255 
255 255 255 255 255 255 255 255 255 255 255 255 255 255 255 255 1 4 2 4 4 128 64 1 128 64 16 32 2 8 8 1 4 4 16 8 16 8 4 2 8 128 128 1 4 4 4 2 16 8 1 128 1 1 4 8 4 8 4 128 64 64 4 1 8 8 1 4 1 2 4 64 16 1 128 128 128 64 64 128 64 64 1 16 8 128 32 16 1 128 32 1 64 1 32 1 16 1 128 255 255 
255 255 255 255 255 255 255 255 255 255 255 255 255 255 255 255 255 64 4 4 4 4 4 1 2 4 16 4 4 16 8 1 1 8 16 64 16 4 8 1 8 16 1 128 1 2 4 8 8 4 128 64 128 128 64 4 8 4 4 4 4 128 64 128 1 2 8 16 128 1 4 2 16 1 64 64 32 128 64 64 64 64 64 32 16 16 64 16 32 1 1 4 64 1 1 1 16 128 128 255 255 
255 255 255 255 255 255 255 255 255 255 255 255 255 255 255 255 255 64 64 1 1 2 8 1 1 16 32 4 4 8 8 4 2 4 4 16 2 8 4 4 16 4 4 2 4 64 64 1 8 8 16 4 64 128 128 2 8 4 2 8 4 8 64 128 64 64 8 16 1 8 2 1 4 4 16 128 32 1 1 128 128 64 64 64 32 16 64 32 16 128 1 2 128 4 1 1 32 1 255 255 255 
255 255 255 255 255 255 255 255 255 255 255 255 255 255 255 255 255 1 128 64 64 1 8 2 1 8 4 4 4 8 8 4 1 2 8 8 2 16 16 8 2 4 4 2 4 64 64 1 16 16 4 4 2 128 128 64 16 8 1 4 8 16 4 4 64 64 16 32 4 16 1 4 1 128 16 128 32 1 128 128 32 1 32 64 16 16 32 64 4 128 1 1 4 128 128 128 64 128 255 255 255 
255 255 255 255 255 255 255 255 255 255 255 255 255 255 255 255 255 255 64 1 128 1 1 4 8 1 128 64 2 16 8 4 1 1 4 16 1 16 2 16 4 4 8 128 1 2 4 64 16 16 1 4 4 4 1 1 4 4 16 64 16 2 1 4 8 1 2 4 4 16 2 4 4 1 16 4 16 16 64 64 1 64 32 128 32 32 4 1 1 4 128 1 16 32 16 64 64 255 255 255 255 
255 255 255 255 255 255 255 255 255 255 255 255 255 255 255 255 255 255 128 128 64 1 1 4 8 1 128 64 1 16 4 8 128 128 16 8 2 4 4 16 4 4 8 16 64 1 4 1 8 4 4 4 4 4 8 2 4 8 4 1 16 8 8 4 4 128 1 4 8 16 4 4 4 4 16 8 16 8 1 64 1 64 32 64 64 16 4 4 128 2 4 4 32 64 32 64 64 255 255 255 255 
255 255 255 255 255 255 255 255 255 255 255 255 255 255 255 255 255 255 16 2 4 1 1 128 64 32 1 1 128 64 4 1 16 4 16 4 4 8 4 4 4 4 16 4 8 1 4 2 128 16 64 64 128 64 1 64 32 4 1 2 1 2 4 1 2 4 128 1 1 128 1 64 64 1 16 64 16 16 4 32 64 4 2 4 4 4 4 2 2 1 1 1 32 8 1 64 255 255 255 255 255 
255 255 255 255 255 255 255 255 255 255 255 255 255 255 255 255 255 2 2 1 2 4 2 2 4 128 1 2 4 16 128 16 64 128 64 64 64 1 2 4 4 2 4 16 4 4 128 1 32 32 32 64 64 1 128 32 1 2 4 2 1 128 64 64 128 16 4 4 1 128 64 64 4 1 16 8 32 16 4 8 2 4 2 4 4 4 4 1 1 64 64 1 64 16 128 64 255 255 255 255 255 
255 255 255 255 255 255 255 255 255 255 255 255 255 255 255 255 255 2 2 1 1 1 1 1 1 2 128 1 128 32 64 16 1 16 128 64 64 64 64 1 1 1 8 4 4 4 64 64 32 32 32 64 64 1 128 32 1 2 4 2 1 128 64 64 128 16 4 4 1 128 2 1 128 16 32 4 8 8 4 16 1 2 1 1 1 1 2 4 1 32 64 1 32 32 64 255 255 255 255 255 255 
255 255 255 255 255 255 255 255 255 255 255 255 255 255 255 255 1 1 4 128 64 64 1 128 1 16 4 1 16 128 64 128 64 64 64 32 64 1 128 64 64 64 4 4 4 2 16 64 64 32 4 8 1 128 64 1 1 1 4 4 1 16 64 64 128 64 64 64 64 64 1 64 16 64 64 32 8 4 16 64 128 128 1 1 64 128 64 64 64 2 2 64 16 64 32 255 255 255 255 255 255 
255 255 255 255 255 255 255 255 255 255 255 255 255 255 255 255 128 1 4 1 4 1 1 2 1 1 4 1 16 64 8 128 64 64 64 1 2 1 32 1 16 64 64 64 16 64 32 16 1 1 4 4 4 2 4 4 4 64 64 64 64 32 64 64 128 64 64 64 1 64 64 2 16 2 2 16 1 16 16 16 4 1 2 2 2 2 64 64 2 2 4 64 32 64 32 255 255 255 255 255 255 
255 255 255 255 255 255 255 255 255 255 255 255 255 255 255 255 128 1 4 1 4 4 1 1 2 1 64 1 16 128 16 64 32 64 64 1 1 64 32 1 16 32 64 1 16 128 32 32 1 4 64 1 4 1 64 64 64 64 32 128 64 64 2 8 128 64 2 2 4 1 64 1 32 1 128 16 4 16 8 16 16 1 1 2 4 1 1 4 8 1 16 64 64 64 64 255 255 255 255 255 255 
255 255 255 255 255 255 255 255 255 255 255 255 255 255 255 255 2 2 64 4 4 4 8 1 128 64 64 1 16 16 32 16 64 16 8 1 128 32 1 64 32 4 128 64 64 16 64 2 128 64 128 128 16 64 128 16 64 64 64 1 64 2 4 16 4 2 4 128 64 64 1 64 2 4 16 16 16 32 32 8 8 8 2 4 4 1 16 64 1 64 1 16 4 64 64 255 255 255 255 255 255 
255 255 255 255 255 255 255 255 255 255 255 255 255 255 255 255 2 1 1 1 2 4 8 128 64 64 2 128 32 8 32 32 32 32 16 1 128 2 1 16 32 8 128 128 64 32 16 1 64 64 128 64 32 16 128 32 64 1 64 128 64 1 4 4 8 1 128 128 1 1 128 64 2 4 16 16 16 32 32 8 8 8 2 4 4 1 16 64 1 64 1 16 4 64 64 255 255 255 255 255 255 
255 255 255 255 255 255 255 255 255 255 255 255 255 255 255 255 1 64 64 128 64 64 16 4 1 1 1 32 64 32 16 16 64 16 32 2 128 128 64 16 16 16 4 128 64 64 2 1 32 64 1 64 32 16 128 32 16 128 1 64 1 1 2 4 8 4 64 4 128 4 1 2 2 64 16 64 32 16 4 16 16 32 1 1 64 64 1 128 64 64 2 64 64 8 8 255 255 255 255 255 255 
255 255 255 255 255 255 255 255 255 255 255 255 255 255 255 255 64 2 2 4 8 2 4 128 16 1 1 8 64 64 16 32 64 32 64 2 4 2 64 32 64 8 16 8 16 128 1 64 32 8 1 128 64 64 16 64 32 128 64 128 128 1 64 1 4 4 2 2 1 4 2 128 128 16 4 4 16 16 4 16 16 2 128 32 64 64 128 16 2 128 1 32 128 64 16 255 255 255 255 255 255 
255 255 255 255 255 255 255 255 255 255 255 255 255 255 255 255 2 1 1 2 4 4 4 128 16 1 1 8 32 32 16 16 64 16 4 1 2 4 16 16 64 16 16 16 8 128 128 32 16 8 128 64 64 16 4 64 1 2 128 64 128 128 4 4 1 4 2 2 1 2 4 2 16 32 16 8 8 4 8 16 8 2 64 64 128 64 64 32 1 64 1 16 16 16 64 4 255 255 255 255 255 
255 255 255 255 255 255 255 255 255 255 255 255 255 255 255 255 1 128 2 1 128 64 64 1 128 64 4 64 64 16 64 32 32 1 2 1 128 1 16 32 32 64 64 32 4 2 4 128 64 32 255 128 1 64 255 255 255 255 2 1 1 128 32 1 1 64 4 8 4 128 1 128 64 16 16 16 64 32 4 32 8 16 2 16 16 8 128 128 64 1 128 64 16 8 32 64 64 32 255 255 255 
255 255 255 255 255 255 255 255 255 255 255 255 255 255 255 255 128 64 1 1 64 32 1 128 64 32 128 64 128 32 32 32 32 2 1 4 64 16 16 8 64 16 32 2 4 1 1 64 255 255 255 255 128 255 255 255 255 255 255 128 128 64 1 1 128 1 4 8 4 4 128 64 128 32 16 8 32 4 8 64 16 4 1 32 16 16 1 64 128 128 64 64 32 16 255 255 64 255 255 255 255 
255 255 255 255 255 255 255 255 255 255 255 255 255 255 255 255 255 64 2 64 32 64 128 1 64 1 64 64 64 32 32 16 32 1 128 1 16 32 64 32 16 32 64 128 64 64 32 16 255 255 255 255 255 255 255 255 255 255 255 255 255 255 1 128 64 1 4 8 2 2 4 2 2 64 16 16 4 8 16 8 32 4 8 64 16 4 128 64 128 64 128 128 64 255 255 255 255 255 255 255 255 
255 255 255 255 255 255 255 255 255 255 255 255 255 255 255 255 1 2 1 32 128 32 1 64 2 128 128 16 8 32 64 32 32 2 4 128 32 64 16 64 32 64 64 64 64 64 1 16 255 255 255 255 255 255 255 255 255 255 255 255 255 255 255 1 1 128 64 2 4 4 4 1 128 64 16 4 16 8 8 8 8 1 16 16 64 64 16 64 64 255 255 255 255 255 255 255 255 255 255 255 255 
255 255 255 255 255 255 255 255 255 255 255 255 255 255 255 255 2 1 128 32 32 2 128 64 1 16 64 64 8 32 64 32 32 2 4 16 64 16 16 32 16 64 128 16 8 64 128 32 255 255 255 255 255 255 255 255 255 255 255 255 255 255 255 64 64 2 4 64 16 4 1 64 64 128 32 4 4 4 8 16 2 4 32 16 8 2 4 255 255 255 255 255 255 255 255 255 255 255 255 255 255 
255 255 255 255 255 255 255 255 255 255 255 255 255 255 255 255 1 128 64 32 64 1 1 128 1 16 64 32 16 16 32 1 1 1 64 32 1 1 16 8 4 16 64 64 255 255 255 64 255 255 255 255 255 255 255 255 255 255 255 255 255 255 255 255 2 1 64 64 1 16 32 64 1 16 128 16 64 32 32 4 8 16 16 8 4 4 16 255 255 255 255 255 255 255 255 255 255 255 255 255 255 
255 255 255 255 255 255 255 255 255 255 255 255 255 255 255 255 1 32 64 32 2 2 2 4 128 128 64 16 32 32 64 1 1 64 64 16 1 16 128 64 16 16 255 255 255 255 255 255 255 255 255 255 255 255 255 255 255 255 255 255 255 255 255 255 255 255 255 255 255 64 1 1 1 16 128 16 1 16 16 32 64 16 4 16 255 255 255 255 255 255 255 255 255 255 255 255 255 255 255 255 255 
255 255 255 255 255 255 255 255 255 255 255 255 255 255 255 255 128 32 64 64 1 1 1 1 16 32 64 32 16 32 32 1 128 2 16 32 128 64 128 128 16 255 255 255 255 255 255 255 255 255 255 255 255 255 255 255 255 255 255 255 255 255 255 255 255 255 255 255 255 1 128 64 1 16 128 16 1 16 16 32 64 16 4 16 255 255 255 255 255 255 255 255 255 255 255 255 255 255 255 255 255 
255 255 255 255 255 255 255 255 255 255 255 255 255 255 255 255 64 64 64 1 1 128 64 1 64 128 64 64 4 4 4 16 1 128 32 16 4 32 16 64 32 255 255 255 255 255 255 255 255 255 255 255 255 255 255 255 255 255 255 255 255 255 255 255 255 255 255 255 255 255 64 255 128 32 8 64 8 8 4 16 16 128 64 255 255 255 255 255 255 255 255 255 255 255 255 255 255 255 255 255 255 
255 255 255 255 255 255 255 255 255 255 255 255 255 255 255 255 16 64 128 1 128 128 1 128 64 1 64 64 16 16 8 64 128 64 64 16 4 32 16 64 32 255 255 255 255 255 255 255 255 255 255 255 255 255 255 255 255 255 255 255 255 255 255 255 255 255 255 255 255 255 255 255 255 64 16 128 16 4 8 32 4 4 4 255 255 255 255 255 255 255 255 255 255 255 255 255 255 255 255 255 255 
255 255 255 255 255 255 255 255 255 255 255 255 255 255 255 255 255 255 255 255 255 255 128 128 255 128 64 32 64 32 16 32 64 64 64 64 32 8 32 128 255 255 255 255 255 255 255 255 255 255 255 255 255 255 255 255 255 255 255 255 255 255 255 255 255 255 255 255 255 255 255 255 255 128 32 64 64 32 16 16 16 2 8 255 255 255 255 255 255 255 255 255 255 255 255 255 255 255 255 255 255 
255 255 255 255 255 255 255 255 255 255 255 255 255 255 255 255 255 255 255 255 255 255 255 255 255 255 255 64 64 64 16 128 64 16 64 128 64 32 16 255 255 255 255 255 255 255 255 255 255 255 255 255 255 255 255 255 255 255 255 255 255 255 255 255 255 255 255 255 255 255 255 255 255 255 64 16 16 32 128 16 64 64 255 255 255 255 255 255 255 255 255 255 255 255 255 255 255 255 255 255 255 
255 255 255 255 255 255 255 255 255 255 255 255 255 255 255 255 255 255 255 255 255 255 255 255 255 255 255 32 64 64 32 16 64 32 64 32 64 64 16 255 255 255 255 255 255 255 255 255 255 255 255 255 255 255 255 255 255 255 255 255 255 255 255 255 255 255 255 255 255 255 255 255 255 255 128 64 16 64 64 64 32 32 255 255 255 255 255 255 255 255 255 255 255 255 255 255 255 255 255 255 255 
255 255 255 255 255 255 255 255 255 255 255 255 255 255 255 255 255 255 255 255 255 255 255 255 255 255 255 255 255 32 255 255 255 255 64 64 128 64 255 255 255 255 255 255 255 255 255 255 255 255 255 255 255 255 255 255 255 255 255 255 255 255 255 255 255 255 255 255 255 255 255 255 255 255 255 64 32 8 64 64 8 255 255 255 255 255 255 255 255 255 255 255 255 255 255 255 255 255 255 255 255 
255 255 255 255 255 255 255 255 255 255 255 255 255 255 255 255 255 255 255 255 255 255 255 255 255 255 255 255 255 255 255 255 255 255 32 32 128 64 255 255 255 255 255 255 255 255 255 255 255 255 255 255 255 255 255 255 255 255 255 255 255 255 255 255 255 255 255 255 255 255 255 255 255 255 255 128 64 16 16 64 16 255 255 255 255 255 255 255 255 255 255 255 255 255 255 255 255 255 255 255 255 
255 255 255 255 255 255 255 255 255 255 255 255 255 255 255 255 255 255 255 255 255 255 255 255 255 255 255 255 255 255 255 255 255 255 64 16 128 64 255 255 255 255 255 255 255 255 255 255 255 255 255 255 255 255 255 255 255 255 255 255 255 255 255 255 255 255 255 255 255 255 255 255 255 255 255 32 128 32 64 128 16 255 255 255 255 255 255 255 255 255 255 255 255 255 255 255 255 255 255 255 255 
255 255 255 255 255 255 255 255 255 255 255 255 255 255 255 255 255 255 255 255 255 255 255 255 255 255 255 255 255 255 255 255 255 255 255 255 255 255 255 255 255 255 255 255 255 255 255 255 255 255 255 255 255 255 255 255 255 255 255 255 255 255 255 255 255 255 255 255 255 255 255 255 255 255 255 255 64 128 64 64 64 8 255 255 255 255 255 255 255 255 255 255 255 255 255 255 255 255 255 255 255 
255 255 255 255 255 255 255 255 255 255 255 255 255 255 255 255 255 255 255 255 255 255 255 255 255 255 255 255 255 255 255 255 255 255 255 255 255 255 255 255 255 255 255 255 255 255 255 255 255 255 255 255 255 255 255 255 255 255 255 255 255 255 255 255 255 255 255 255 255 255 255 255 255 255 255 255 255 64 64 64 64 16 255 255 255 255 255 255 255 255 255 255 255 255 255 255 255 255 255 255 255 
255 255 255 255 255 255 255 255 255 255 255 255 255 255 255 255 255 255 255 255 255 255 255 255 255 255 255 255 255 255 255 255 255 255 255 255 255 255 255 255 255 255 255 255 255 255 255 255 255 255 255 255 255 255 255 255 255 255 255 255 255 255 255 255 255 255 255 255 255 255 255 255 255 255 255 255 255 128 64 128 64 16 255 255 255 255 255 255 255 255 255 255 255 255 255 255 255 255 255 255 255 
255 255 255 255 255 255 255 255 255 255 255 255 255 255 255 255 255 255 255 255 255 255 255 255 255 255 255 255 255 255 255 255 255 255 255 255 255 255 255 255 255 255 255 255 255 255 255 255 255 255 255 255 255 255 255 255 255 255 255 255 255 255 255 255 255 255 255 255 255 255 255 255 255 255 255 255 255 255 255 1 64 32 255 255 255 255 255 255 255 255 255 255 255 255 255 255 255 255 255 255 255 
255 255 255 255 255 255 255 255 255 255 255 255 255 255 255 255 255 255 255 255 255 255 255 255 255 255 255 255 255 255 255 255 255 255 255 255 255 255 255 255 255 255 255 255 255 255 255 255 255 255 255 255 255 255 255 255 255 255 255 255 255 255 255 255 255 255 255 255 255 255 255 255 255 255 255 255 255 255 255 255 64 64 255 255 255 255 255 255 255 255 255 255 255 255 255 255 255 255 255 255 255 
