ncols        101
nrows        101
xllcorner    412736.042777144641
yllcorner    4624596.874991853721
dx           982.704863755106
dy           742.907128512748
NODATA_value -99999
-99999.0 -99999 -99999 -99999 -99999 -99999 -99999 -99999 -99999 -99999 -99999 -99999 -99999 -99999 -99999 -99999 -99999 -99999 -99999 -99999 -99999 -99999 -99999 -99999 -99999 -99999 -99999 -99999 -99999 -99999 -99999 -99999 -99999 -99999 -99999 -99999 -99999 -99999 -99999 -99999 -99999 -99999 -99999 -99999 -99999 -99999 -99999 -99999 -99999 -99999 -99999 -99999 -99999 -99999 -99999 -99999 -99999 -99999 -99999 -99999 -99999 -99999 -99999 -99999 -99999 -99999 -99999 -99999 -99999 -99999 -99999 -99999 -99999 -99999 -99999 -99999 -99999 -99999 -99999 -99999 -99999 -99999 -99999 -99999 -99999 -99999 -99999 -99999 -99999 -99999 -99999 -99999 -99999 -99999 -99999 -99999 -99999 -99999 -99999 -99999 -99999 
-99999 -99999 -99999 -99999 -99999 -99999 -99999 -99999 -99999 -99999 -99999 -99999 -99999 -99999 -99999 -99999 -99999 -99999 -99999 -99999 -99999 -99999 -99999 -99999 -99999 -99999 -2.0517294406890869141 1.6596323251724243164 -99999 -99999 -99999 -99999 -99999 -99999 -99999 -99999 -99999 -99999 -99999 -99999 -99999 -99999 -99999 -99999 -99999 -99999 -99999 -99999 -99999 -99999 -99999 -99999 -99999 -99999 -99999 -99999 -99999 -99999 -99999 -99999 -99999 -99999 -99999 -99999 -99999 -99999 -99999 -99999 -99999 -99999 -99999 -99999 -99999 -99999 -99999 -99999 -99999 -99999 -99999 -99999 -99999 -99999 -99999 -99999 -99999 -99999 -99999 -99999 -99999 -99999 -99999 -99999 -99999 -99999 -99999 -99999 -99999 -99999 -99999 -99999 -99999 
-99999 -99999 -99999 -99999 -99999 -99999 -99999 -99999 -99999 -99999 -99999 -99999 -99999 -99999 -99999 -99999 -99999 -99999 -99999 -99999 -99999 -99999 -99999 -99999 5.018878936767578125 2.8825595378875732422 -0.93256491422653198242 -4.7168107032775878906 -1.6093759536743164062 0.70298248529434204102 0.86672455072402954102 -0.56711804866790771484 -99999 -99999 -99999 -99999 -99999 -99999 -99999 -99999 -99999 -99999 -99999 -99999 -99999 -99999 -99999 -99999 -99999 -99999 -99999 -99999 -99999 -99999 -99999 -99999 -99999 -99999 -99999 -99999 -99999 -99999 -99999 -99999 -99999 -99999 -99999 -99999 -99999 -99999 -99999 -99999 -99999 -99999 -99999 -99999 -99999 -99999 -99999 -99999 -99999 -99999 -99999 -99999 -99999 -99999 -99999 -99999 -99999 -99999 -99999 -99999 -99999 -99999 -99999 -99999 -99999 -99999 -99999 -99999 -99999 
-99999 -99999 -99999 -99999 -99999 -99999 -99999 -99999 -99999 -99999 -99999 -99999 -99999 -99999 -99999 -99999 -99999 -99999 -3.5285823345184326172 -1.6812101602554321289 -99999 -99999 -99999 -0.68170529603958129883 -3.4721548557281494141 2.1237196922302246094 2.4700224399566650391 -3.8444781303405761719 -7.0313191413879394531 -2.5552234649658203125 -1.1129131317138671875 -3.351261138916015625 -99999 -99999 -99999 -99999 -99999 -99999 -99999 -99999 -99999 -99999 -99999 -99999 -99999 -99999 -99999 -99999 -99999 -99999 -99999 -99999 -99999 -99999 -99999 -99999 -99999 -99999 -99999 -99999 -99999 -99999 -99999 -99999 -99999 -99999 -99999 -99999 -99999 -99999 -99999 -99999 -99999 -99999 -99999 -99999 -99999 -99999 -99999 -99999 -99999 -99999 -99999 -99999 -99999 -99999 -99999 -99999 -99999 -99999 -99999 -99999 -99999 -99999 -99999 -99999 -99999 -99999 -99999 -99999 -99999 
-99999 -99999 -99999 -99999 -99999 -99999 -99999 -99999 -99999 -99999 -99999 -99999 -99999 -99999 -99999 -99999 -2.1447002887725830078 0.27015098929405212402 -5.0608859062194824219 -5.3433446884155273438 -3.8797640800476074219 -2.6313714981079101562 -1.7671108245849609375 2.4344694614410400391 -3.3661363124847412109 1.3029030561447143555 4.9927248954772949219 3.7276048660278320312 -7.1978178024291992188 -4.3437662124633789062 -5.3362412452697753906 -5.7833027839660644531 -2.1553471088409423828 -3.1031925678253173828 -99999 -99999 -99999 -99999 -99999 -99999 -99999 -99999 -99999 -99999 -99999 -99999 -99999 -99999 -99999 -99999 -99999 -99999 -99999 -99999 -99999 -99999 -99999 -99999 -99999 -99999 -99999 -99999 -99999 -99999 -99999 -99999 -99999 -99999 -99999 -99999 -99999 -99999 -99999 -99999 -99999 -99999 -99999 -99999 -99999 -99999 -99999 -99999 -99999 -99999 -99999 -99999 -99999 -99999 -99999 -99999 -99999 -99999 -99999 -99999 -99999 -99999 -99999 -99999 -99999 -99999 -99999 
-99999 -99999 -99999 -99999 -99999 -99999 -99999 -99999 -99999 -99999 -99999 -99999 -99999 -99999 -99999 -1.1936314105987548828 -3.6394188404083251953 -2.7993028163909912109 -2.6524326801300048828 -4.7491540908813476562 -2.0875213146209716797 -1.7141196727752685547 -4.6918697357177734375 1.7891097068786621094 -2.4759991168975830078 0.64050787687301635742 -2.7084064483642578125 -0.42759427428245544434 -6.1083903312683105469 -2.2761943340301513672 -4.0732402801513671875 -6.1437520980834960938 -5.1974434852600097656 -4.5813703536987304688 -99999 -99999 -99999 -99999 -99999 -99999 -99999 -99999 -99999 -99999 -99999 -99999 -99999 -99999 -99999 -99999 -99999 -99999 -99999 -99999 -99999 -99999 -99999 -99999 -99999 -99999 -99999 -99999 -99999 -99999 -99999 -99999 -99999 -99999 -99999 -99999 -99999 -99999 -99999 -99999 -99999 -99999 -99999 -99999 -99999 -99999 -99999 -99999 -99999 -99999 -99999 -99999 -99999 -99999 -99999 -99999 -99999 -99999 -99999 -99999 -99999 -99999 -99999 -99999 -99999 -99999 -99999 
-99999 -99999 -99999 -99999 -99999 -99999 -99999 -99999 -99999 -99999 -99999 -99999 -99999 -99999 -99999 6.646839141845703125 2.9556338787078857422 -3.8185396194458007812 -3.80123138427734375 -3.5767483711242675781 0.84063947200775146484 -0.3792203068733215332 -6.0814723968505859375 1.5095947980880737305 -3.5779292583465576172 5.15267181396484375 8.229122161865234375 1.6296341419219970703 -4.5233621597290039062 -5.5805487632751464844 -3.4840655326843261719 -5.3796567916870117188 -3.6336705684661865234 -3.1658072471618652344 -2.0001814365386962891 -99999 -99999 -99999 -99999 -99999 -99999 -99999 -99999 -99999 -99999 -99999 -99999 -99999 -99999 -99999 -99999 -99999 -99999 -99999 -99999 -99999 -99999 -99999 -99999 -99999 -99999 -99999 -99999 -99999 -99999 -99999 -99999 -99999 -99999 -99999 -99999 -99999 -99999 -99999 -99999 -99999 -99999 -99999 -99999 -99999 -99999 -99999 -99999 -99999 -99999 -99999 -99999 -99999 -99999 -99999 -99999 -99999 -99999 -99999 -99999 -99999 -99999 -99999 -99999 -99999 -99999 
-99999 -99999 -99999 -99999 -99999 -99999 -99999 -99999 -99999 -99999 -99999 -99999 -99999 -99999 -99999 3.1062920093536376953 6.074542999267578125 4.5275454521179199219 -4.51938629150390625 -5.3160190582275390625 -0.69933301210403442383 6.2739152908325195312 -2.7365198135375976562 -2.7438158988952636719 -5.1483745574951171875 -0.4442259669303894043 8.6205844879150390625 11.408483505249023438 7.2570056915283203125 -3.8561248779296875 -4.2771787643432617188 -0.93477857112884521484 0.40103331208229064941 -1.5205415487289428711 1.6766892671585083008 -2.3918738365173339844 -3.5724368095397949219 -2.3924782276153564453 -1.4300255775451660156 -99999 -99999 -99999 -99999 -99999 -99999 -99999 -99999 -99999 -99999 -99999 -99999 -99999 -99999 -99999 -99999 -99999 -99999 -99999 -99999 -99999 -99999 -99999 -99999 -99999 -99999 -99999 -99999 -99999 -99999 -99999 -99999 -99999 -99999 -99999 -99999 -99999 -99999 -99999 -99999 -99999 -99999 -99999 -99999 -99999 -99999 -99999 -99999 -99999 -99999 -99999 -99999 -99999 -99999 -99999 -99999 -99999 -99999 -99999 -99999 -99999 -99999 
-99999 -99999 -99999 -99999 -99999 -99999 -99999 -99999 -99999 -99999 -99999 -99999 -99999 -99999 -99999 5.0362644195556640625 5.2562575340270996094 5.33104705810546875 -4.9597105979919433594 -4.9461312294006347656 -4.1876993179321289062 -3.5969452857971191406 2.8670306205749511719 -1.9724321365356445312 -3.5961325168609619141 -0.29809993505477905273 -3.1175291538238525391 6.00096893310546875 10.545636177062988281 5.2339906692504882812 -6.1349153518676757812 -5.4629526138305664062 -1.9401017427444458008 -2.3000192642211914062 3.2089686393737792969 2.9596102237701416016 0.062636040151119232178 -4.1132721900939941406 -2.7754125595092773438 -1.3839523792266845703 -1.3065520524978637695 -99999 -99999 -99999 -99999 -99999 -99999 -99999 -99999 -99999 -99999 -99999 -99999 -99999 -99999 -99999 -99999 -99999 -99999 -99999 -99999 -99999 -99999 -99999 -99999 -99999 -99999 -99999 -99999 -99999 -99999 -99999 -99999 -99999 -99999 -99999 -99999 -99999 -99999 -99999 -99999 -99999 -99999 -99999 -99999 -99999 -99999 -99999 -99999 -99999 -99999 -99999 -99999 -99999 -99999 -99999 -99999 -99999 -99999 -99999 -99999 
-99999 -99999 -99999 -99999 -99999 -99999 -99999 -99999 -99999 -99999 -99999 -99999 -99999 -99999 -3.4854195117950439453 1.5732713937759399414 2.3736379146575927734 6.62054443359375 -3.2433989048004150391 -8.1048450469970703125 -7.363079071044921875 -12.090147972106933594 -6.5498647689819335938 -0.79504126310348510742 -3.1896700859069824219 3.0063951015472412109 -5.1739454269409179688 -5.4587860107421875 2.8688962459564208984 5.2925505638122558594 -3.4005327224731445312 -6.8325223922729492188 -4.1999211311340332031 -0.25235822796821594238 4.1817536354064941406 0.90580254793167114258 0.99579626321792602539 -1.892489314079284668 -4.0177707672119140625 -1.6213498115539550781 -2.0525946617126464844 -99999 -99999 -99999 -99999 -99999 -99999 -99999 -99999 -99999 -99999 -99999 -99999 -99999 -99999 -99999 -99999 -99999 -99999 -99999 -99999 -99999 -99999 -99999 -99999 -99999 -99999 -99999 -99999 -99999 -99999 -99999 -99999 -99999 -99999 -99999 -99999 -99999 -99999 -99999 -99999 -99999 -99999 -99999 -99999 -99999 -99999 -99999 -99999 -99999 -99999 -99999 -99999 -99999 -99999 -99999 -99999 -99999 -99999 -99999 -99999 
-99999 -99999 -99999 -99999 -99999 -99999 -99999 -99999 -99999 -99999 -99999 -99999 1.889126896858215332 -1.5018624067306518555 -7.3849921226501464844 -0.71541565656661987305 -1.3698508739471435547 -0.2524477541446685791 -1.2310875654220581055 -4.9596643447875976562 -7.6330518722534179688 -5.2403059005737304688 -5.3069486618041992188 1.4290170669555664062 0.07502676546573638916 4.7677893638610839844 -0.4539883732795715332 -7.1529626846313476562 2.3776078224182128906 1.5668100118637084961 -1.2271431684494018555 -0.37756809592247009277 -0.21138368546962738037 -1.0083043575286865234 0.82569968700408935547 5.0223555564880371094 6.0331263542175292969 4.9540562629699707031 -2.1566371917724609375 -2.3817830085754394531 -2.1243634223937988281 -1.8383724689483642578 -99999 -99999 -99999 -99999 -99999 -99999 -99999 -99999 -99999 -99999 -99999 -99999 -99999 -99999 -99999 -99999 -99999 -99999 -99999 -99999 -99999 -99999 -99999 -99999 -99999 -99999 -99999 -99999 -99999 -99999 -99999 -99999 -99999 -99999 -99999 -99999 -99999 -99999 -99999 -99999 -99999 -99999 -99999 -99999 -99999 -99999 -99999 -99999 -99999 -99999 -99999 -99999 -99999 -99999 -99999 -99999 -99999 -99999 -99999 
-99999 -99999 -99999 -99999 -99999 -99999 -99999 -99999 -99999 -99999 -99999 -99999 0.71090883016586303711 -1.7199544906616210938 -4.9605460166931152344 -2.8154468536376953125 3.4118382930755615234 2.9052240848541259766 5.112834930419921875 -4.3418536186218261719 -4.0045709609985351562 -1.4350211620330810547 -0.71834027767181396484 0.79549813270568847656 -0.098012916743755340576 3.5966725349426269531 5.4761424064636230469 -5.2020168304443359375 -2.7849793434143066406 1.8729794025421142578 -2.0179507732391357422 1.1763556003570556641 1.0200611352920532227 0.95793294906616210938 -1.4992188215255737305 -3.7321279048919677734 2.6600143909454345703 3.3514583110809326172 0.10720282793045043945 -3.3049371242523193359 -1.5646245479583740234 -4.3353857994079589844 -99999 -99999 -99999 -99999 -99999 -99999 -99999 -99999 -99999 -99999 -99999 -99999 -99999 -99999 -99999 -99999 -99999 -99999 -99999 -99999 -99999 -99999 -99999 -99999 -99999 -99999 -99999 -99999 -99999 -99999 -99999 -99999 -99999 -99999 -99999 -99999 -99999 -99999 -99999 -99999 -99999 -99999 -99999 -99999 -99999 -99999 -99999 -99999 -99999 -99999 -99999 -99999 -99999 -99999 -99999 -99999 -99999 -99999 -99999 
-99999 -99999 -99999 -99999 -99999 -99999 -99999 -99999 -99999 -99999 -1.879838109016418457 -3.8593981266021728516 1.5948765277862548828 2.0919585227966308594 -5.6955513954162597656 -6.2614078521728515625 -0.96864289045333862305 -1.0504761934280395508 1.4614146947860717773 -0.87902987003326416016 -5.0696702003479003906 -5.2772927284240722656 -7.123813629150390625 -3.0348060131072998047 0.25273215770721435547 2.0359685420989990234 7.9168176651000976562 4.5047049522399902344 -2.3967664241790771484 -1.315565943717956543 -3.3793001174926757812 -0.55139434337615966797 0.92353683710098266602 -2.4587907791137695312 0.90870809555053710938 -5.2890987396240234375 -0.40396511554718017578 2.9995806217193603516 2.0931389331817626953 -3.4961695671081542969 -1.3765571117401123047 -3.7471172809600830078 -99999 -99999 -99999 -99999 -99999 -99999 -99999 -99999 -99999 -99999 -99999 -99999 -99999 -99999 -99999 -99999 -99999 -99999 -99999 -99999 -99999 -99999 -99999 -99999 -99999 -99999 -99999 -99999 -99999 -99999 -99999 -99999 -99999 -99999 -99999 -99999 -99999 -99999 -99999 -99999 -99999 -99999 -99999 -99999 -99999 -99999 -99999 -99999 -99999 -99999 -99999 -99999 -99999 -99999 -99999 -99999 -99999 -99999 -99999 
-99999 -99999 -99999 -99999 -99999 -99999 -99999 -3.3338103294372558594 -2.5666515827178955078 -4.7722568511962890625 -4.1992239952087402344 -7.5910944938659667969 -3.0761957168579101562 0.82762998342514038086 1.2772737741470336914 -6.0385260581970214844 -0.65317744016647338867 -3.1541335582733154297 1.4848825931549072266 -3.662136077880859375 -6.2346200942993164062 -6.0315299034118652344 -8.2926912307739257812 -2.6407260894775390625 -0.85647213459014892578 -1.9625791311264038086 5.2650618553161621094 8.7031841278076171875 6.98387908935546875 -2.5154142379760742188 -6.6576390266418457031 -3.4116504192352294922 2.610584259033203125 -0.48217299580574035645 -2.0044872760772705078 -4.7530670166015625 -2.489910125732421875 -0.66786533594131469727 2.2543537616729736328 -3.3196201324462890625 -2.2363684177398681641 -99999 -99999 -99999 -99999 -99999 -99999 -99999 -99999 -99999 -99999 -99999 -99999 -99999 -99999 -99999 -99999 -99999 -99999 -99999 -99999 -99999 -99999 -99999 -99999 -99999 -99999 -99999 -99999 -99999 -99999 -99999 -99999 -99999 -99999 -99999 -99999 -99999 -99999 -99999 -99999 -99999 -99999 -99999 -99999 -99999 -99999 -99999 -99999 -99999 -99999 -99999 -99999 -99999 -99999 -99999 -99999 -99999 -99999 -99999 -99999 
-99999 -99999 -99999 -99999 -99999 -99999 -2.0889692306518554688 -5.4452872276306152344 -4.7374320030212402344 -4.5172209739685058594 -4.4849438667297363281 -8.1568918228149414062 -3.9573254585266113281 -4.7425208091735839844 2.3958160877227783203 -4.3170709609985351562 -1.054309844970703125 -2.5037684440612792969 -0.46515905857086181641 -4.1831188201904296875 -5.6194767951965332031 -6.5298709869384765625 -8.617504119873046875 -1.7103774547576904297 2.3372769355773925781 -4.2084207534790039062 -3.4770636558532714844 0.25217038393020629883 3.9716336727142333984 -0.54568386077880859375 -7.4566822052001953125 -5.0798816680908203125 -0.7258841395378112793 3.8217508792877197266 0.097274161875247955322 -3.5849769115447998047 0.73080539703369140625 -2.4427578449249267578 0.19424687325954437256 -1.7951041460037231445 -2.3309080600738525391 -99999 -99999 -99999 -99999 -99999 -99999 -99999 -99999 -99999 -99999 -99999 -99999 -99999 -99999 -99999 -99999 -99999 -99999 -99999 -99999 -99999 -99999 -99999 -99999 -99999 -99999 -99999 -99999 -99999 -99999 -99999 -99999 -99999 -99999 -99999 -99999 -99999 -99999 -99999 -99999 -99999 -99999 -99999 -99999 -99999 -99999 -99999 -99999 -99999 -99999 -99999 -99999 -99999 -99999 -99999 -99999 -99999 -99999 -99999 -99999 
-99999 -99999 -99999 -99999 -3.9976596832275390625 -1.9767143726348876953 0.19763851165771484375 -4.2772507667541503906 -5.4894003868103027344 -3.1043686866760253906 -3.0192706584930419922 -7.1857047080993652344 -3.3480041027069091797 -6.6507139205932617188 0.0027477901894599199295 5.1169486045837402344 3.5958769321441650391 4.8810343742370605469 4.2844662666320800781 -5.4955043792724609375 -5.3021755218505859375 -4.3828220367431640625 -5.4569692611694335938 -0.87336099147796630859 3.3894207477569580078 0.99211621284484863281 -2.1784965991973876953 -2.8001887798309326172 -1.7025285959243774414 1.4020404815673828125 -6.8655757904052734375 -4.2949810028076171875 -3.2396740913391113281 -0.18451839685440063477 0.51448673009872436523 -3.6672549247741699219 -0.045743510127067565918 0.9899985194206237793 -1.4531080722808837891 -2.2515239715576171875 -1.1841194629669189453 -99999 -99999 -99999 -99999 -99999 -99999 -99999 -99999 -99999 -99999 -99999 -99999 -99999 -99999 -99999 -99999 -99999 -99999 -99999 -99999 -99999 -99999 -99999 -99999 -99999 -99999 -99999 -99999 -99999 -99999 -99999 -99999 -99999 -99999 -99999 -99999 -99999 -99999 -99999 -99999 -99999 -99999 -99999 -99999 -99999 -99999 -99999 -99999 -99999 -99999 -99999 -99999 -99999 -99999 -99999 -99999 -99999 -99999 -99999 -99999 
-99999 -99999 -99999 -99999 -3.0316984653472900391 -4.5974864959716796875 -1.1802102327346801758 -0.78304052352905273438 -6.2875518798828125 -2.924152374267578125 -2.9608623981475830078 -7.3444552421569824219 -4.2547049522399902344 -6.3501849174499511719 -6.0988831520080566406 -0.3369325101375579834 5.9742093086242675781 5.996433258056640625 5.3880982398986816406 -1.2954677343368530273 -1.0433870553970336914 0.063071273267269134521 -3.5786352157592773438 -2.2056515216827392578 3.7173397541046142578 5.1825189590454101562 6.8360424041748046875 7.50885009765625 3.7433311939239501953 2.7184436321258544922 -2.5952718257904052734 -6.6823716163635253906 -2.693271636962890625 -2.5585918426513671875 -1.524139404296875 -1.8872627019882202148 -0.1987295001745223999 -0.76248574256896972656 -0.42684525251388549805 -1.1206753253936767578 -99999 -99999 -99999 -99999 -99999 -99999 -99999 -99999 -99999 -99999 -99999 -99999 -99999 -99999 -99999 -99999 -99999 -99999 -99999 -99999 -99999 -99999 -99999 -99999 -99999 -99999 -99999 -99999 -99999 -99999 -99999 -99999 -99999 -99999 -99999 -99999 -99999 -99999 -99999 -99999 -99999 -99999 -99999 -99999 -99999 -99999 -99999 -99999 -99999 -99999 -99999 -99999 -99999 -99999 -99999 -99999 -99999 -99999 -99999 -99999 -99999 
-99999 -99999 -99999 2.29046630859375 1.7124648094177246094 -3.0411806106567382812 -3.3914239406585693359 -1.1759400367736816406 -4.3993182182312011719 -3.8583092689514160156 -3.7171180248260498047 -5.9863104820251464844 -5.8505558967590332031 -6.0833482742309570312 -6.7688183784484863281 -5.9078383445739746094 -3.9973838329315185547 -0.59551370143890380859 3.0593421459197998047 -3.8134217262268066406 -3.5653080940246582031 -4.6372709274291992188 -5.9193544387817382812 -5.842899322509765625 -1.4064435958862304688 -2.25222015380859375 2.6722197532653808594 6.3395266532897949219 5.9294900894165039062 4.2084107398986816406 3.5408880710601806641 -3.1566686630249023438 -3.0638725757598876953 -1.4142315387725830078 -2.4615149497985839844 -0.55836433172225952148 0.54462701082229614258 -1.086546778678894043 -1.1722998619079589844 -1.4464426040649414062 -99999 -99999 -99999 -99999 -99999 -99999 -99999 -99999 -99999 -99999 -99999 -99999 -99999 -99999 -99999 -99999 -99999 -99999 -99999 -99999 -99999 -99999 -99999 -99999 -99999 -99999 -99999 -99999 -99999 -99999 -99999 -99999 -99999 -99999 -99999 -99999 -99999 -99999 -99999 -99999 -99999 -99999 -99999 -99999 -99999 -99999 -99999 -99999 -99999 -99999 -99999 -99999 -99999 -99999 -99999 -99999 -99999 -99999 -99999 -99999 -99999 
-99999 -99999 -0.70276486873626708984 -0.53317230939865112305 2.2450928688049316406 0.18104350566864013672 -0.12313650548458099365 2.1414880752563476562 0.7440058588981628418 3.8464453220367431641 4.0000553131103515625 -0.2766246497631072998 -3.4980258941650390625 -4.2397851943969726562 -6.4580340385437011719 -6.31572723388671875 -6.3658328056335449219 -1.516923069953918457 1.4472682476043701172 -5.2138910293579101562 -7.66677093505859375 -8.339794158935546875 -8.5793352127075195312 -7.5988836288452148438 -3.8001618385314941406 -4.7441377639770507812 -1.3086161613464355469 4.2726850509643554688 6.3355307579040527344 6.6483254432678222656 6.2667298316955566406 3.7413108348846435547 0.18305014073848724365 -1.3341530561447143555 -4.6066150665283203125 -3.0309679508209228516 -0.13098570704460144043 -0.33017063140869140625 -0.40053582191467285156 1.0088782310485839844 -99999 -99999 -99999 -99999 -99999 -99999 -99999 -99999 -99999 -99999 -99999 -99999 -99999 -99999 -99999 -99999 -99999 -99999 -99999 -99999 -99999 -99999 -99999 -99999 -99999 -99999 -99999 -99999 -99999 -99999 -99999 -99999 -99999 -99999 -99999 -99999 -99999 -99999 -99999 -99999 -99999 -99999 -99999 -99999 -99999 -99999 -99999 -99999 -99999 -99999 -99999 -99999 -99999 -99999 -99999 -99999 -99999 -99999 -99999 -99999 -99999 
2.6930286884307861328 -99999 2.6585984230041503906 0.40117320418357849121 4.2120618820190429688 7.4710407257080078125 8.6079645156860351562 6.4492964744567871094 4.8111624717712402344 1.6284658908843994141 7.0909886360168457031 3.7545723915100097656 3.1610593795776367188 -0.7231299281120300293 -2.6648871898651123047 -5.4104862213134765625 -5.6915235519409179688 -5.7287507057189941406 0.74114930629730224609 -3.1330938339233398438 -5.0527067184448242188 -5.6492314338684082031 -7.7848310470581054688 -7.9695506095886230469 -7.4612226486206054688 -5.0903072357177734375 -4.8821840286254882812 -0.14064587652683258057 1.0929079055786132812 0.46659249067306518555 0.84344518184661865234 1.9713485240936279297 3.4349768161773681641 2.4882509708404541016 -0.64650994539260864258 -3.1054012775421142578 -1.377203822135925293 -0.41891539096832275391 -99999 -99999 -99999 -99999 -99999 -99999 -99999 -99999 -99999 -99999 -99999 -99999 -99999 -99999 -99999 -99999 -99999 -99999 -99999 -99999 -99999 -99999 -99999 -99999 -99999 -99999 -99999 -99999 -99999 -99999 -99999 -99999 -99999 -99999 -99999 -99999 -99999 -99999 -99999 -99999 -99999 -99999 -99999 -99999 -99999 -99999 -99999 -99999 -99999 -99999 -99999 -99999 -99999 -99999 -99999 -99999 -99999 -99999 -99999 -99999 -99999 -99999 -99999 
1.6314085721969604492 1.1638677120208740234 2.9204382896423339844 1.8243958950042724609 0.99764692783355712891 3.73450469970703125 5.5435380935668945312 6.5183367729187011719 5.9956412315368652344 1.8122131824493408203 4.4409384727478027344 3.6111545562744140625 4.2983102798461914062 3.2005584239959716797 3.4401593208312988281 3.3707382678985595703 1.9058983325958251953 1.1530967950820922852 0.75858277082443237305 -0.46179878711700439453 0.53710359334945678711 2.0827257633209228516 -1.0028100013732910156 -2.3011045455932617188 -4.6726965904235839844 -3.8633911609649658203 -5.2775378227233886719 -0.79231208562850952148 0.99466401338577270508 2.8061695098876953125 3.2904186248779296875 2.6143929958343505859 3.1873302459716796875 4.080379486083984375 3.0539233684539794922 0.16352926194667816162 2.6528139114379882812 1.8761478662490844727 -99999 -99999 -99999 -99999 -99999 -99999 -99999 -99999 -99999 -99999 -99999 -99999 -99999 -99999 -99999 -99999 -99999 -99999 -99999 -99999 -99999 -99999 -99999 -99999 -99999 -99999 -99999 -99999 -99999 -99999 -99999 -99999 -99999 -99999 -99999 -99999 -99999 -99999 -99999 -99999 -99999 -99999 -99999 -99999 -99999 -99999 -99999 -99999 -99999 -99999 -99999 -99999 -99999 -99999 -99999 -99999 -99999 -99999 -99999 -99999 -99999 -99999 -99999 
-99999 1.6161289215087890625 2.1243412494659423828 2.3438622951507568359 -99999 -99999 -99999 -99999 4.4736285209655761719 4.9645695686340332031 5.0649652481079101562 5.0046992301940917969 6.2805466651916503906 3.3574454784393310547 6.2613544464111328125 6.725811004638671875 4.9283170700073242188 2.9349534511566162109 3.1367309093475341797 -2.6702458858489990234 0.82147735357284545898 3.3971979618072509766 4.9229784011840820312 2.2408578395843505859 0.50862890481948852539 0.55088669061660766602 -2.8166966438293457031 -0.60465121269226074219 4.3640913963317871094 5.4266934394836425781 4.5236449241638183594 3.86048126220703125 4.7866544723510742188 6.0363759994506835938 3.8406174182891845703 -2.1771581172943115234 0.51125055551528930664 -99999 -99999 -99999 -99999 -99999 -99999 -99999 -99999 -99999 -99999 -99999 -99999 -99999 -99999 -99999 -99999 -99999 -99999 -99999 -99999 -99999 -99999 -99999 -99999 -99999 -99999 -99999 -99999 -99999 -99999 -99999 -99999 -99999 -99999 -99999 -99999 -99999 -99999 -99999 -99999 -99999 -99999 -99999 -99999 -99999 -99999 -99999 -99999 -99999 -99999 -99999 -99999 -99999 -99999 -99999 -99999 -99999 -99999 -99999 -99999 -99999 -99999 -99999 -99999 
-99999 -99999 -99999 -99999 -99999 -99999 -99999 -99999 0.37359067797660827637 4.7119503021240234375 5.6057643890380859375 4.454296112060546875 5.2333302497863769531 2.1188855171203613281 3.0874361991882324219 1.3191969394683837891 0.76453220844268798828 0.44586196541786193848 1.0002030134201049805 -0.15956564247608184814 -4.3772473335266113281 3.0133943557739257812 5.7927536964416503906 3.5823171138763427734 1.7277115583419799805 1.0513082742691040039 1.1318166255950927734 -0.011851157061755657196 2.3305404186248779297 4.4327168464660644531 4.3088092803955078125 4.4333319664001464844 1.449872136116027832 0.63074374198913574219 1.3342847824096679688 -3.1622693538665771484 -3.6248772144317626953 -99999 -99999 -99999 -99999 -99999 -99999 -99999 -99999 -99999 -99999 -99999 -99999 -99999 -99999 -99999 -99999 -99999 -99999 -99999 -99999 -99999 -99999 -99999 -99999 -99999 -99999 -99999 -99999 -99999 -99999 -99999 -99999 -99999 -99999 -99999 -99999 -99999 -99999 -99999 -99999 -99999 -99999 -99999 -99999 -99999 -99999 -99999 -99999 -99999 -99999 -99999 -99999 -99999 -99999 -99999 -99999 -99999 -99999 -99999 -99999 -99999 -99999 -99999 -99999 
-99999 -99999 -99999 -99999 -99999 -99999 -99999 -99999 -99999 -99999 -99999 6.9108781814575195312 6.5939702987670898438 5.1801586151123046875 1.8850772380828857422 2.2024724483489990234 1.9515786170959472656 1.9104334115982055664 -2.5103495121002197266 0.69183027744293212891 -1.8254133462905883789 -1.1245470046997070312 5.70611572265625 4.9516324996948242188 3.5072534084320068359 3.2055654525756835938 3.0608551502227783203 2.4676346778869628906 -0.20797933638095855713 -2.9774386882781982422 -3.2084221839904785156 -1.6482703685760498047 0.60256230831146240234 1.3740170001983642578 2.5993862152099609375 -1.048708796501159668 -2.9588456153869628906 -3.2170832157135009766 -99999 -99999 -99999 -99999 -99999 -99999 -99999 -99999 -99999 -99999 -99999 -99999 -99999 -99999 -99999 -99999 -99999 -99999 -99999 -99999 -99999 -99999 -99999 -99999 -99999 -99999 -99999 -99999 -99999 -99999 -99999 -99999 -99999 -99999 -99999 -99999 -99999 -99999 -99999 -99999 -99999 -99999 -99999 -99999 -99999 -99999 -99999 -99999 -99999 -99999 -99999 -99999 -99999 -99999 -99999 -99999 -99999 -99999 -99999 -99999 -99999 -99999 -99999 
-99999 -99999 -99999 -99999 -99999 -99999 -99999 -99999 -99999 -99999 -4.2432432174682617188 -4.275058746337890625 -1.8781723976135253906 5.3007760047912597656 6.4073505401611328125 6.088413238525390625 4.3392305374145507812 4.322025299072265625 -3.0069420337677001953 -5.0312623977661132812 -6.5463604927062988281 -8.060577392578125 1.3387151956558227539 3.1597006320953369141 0.085829496383666992188 -0.011740207672119140625 -3.1226429939270019531 -2.8684430122375488281 -1.2170858383178710938 -0.49929320812225341797 -3.9233455657958984375 -3.7563660144805908203 0.9845950007438659668 4.0469470024108886719 4.7988181114196777344 1.7740122079849243164 -1.8438971042633056641 -0.84755527973175048828 -99999 -99999 -99999 -99999 -99999 -99999 -99999 -99999 -99999 -99999 -99999 -99999 -99999 -99999 -99999 -99999 -99999 -99999 -99999 -99999 -99999 -99999 -99999 -99999 -99999 -99999 -99999 -99999 -99999 -99999 -99999 -99999 -99999 -99999 -99999 -99999 -99999 -99999 -99999 -99999 -99999 -99999 -99999 -99999 -99999 -99999 -99999 -99999 -99999 -99999 -99999 -99999 -99999 -99999 -99999 -99999 -99999 -99999 -99999 -99999 -99999 -99999 -99999 
-99999 -99999 -99999 -99999 -99999 -99999 -99999 -99999 -99999 -99999 -5.9809327125549316406 -5.0361104011535644531 -6.9988946914672851562 -5.62392425537109375 -4.0826430320739746094 3.8573849201202392578 4.8734712600708007812 1.6138813495635986328 -2.2055149078369140625 -3.4161159992218017578 -4.1088061332702636719 -6.2714443206787109375 -5.0240912437438964844 -2.9394960403442382812 -7.9025211334228515625 -6.404937744140625 -6.630840301513671875 -6.14542388916015625 -6.4785199165344238281 -2.4077951908111572266 -1.5224171876907348633 -4.8548154830932617188 -3.3379144668579101562 0.09959090501070022583 2.1862661838531494141 1.4604524374008178711 -0.71272408962249755859 -99999 -99999 -99999 -99999 -99999 -99999 -99999 -99999 -99999 -99999 -99999 -99999 -99999 -99999 -99999 -99999 -99999 -99999 -99999 -99999 -99999 -99999 -99999 -99999 -99999 -99999 -99999 -99999 -99999 -99999 -99999 -99999 -99999 -99999 -99999 -99999 -99999 -99999 -99999 -99999 -99999 -99999 -99999 -99999 -99999 -99999 -99999 -99999 -99999 -99999 -99999 -99999 -99999 -99999 -99999 -99999 -99999 -99999 -99999 -99999 -99999 -99999 -99999 -99999 
-99999 -99999 -99999 -99999 -99999 -99999 -99999 -99999 -99999 -1.7873338460922241211 -4.7823386192321777344 -5.7751584053039550781 -5.2643690109252929688 -1.1797302961349487305 -6.8646612167358398438 -4.98017120361328125 3.2632894515991210938 3.7047545909881591797 -2.8309838771820068359 -4.5630545616149902344 -3.4930713176727294922 -0.82858991622924804688 1.4257639646530151367 2.6900067329406738281 -2.07586669921875 -5.4213151931762695312 -1.7937105894088745117 -0.25047275424003601074 -3.8749382495880126953 -2.1390392780303955078 1.9159330129623413086 -3.3091599941253662109 -3.5709388256072998047 -1.6890330314636230469 -0.24268089234828948975 1.0087473392486572266 -1.3536051511764526367 -99999 -99999 -99999 -99999 -99999 -99999 -99999 -99999 -99999 -99999 -99999 -99999 -99999 -99999 -99999 -99999 -99999 -99999 -99999 -99999 -99999 -99999 -99999 -99999 -99999 -99999 -99999 -99999 -99999 -99999 -99999 -99999 -99999 -99999 -99999 -99999 -99999 -99999 -99999 -99999 -99999 -99999 -99999 -99999 -99999 -99999 -99999 -99999 -99999 -99999 -99999 -99999 -99999 -99999 -99999 -99999 -99999 -99999 -99999 -99999 -99999 -99999 -99999 -99999 
-99999 -99999 -99999 -99999 -99999 -99999 -99999 -99999 -99999 -0.1017505452036857605 -1.7042906284332275391 -3.4787945747375488281 -4.4075994491577148438 -1.1953521966934204102 -1.3581993579864501953 -5.089954376220703125 0.46540519595146179199 3.3480565547943115234 -0.42775484919548034668 -4.0752243995666503906 -5.8550157546997070312 -4.8684782981872558594 -2.9322271347045898438 0.30680227279663085938 4.9550876617431640625 -2.0725216865539550781 -2.2661659717559814453 4.3467993736267089844 -1.1388063430786132812 -3.4825484752655029297 1.3120464086532592773 -1.6835155487060546875 -2.4009494781494140625 -2.1170659065246582031 -1.4607185125350952148 0.028021354228258132935 -99999 -99999 -99999 -99999 -99999 -99999 -99999 -99999 -99999 -99999 -99999 -99999 -99999 -99999 -99999 -99999 -99999 -99999 -99999 -99999 -99999 -99999 -99999 -99999 -99999 -99999 -99999 -99999 -99999 -99999 -99999 -99999 -99999 -99999 -99999 -99999 -99999 -99999 -99999 -99999 -99999 -99999 -99999 -99999 -99999 -99999 -99999 -99999 -99999 -99999 -99999 -99999 -99999 -99999 -99999 -99999 -99999 -99999 -99999 -99999 -99999 -99999 -99999 -99999 -99999 
-99999 -99999 -99999 -99999 -99999 -99999 -99999 -99999 -2.4186346530914306641 -1.2023837566375732422 -0.098881743848323822021 -3.3059237003326416016 -3.7847604751586914062 -4.8441720008850097656 -0.56675881147384643555 -4.0272059440612792969 1.3119467496871948242 2.3469052314758300781 0.058091223239898681641 -3.2063195705413818359 -2.4973797798156738281 -3.1619420051574707031 -3.4306137561798095703 -3.7308738231658935547 -0.17377920448780059814 -1.2896833419799804688 -5.15438079833984375 0.27774977684020996094 0.71219944953918457031 -3.3440597057342529297 -1.5465768575668334961 0.069871224462985992432 -2.0088961124420166016 -2.0178432464599609375 -0.88209354877471923828 -0.46229085326194763184 -99999 -99999 -99999 -99999 -99999 -99999 -99999 -99999 -99999 -99999 -99999 -99999 -99999 -99999 -99999 -99999 -99999 -99999 -99999 -99999 -99999 -99999 -99999 -99999 -99999 -99999 -99999 -99999 -99999 -99999 -99999 -99999 -99999 -99999 -99999 -99999 -99999 -99999 -99999 -99999 -99999 -99999 -99999 -99999 -99999 -99999 -99999 -99999 -99999 -99999 -99999 -99999 -99999 -99999 -99999 -99999 -99999 -99999 -99999 -99999 -99999 -99999 -99999 -99999 -99999 
-99999 -99999 -99999 -99999 -99999 -99999 -99999 -99999 -0.69909662008285522461 -1.1312350034713745117 -0.23338741064071655273 -1.1422392129898071289 -1.4777723550796508789 -3.6740477085113525391 -2.4427084922790527344 -4.5834050178527832031 -3.6004090309143066406 -2.0240266323089599609 -1.848361968994140625 -7.3473997116088867188 -5.9750690460205078125 -3.1157252788543701172 -4.7784523963928222656 -0.86747783422470092773 -2.2128648757934570312 0.64121907949447631836 -3.7906248569488525391 -1.513380885124206543 -1.0022687911987304688 -1.8696370124816894531 -1.7266318798065185547 -1.8674238920211791992 -1.112496495246887207 0.42501351237297058105 1.8295274972915649414 0.83684694766998291016 -99999 -99999 -99999 -99999 -99999 -99999 -99999 -99999 -99999 -99999 -99999 -99999 -99999 -99999 -99999 -99999 -99999 -99999 -99999 -99999 -99999 -99999 -99999 -99999 -99999 -99999 -99999 -99999 -99999 -99999 -99999 -99999 -99999 -99999 -99999 -99999 -99999 -99999 -99999 -99999 -99999 -99999 -99999 -99999 -99999 -99999 -99999 -99999 -99999 -99999 -99999 -99999 -99999 -99999 -99999 -99999 -99999 -99999 -99999 -99999 -99999 -99999 -99999 -99999 -99999 
-99999 -99999 -99999 -99999 -99999 -99999 -99999 -99999 2.5008919239044189453 2.4166965484619140625 1.9459886550903320312 1.8120191097259521484 2.3366076946258544922 2.1038384437561035156 -1.1547399759292602539 -2.1187655925750732422 -1.1306465864181518555 0.77752959728240966797 -0.19096536934375762939 -4.3489050865173339844 -5.0322690010070800781 -1.388089299201965332 -2.36157989501953125 -1.8774155378341674805 -2.8764674663543701172 -0.16761155426502227783 -2.0446667671203613281 -0.81983399391174316406 -0.93962919712066650391 -1.1506563425064086914 -0.85316181182861328125 0.87572336196899414062 0.60906672477722167969 0.41489866375923156738 -99999 -99999 -99999 -99999 -99999 -99999 -99999 -99999 -99999 -99999 -99999 -99999 -99999 -99999 -99999 -99999 -99999 -99999 -99999 -99999 -99999 -99999 -99999 -99999 -99999 -99999 -99999 -99999 -99999 -99999 -99999 -99999 -99999 -99999 -99999 -99999 -99999 -99999 -99999 -99999 -99999 -99999 -99999 -99999 -99999 -99999 -99999 -99999 -99999 -99999 -99999 -99999 -99999 -99999 -99999 -99999 -99999 -99999 -99999 -99999 -99999 -99999 -99999 -99999 -99999 -99999 -99999 
-99999 -99999 -99999 -99999 -99999 -99999 -99999 -99999 -99999 1.5765587091445922852 2.0721814632415771484 1.3199779987335205078 2.6571562290191650391 2.7772376537322998047 1.8517664670944213867 -2.7695746421813964844 -2.0900182723999023438 -0.65064519643783569336 1.5973787307739257812 -1.3305456638336181641 -0.70690405368804931641 -1.7567168474197387695 -0.33182901144027709961 0.22357697784900665283 -1.2417376041412353516 -0.25379300117492675781 -0.18146340548992156982 -1.3079016208648681641 -0.80730354785919189453 0.15253846347332000732 1.3906105756759643555 1.5767291784286499023 3.2773287296295166016 -1.246014714241027832 -99999 -99999 -99999 -99999 -99999 -99999 -99999 -99999 -99999 -99999 -99999 -99999 -99999 -99999 -99999 -99999 -99999 -99999 -99999 -99999 -99999 -99999 -99999 -99999 -99999 -99999 -99999 -99999 -99999 -99999 -99999 -99999 -99999 -99999 -99999 -99999 -99999 -99999 -99999 -99999 -99999 -99999 -99999 -99999 -99999 -99999 -99999 -99999 -99999 -99999 -99999 -99999 -99999 -99999 -99999 -99999 -99999 -99999 -99999 -99999 -99999 -99999 -99999 -99999 -99999 -99999 -99999 
-99999 -99999 -99999 -99999 -99999 -99999 -99999 -99999 -99999 2.3658852577209472656 0.77180790901184082031 0.40894353389739990234 2.3989796638488769531 4.5217995643615722656 2.6590030193328857422 1.2754034996032714844 -0.59671014547348022461 -2.0820405483245849609 -0.91178435087203979492 -3.5464124679565429688 -1.1907479763031005859 -0.86354559659957885742 -1.8193269968032836914 -0.2687326967716217041 -1.1460014581680297852 -0.78428208827972412109 -1.1421440839767456055 -0.43801015615463256836 -0.16517969965934753418 -1.1356744766235351562 0.60133457183837890625 -0.075536519289016723633 0.21842145919799804688 -0.12036626040935516357 -99999 -99999 -99999 -99999 -99999 -99999 -99999 -99999 -99999 -99999 -99999 -99999 -99999 -99999 -99999 -99999 -99999 -99999 -99999 -99999 -99999 -99999 -99999 -99999 -99999 -99999 -99999 -99999 -99999 -99999 -99999 -99999 -99999 -99999 -99999 -99999 -99999 -99999 -99999 -99999 -99999 -99999 -99999 -99999 -99999 -99999 -99999 -99999 -99999 -99999 -99999 -99999 -99999 -99999 -99999 -99999 -99999 -99999 -99999 -99999 -99999 -99999 -99999 -99999 -99999 -99999 -99999 
-99999 -99999 -99999 -99999 -99999 -99999 -99999 -99999 -99999 6.0559582710266113281 4.4805393218994140625 2.9382100105285644531 1.3712440729141235352 5.3829965591430664062 4.5966844558715820312 1.4123030900955200195 2.2852356433868408203 2.0571117401123046875 0.25700533390045166016 -2.6510813236236572266 -1.8547502756118774414 -0.94798547029495239258 -1.829559326171875 -1.7731165885925292969 -1.444716334342956543 0.10098600387573242188 1.8262836933135986328 2.6328909397125244141 0.68415033817291259766 -2.7244434356689453125 -3.3020534515380859375 -1.6808316707611083984 0.5027923583984375 1.2159650325775146484 -99999 -99999 -99999 -99999 -99999 -99999 -99999 -99999 -99999 -99999 -99999 -99999 -99999 -99999 -99999 -99999 -99999 -99999 -99999 -99999 -99999 -99999 -99999 -99999 -99999 -99999 -99999 -99999 -99999 -99999 -99999 -99999 -99999 -99999 -99999 -99999 -99999 -99999 -99999 -99999 -99999 -99999 -99999 -99999 -99999 -99999 -99999 -99999 -99999 -99999 -99999 -99999 -99999 -99999 -99999 -99999 -99999 -99999 -99999 -99999 -99999 -99999 -99999 -99999 -99999 -99999 -99999 
-99999 -99999 -99999 -99999 -99999 -99999 -99999 -99999 -99999 -99999 2.7427659034729003906 1.841187596321105957 -0.58443647623062133789 -0.56859147548675537109 2.8921358585357666016 1.5193108320236206055 1.8677703142166137695 1.6933265924453735352 1.4922062158584594727 -1.0839992761611938477 0.02767823636531829834 0.7232348322868347168 -0.77456909418106079102 2.0095908641815185547 1.6434164047241210938 -0.11296086758375167847 1.5384305715560913086 2.2136793136596679688 1.7279384136199951172 0.78374868631362915039 -0.77063548564910888672 -0.99331623315811157227 -1.5439428091049194336 -99999 -99999 -99999 -99999 -99999 -99999 -99999 -99999 -99999 -99999 -99999 -99999 -99999 -99999 -99999 -99999 -99999 -99999 -99999 -99999 -99999 -99999 -99999 -99999 -99999 -99999 -99999 -99999 -99999 -99999 -99999 -99999 -99999 -99999 -99999 -99999 -99999 -99999 -99999 -99999 -99999 -99999 -99999 -99999 -99999 -99999 -99999 -99999 -99999 -99999 -99999 -99999 -99999 -99999 -99999 -99999 -99999 -99999 -99999 -99999 -99999 -99999 -99999 -99999 -99999 -99999 -99999 -99999 
-99999 -99999 -99999 -99999 -99999 -99999 -99999 -99999 -99999 -99999 -99999 -99999 1.611256718635559082 -0.4234421849250793457 0.41991782188415527344 1.2718483209609985352 1.7318403720855712891 1.6536679267883300781 1.702986598014831543 -1.2300980091094970703 -1.5043321847915649414 -0.16329316794872283936 -0.10349348187446594238 0.22171841561794281006 -0.21464228630065917969 -0.24685004353523254395 -1.0188528299331665039 0.25306668877601623535 2.6301367282867431641 3.2550885677337646484 3.2182669639587402344 2.6656930446624755859 1.2925056219100952148 -99999 -99999 -99999 -99999 -99999 -99999 -99999 -99999 -99999 -99999 -99999 -99999 -99999 -99999 -99999 -99999 -99999 -99999 -99999 -99999 -99999 -99999 -99999 -99999 -99999 -99999 -99999 -99999 -99999 -99999 -99999 -99999 -99999 -99999 -99999 -99999 -99999 -99999 -99999 -99999 -99999 -99999 -99999 -99999 -99999 -99999 -99999 -99999 -99999 -99999 -99999 -99999 -99999 -99999 -99999 -99999 -99999 -99999 -99999 -99999 -99999 -99999 -99999 -99999 -99999 -99999 -99999 -99999 
-99999 -99999 -99999 -99999 -99999 -99999 -99999 -99999 -99999 -99999 -99999 -99999 2.3326203823089599609 1.2780618667602539062 -0.42586266994476318359 -0.80215293169021606445 -0.96558666229248046875 1.0280652046203613281 2.1860921382904052734 2.4041340351104736328 0.22141498327255249023 -1.4645960330963134766 -0.052944570779800415039 1.8692901134490966797 0.40617448091506958008 1.4010959863662719727 -1.0068563222885131836 -1.5101494789123535156 -1.4505654573440551758 -1.6210284233093261719 -1.2115062475204467773 -1.1263635158538818359 -1.0856798887252807617 -3.3400323390960693359 -99999 -99999 -99999 -99999 -99999 -99999 -99999 -99999 -99999 -99999 -99999 -99999 -99999 -99999 -99999 -99999 -99999 -99999 -99999 -99999 -99999 -99999 -99999 -99999 -99999 -99999 -99999 -99999 -99999 -99999 -99999 -99999 -99999 -99999 -99999 -99999 -99999 -99999 -99999 -99999 -99999 -99999 -99999 -99999 -99999 -99999 -99999 -99999 -99999 -99999 -99999 -99999 -99999 -99999 -99999 -99999 -99999 -99999 -99999 -99999 -99999 -99999 -99999 -99999 -99999 -99999 -99999 
-99999 -99999 -99999 -99999 -99999 -99999 -99999 -99999 -99999 -99999 -99999 -99999 0.85642868280410766602 1.2162615060806274414 0.91952699422836303711 1.8248715400695800781 1.314563751220703125 -0.1295353323221206665 2.96808624267578125 4.3944602012634277344 2.6235139369964599609 -2.8414428234100341797 -2.8444836139678955078 -1.7555727958679199219 -0.78563302755355834961 -1.9020960330963134766 -1.5513081550598144531 -2.7062351703643798828 -3.1191911697387695312 -3.5867226123809814453 -2.8648693561553955078 -3.4813244342803955078 -3.4448914527893066406 -3.9238028526306152344 -99999 -99999 -99999 -99999 -99999 -99999 -99999 -99999 -99999 -99999 -99999 -99999 -99999 -99999 -99999 -99999 -99999 -99999 -99999 -99999 -99999 -99999 -99999 -99999 -99999 -99999 -99999 -99999 -99999 -99999 -99999 -99999 -99999 -99999 -99999 -99999 -99999 -99999 -99999 -99999 -99999 -99999 -99999 -99999 -99999 -99999 -99999 -99999 -99999 -99999 -99999 -99999 -99999 -99999 -99999 -99999 -99999 -99999 -99999 -99999 -99999 -99999 -99999 -99999 -99999 -99999 -99999 
-99999 -99999 -99999 -99999 -99999 -99999 -99999 -99999 -99999 -99999 -99999 -99999 1.9483792781829833984 2.5366711616516113281 1.8186851739883422852 3.3262598514556884766 3.3677363395690917969 1.2365880012512207031 -3.5742061138153076172 -0.53518569469451904297 1.8243120908737182617 -1.4016580581665039062 0.87768441438674926758 1.9490035772323608398 1.4731751680374145508 -0.14516663551330566406 1.4655228853225708008 2.0126249790191650391 2.1353330612182617188 1.9138492345809936523 2.5563852787017822266 0.25497859716415405273 0.7371495366096496582 1.6812728643417358398 -1.1147443056106567383 -99999 -99999 -99999 -99999 -99999 -99999 -99999 -99999 -99999 -99999 -99999 -99999 -99999 -99999 -99999 -99999 -99999 -99999 -99999 -99999 -99999 -99999 -99999 -99999 -99999 -99999 -99999 -99999 -99999 -99999 -99999 -99999 -99999 -99999 -99999 -99999 -99999 -99999 -99999 -99999 -99999 -99999 -99999 -99999 -99999 -99999 -99999 -99999 -99999 -99999 -99999 -99999 -99999 -99999 -99999 -99999 -99999 -99999 -99999 -99999 -99999 -99999 -99999 -99999 -99999 -99999 
-99999 -99999 -99999 -99999 -99999 -99999 -99999 -99999 -99999 -99999 -99999 -99999 2.4724938869476318359 2.9467289447784423828 0.53179019689559936523 0.25670549273490905762 0.93222779035568237305 1.5247433185577392578 -0.33955615758895874023 -1.1093767881393432617 -0.79811209440231323242 -2.6610510349273681641 -4.3209018707275390625 -0.65606898069381713867 -0.19027192890644073486 0.054181419312953948975 1.9624607563018798828 1.9242279529571533203 2.4821338653564453125 3.3716075420379638672 3.2017700672149658203 0.64791393280029296875 -0.1809682995080947876 1.7551420927047729492 -0.26561903953552246094 -99999 -99999 -99999 -99999 -99999 -99999 -99999 -99999 -99999 -99999 -99999 -99999 -99999 -99999 -99999 -99999 -99999 -99999 -99999 -99999 -99999 -99999 -99999 -99999 -99999 -99999 -99999 -99999 -99999 -99999 -99999 -99999 -99999 -99999 -99999 -99999 -99999 -99999 -99999 -99999 -99999 -99999 -99999 -99999 -99999 -99999 -99999 -99999 -99999 -99999 -99999 -99999 -99999 -99999 -99999 -99999 -99999 -99999 -99999 -99999 -99999 -99999 -99999 -99999 -99999 -99999 
-99999 -99999 -99999 -99999 -99999 -99999 -99999 -99999 -99999 -99999 -99999 -99999 -99999 0.74586814641952514648 -0.4466921389102935791 -1.9746112823486328125 -0.37409055233001708984 -0.84638226032257080078 0.30916270613670349121 0.80988830327987670898 3.5987024307250976562 -1.7990323305130004883 -2.2987160682678222656 0.60809373855590820312 -0.37351882457733154297 -3.3114092350006103516 0.94598776102066040039 -0.67956238985061645508 3.3479275703430175781 3.1615235805511474609 3.0788011550903320312 0.23188920319080352783 -0.59147053956985473633 1.2453197240829467773 0.37674227356910705566 -99999 -99999 -99999 -99999 -99999 -99999 -99999 -99999 -99999 -99999 -99999 -99999 -99999 -99999 -99999 -99999 -99999 -99999 -99999 -99999 -99999 -99999 -99999 -99999 -99999 -99999 -99999 -99999 -99999 -99999 -99999 -99999 -99999 -99999 -99999 -99999 -99999 -99999 -99999 -99999 -99999 -99999 -99999 -99999 -99999 -99999 -99999 -99999 -99999 -99999 -99999 -99999 -99999 -99999 -99999 -99999 -99999 -99999 -99999 -99999 -99999 -99999 -99999 -99999 -99999 -99999 
-99999 -99999 -99999 -99999 -99999 -99999 -99999 -99999 -99999 -99999 -99999 -99999 -99999 1.7612099647521972656 2.5041406154632568359 0.78602921962738037109 0.20607635378837585449 0.82577294111251831055 1.4501657485961914062 -0.017961187288165092468 2.4040889739990234375 -1.0566385984420776367 -3.8173437118530273438 -0.34624695777893066406 -1.6545755863189697266 -3.1776137351989746094 -0.92179501056671142578 -0.36137747764587402344 1.8412092924118041992 2.7990777492523193359 3.3090367317199707031 3.0597238540649414062 -0.26170101761817932129 1.1842544078826904297 -99999 -99999 -99999 -99999 -99999 -99999 -99999 -99999 -99999 -99999 -99999 -99999 -99999 -99999 -99999 -99999 -99999 -99999 -99999 -99999 -99999 -99999 -99999 -99999 -99999 -99999 -99999 -99999 -99999 -99999 -99999 -99999 -99999 -99999 -99999 -99999 -99999 -99999 -99999 -99999 -99999 -99999 -99999 -99999 -99999 -99999 -99999 -99999 -99999 -99999 -99999 -99999 -99999 -99999 -99999 -99999 -99999 -99999 -99999 -99999 -99999 -99999 -99999 -99999 -99999 -99999 -99999 
-99999 -99999 -99999 -99999 -99999 -99999 -99999 -99999 -99999 -99999 -99999 -99999 -99999 -99999 0.82526749372482299805 1.9766204357147216797 0.76943933963775634766 1.4981694221496582031 1.4729758501052856445 2.063018798828125 1.6031304597854614258 1.0638220310211181641 -2.92127227783203125 -0.9006500244140625 -1.4082190990447998047 -3.6831865310668945312 -4.341709136962890625 -2.2556436061859130859 -2.9781916141510009766 -1.850539088249206543 2.2436566352844238281 1.3431704044342041016 0.049455765634775161743 -99999 -99999 -99999 -99999 -99999 -99999 -99999 -99999 -99999 -99999 -99999 -99999 -99999 -99999 -99999 -99999 -99999 -99999 -99999 -99999 -99999 -99999 -99999 -99999 -99999 -99999 -99999 -99999 -99999 -99999 -99999 -99999 -99999 -99999 -99999 -99999 -99999 -99999 -99999 -99999 -99999 -99999 -99999 -99999 -99999 -99999 -99999 -99999 -99999 -99999 -99999 -99999 -99999 -99999 -99999 -99999 -99999 -99999 -99999 -99999 -99999 -99999 -99999 -99999 -99999 -99999 -99999 -99999 
-99999 -99999 -99999 -99999 -99999 -99999 -99999 -99999 -99999 -99999 -99999 -99999 -99999 -1.702986598014831543 -0.7088108062744140625 0.94159233570098876953 -0.21131871640682220459 0.17101067304611206055 -0.51947498321533203125 2.2703046798706054688 3.0619590282440185547 1.4387922286987304688 -2.3612337112426757812 -1.2213166952133178711 0.23048128187656402588 -1.4053961038589477539 -4.9973444938659667969 -4.4371976852416992188 -4.7136363983154296875 -3.1728358268737792969 -1.5124360322952270508 -2.9352874755859375 -2.5170130729675292969 -1.5403333902359008789 -99999 -99999 -99999 -99999 -99999 -99999 -99999 -99999 -99999 -99999 -99999 -99999 -99999 -99999 -99999 -99999 -99999 -99999 -99999 -99999 -99999 -99999 -99999 -99999 -99999 -99999 -99999 -99999 -99999 -99999 -99999 -99999 -99999 -99999 -99999 -99999 0.23487843573093414307 -0.48462954163551330566 -0.80916833877563476562 -99999 -99999 -99999 -99999 -99999 -99999 -99999 -99999 -99999 -99999 -99999 -99999 -99999 -99999 -99999 -99999 -99999 -99999 -99999 -99999 -99999 -99999 -99999 -99999 -99999 -99999 -99999 -99999 
-99999 -99999 -99999 -99999 -99999 -99999 -99999 -99999 -99999 -99999 -99999 -99999 -99999 1.935320734977722168 2.0731778144836425781 2.1375627517700195312 1.5909193754196166992 0.86594659090042114258 -0.54643112421035766602 1.5182915925979614258 4.2242274284362792969 3.6045408248901367188 -0.95060682296752929688 -2.1854248046875 -2.5711834430694580078 -2.7427401542663574219 -3.4352297782897949219 -3.1342632770538330078 -2.4000711441040039062 -2.5307354927062988281 -0.16973297297954559326 -1.9488118886947631836 -2.9588911533355712891 -2.2605805397033691406 -99999 -99999 -99999 -99999 -99999 -99999 -99999 -99999 -99999 -99999 -99999 -99999 -99999 -99999 -99999 -99999 -99999 -99999 -99999 -99999 -99999 -99999 -99999 -99999 -99999 -99999 -99999 -99999 -99999 -99999 -99999 -99999 -99999 -99999 -99999 -99999 0.167795524001121521 0.2200397104024887085 -0.73647028207778930664 -0.34357318282127380371 -0.43412765860557556152 -99999 -99999 -99999 -99999 -99999 -99999 -99999 -99999 -99999 -99999 -99999 -99999 -99999 -99999 -99999 -99999 -99999 -99999 -99999 -99999 -99999 -99999 -99999 -99999 -99999 -99999 
-99999 -99999 -99999 -99999 -99999 -99999 -99999 -99999 -99999 -99999 -99999 -99999 -99999 2.1077632904052734375 1.9506940841674804688 2.5908942222595214844 2.7886142730712890625 1.9104993343353271484 0.67648744583129882812 -0.026894137263298034668 0.92785793542861938477 3.0885760784149169922 -1.1092771291732788086 -1.5700076818466186523 0.11869090050458908081 0.46200579404830932617 -0.92402344942092895508 -1.6899658441543579102 -2.4627180099487304688 -3.6265871524810791016 0.44051405787467956543 -2.1500024795532226562 -3.8858759403228759766 -3.3966982364654541016 -99999 -99999 -99999 -99999 -99999 -99999 -99999 -99999 -99999 -99999 -99999 -99999 -99999 -99999 -99999 -99999 -99999 -99999 -99999 -99999 -99999 -99999 -99999 -99999 -99999 -99999 -99999 -99999 -99999 -99999 -99999 -99999 0.80727654695510864258 -0.3872394859790802002 -0.37315163016319274902 0.00016596561181358993053 -0.23494905233383178711 -0.11613176017999649048 -0.84364491701126098633 -0.037638291716575622559 -0.56769448518753051758 -99999 -99999 -99999 -99999 -99999 -99999 -99999 -99999 -99999 -99999 -99999 -99999 -99999 -99999 -99999 -99999 -99999 -99999 -99999 -99999 -99999 -99999 -99999 -99999 -99999 -99999 
-99999 -99999 -99999 -99999 -99999 -99999 -99999 -99999 -99999 -99999 -99999 -99999 -99999 -2.2043292522430419922 -1.9334466457366943359 -2.3882400989532470703 -1.7465533018112182617 -1.5444492101669311523 -1.6892403364181518555 -1.183562159538269043 0.29369202256202697754 0.17425446212291717529 -1.7612841129302978516 -1.7544984817504882812 -2.2290284633636474609 -1.6993410587310791016 -3.7318818569183349609 -4.3942666053771972656 -3.6321468353271484375 -3.5804765224456787109 -1.0875676870346069336 -1.5229114294052124023 -2.4153759479522705078 -2.5510687828063964844 -1.9059129953384399414 -99999 -99999 -99999 -99999 -99999 -99999 -99999 -99999 -99999 -99999 -99999 -99999 -99999 -99999 -99999 -99999 -99999 -99999 -99999 -99999 -99999 -99999 -99999 -99999 -99999 -99999 -99999 -99999 -99999 -99999 -99999 1.4126088619232177734 0.00077114021405577659607 -0.89874082803726196289 0.17767821252346038818 0.61230558156967163086 -0.47267544269561767578 -0.44038921594619750977 -0.47007119655609130859 -0.71942538022994995117 -0.42064836621284484863 -0.44114035367965698242 -0.039870213717222213745 -99999 -99999 -99999 -99999 -99999 -99999 -99999 -99999 -99999 -99999 -99999 -99999 -99999 -99999 -99999 -99999 -99999 -99999 -99999 -99999 -99999 -99999 -99999 
-99999 -99999 -99999 -99999 -99999 -99999 -99999 -99999 -99999 -99999 -99999 -99999 -99999 -2.6624960899353027344 -1.8999053239822387695 -0.11125060170888900757 -0.80129325389862060547 -1.0487221479415893555 -1.3679478168487548828 -2.9318349361419677734 -0.46556863188743591309 1.6003088951110839844 -0.91114276647567749023 -0.14746935665607452393 -1.5450595617294311523 -0.37290987372398376465 -1.0696381330490112305 -0.76865386962890625 -1.5576404333114624023 -1.3444322347640991211 0.69475054740905761719 -0.63823902606964111328 -3.1150124073028564453 -2.9969131946563720703 -3.2158226966857910156 -3.1872606277465820312 -99999 -99999 -99999 -99999 -99999 -99999 -99999 -99999 -99999 -99999 -3.0818612575531005859 -1.8655434846878051758 -99999 -99999 -99999 -99999 -99999 -99999 -99999 -99999 -99999 -99999 -99999 -99999 -99999 -99999 -99999 -99999 -99999 -99999 0.16107544302940368652 0.30281212925910949707 -0.60557711124420166016 -0.47062218189239501953 0.37662538886070251465 0.2157506793737411499 -0.029529012739658355713 -0.28234919905662536621 -0.77458751201629638672 -0.2269372791051864624 -0.53193134069442749023 -0.14005298912525177002 -0.47452318668365478516 -99999 -0.24198272824287414551 -0.14941163361072540283 -99999 -99999 -99999 -99999 -99999 -99999 -99999 -99999 -99999 -99999 -99999 -99999 -99999 -99999 -99999 -99999 -99999 -99999 -99999 
-99999 -99999 -99999 -99999 -99999 -99999 -99999 -99999 -99999 -99999 -99999 -99999 -99999 -0.54189902544021606445 -2.4790053367614746094 -1.0005005598068237305 -1.4867999553680419922 -0.064978994429111480713 0.37056279182434082031 -0.67311537265777587891 -1.5724427700042724609 -0.88145452737808227539 -1.2995210886001586914 -0.68886804580688476562 0.26550531387329101562 -0.6589978337287902832 -1.9551968574523925781 -2.8294730186462402344 -1.8368885517120361328 -2.7432467937469482422 -0.78437191247940063477 -0.76562535762786865234 -3.0132443904876708984 -2.8476696014404296875 -2.6938374042510986328 -3.5110735893249511719 -99999 -99999 -99999 -99999 -99999 -99999 -99999 -99999 -99999 -99999 -2.1963078975677490234 -1.7301326990127563477 -1.0189062356948852539 -2.3604388236999511719 -1.6441205739974975586 -99999 -99999 -99999 -99999 -99999 -99999 -99999 -99999 -99999 -99999 -99999 -99999 -99999 -99999 -99999 2.0002152919769287109 0.078866526484489440918 -0.19716180860996246338 -0.6255156397819519043 -0.017507901415228843689 0.41145655512809753418 -0.18240649998188018799 0.49696743488311767578 -0.79368114471435546875 -0.31810921430587768555 -0.49631968140602111816 -0.12574839591979980469 -0.16911904513835906982 -0.54878586530685424805 -0.46725749969482421875 -0.40391591191291809082 0.032028783112764358521 -0.0035893882159143686295 -0.031123124063014984131 -99999 -99999 -99999 -99999 -99999 -99999 -99999 -99999 -99999 -99999 -99999 -99999 -99999 -99999 -99999 -99999 
-99999 -99999 -99999 -99999 -99999 -99999 -99999 -99999 -99999 -99999 -99999 -99999 -99999 -99999 0.83359861373901367188 -0.62928509712219238281 -1.4325459003448486328 -1.2326163053512573242 -0.4600861966609954834 0.026714326813817024231 1.9339566230773925781 2.0703196525573730469 -2.1316030025482177734 -2.7837247848510742188 -3.1098637580871582031 -2.117717742919921875 -2.1793925762176513672 -1.4128053188323974609 -1.0385994911193847656 -0.82135313749313354492 1.4480197429656982422 -0.26393118500709533691 1.4260005950927734375 1.1491411924362182617 1.3487268686294555664 -1.4417002201080322266 -99999 -99999 -99999 -99999 -99999 -99999 -99999 -99999 -99999 1.6204178333282470703 -0.64998394250869750977 -1.3019258975982666016 -1.1992897987365722656 -1.6893271207809448242 -1.3578629493713378906 -0.50309854745864868164 -2.0987119674682617188 1.6191321611404418945 -99999 -99999 -99999 -99999 -99999 -99999 -99999 -99999 -99999 -99999 -99999 4.5441803932189941406 2.3282594680786132812 0.30191543698310852051 0.11951038986444473267 -0.0048268800601363182068 -0.54586446285247802734 0.48574078083038330078 -0.26552608609199523926 -0.01520238630473613739 0.046299919486045837402 -0.48534974455833435059 -0.67874515056610107422 -0.066074959933757781982 0.89011716842651367188 -0.16244594752788543701 -0.61965483427047729492 -0.55205607414245605469 0.29281583428382873535 0.10774082690477371216 -0.29500466585159301758 -0.27047103643417358398 -0.39880043268203735352 -0.44456565380096435547 0.086382158100605010986 0.069689527153968811035 -0.45669087767601013184 -0.43158295750617980957 -99999 -99999 -99999 -99999 -99999 -99999 -99999 -99999 -99999 
-99999 -99999 -99999 -99999 -99999 -99999 -99999 -99999 -99999 -99999 -99999 -99999 -99999 -99999 0.50154042243957519531 1.6498870849609375 0.92419445514678955078 0.47805485129356384277 0.16278529167175292969 0.66100317239761352539 -0.13967008888721466064 2.2175962924957275391 -0.76465642452239990234 -2.0565121173858642578 -1.6475950479507446289 -1.259090423583984375 -1.1585015058517456055 -1.0334643125534057617 0.77845329046249389648 0.88366258144378662109 0.72487211227416992188 -3.3967401981353759766 -2.8142654895782470703 -0.72270566225051879883 -0.11356919258832931519 -2.6691913604736328125 -99999 -99999 -99999 -99999 -99999 -99999 -99999 -99999 -99999 1.2399756908416748047 -1.9268064498901367188 -0.70138913393020629883 -1.2318521738052368164 -0.97767519950866699219 -2.5956156253814697266 -0.76764446496963500977 -2.6653590202331542969 -3.1397376060485839844 -2.7306494712829589844 -1.7301502227783203125 -99999 -99999 -99999 -99999 -99999 -99999 -99999 -99999 -1.390490412712097168 2.509311676025390625 3.8801515102386474609 0.68822675943374633789 0.22792720794677734375 0.16094139218330383301 -0.40128907561302185059 0.06305719912052154541 0.2889868319034576416 -0.52457320690155029297 0.32374018430709838867 -0.26476085186004638672 -0.55278688669204711914 -0.94218647480010986328 -0.18279121816158294678 0.71350294351577758789 -0.11990543454885482788 -0.6675980687141418457 -0.15277686715126037598 0.88531655073165893555 0.73667860031127929688 -0.34921067953109741211 -0.34000563621520996094 -1.0208069086074829102 -0.66632622480392456055 0.038237012922763824463 -0.88500726222991943359 -0.61344736814498901367 -0.71841400861740112305 -99999 -99999 -99999 -99999 -99999 -99999 -99999 -99999 
-99999 -99999 -99999 -99999 -99999 -99999 -99999 -99999 -99999 -99999 -99999 -99999 -99999 -99999 -99999 1.7199177742004394531 2.5269706249237060547 2.3289632797241210938 0.59085857868194580078 0.24184213578701019287 -0.54162758588790893555 0.54376357793807983398 0.61665427684783935547 -0.96461194753646850586 -1.6371562480926513672 -1.2326020002365112305 -2.0793395042419433594 -1.1513217687606811523 -0.38431382179260253906 1.3819118738174438477 1.5242379903793334961 -2.2195596694946289062 -2.8866875171661376953 -2.9412217140197753906 -2.1527440547943115234 -2.4940805435180664062 -4.213047027587890625 -3.6259124279022216797 -99999 -99999 -99999 -99999 -99999 -99999 -0.26800203323364257812 0.018635444343090057373 -1.3530216217041015625 -0.78903067111968994141 -1.2776268720626831055 -0.89673006534576416016 -3.9414432048797607422 -0.31324255466461181641 -2.1628689765930175781 -2.5955479145050048828 -3.5479943752288818359 -1.8269284963607788086 -2.0178382396697998047 -99999 -99999 -99999 -99999 -99999 -99999 -99999 -0.70664513111114501953 -2.039752960205078125 1.5115658044815063477 0.57277715206146240234 0.64611613750457763672 0.31770732998847961426 0.050296012312173843384 -0.41005954146385192871 -0.054627835750579833984 -0.31968268752098083496 -0.30656734108924865723 0.54825681447982788086 -0.40838974714279174805 -0.70755058526992797852 -0.065211221575736999512 0.68405872583389282227 0.49556782841682434082 -0.69788563251495361328 -0.73246854543685913086 -0.058761153370141983032 0.37397107481956481934 -0.34865644574165344238 -0.29054442048072814941 -0.55759990215301513672 -0.77259784936904907227 0.16488769650459289551 -0.68002176284790039062 -0.64919376373291015625 -0.37300330400466918945 -99999 -99999 -99999 -99999 -99999 -99999 -99999 -99999 
-99999 -99999 -99999 -99999 -99999 -99999 -99999 -99999 -99999 -99999 -99999 -99999 -99999 -99999 -99999 0.27135682106018066406 1.2370016574859619141 1.6248849630355834961 0.1320196986198425293 0.15668752789497375488 0.68658471107482910156 1.0226271152496337891 1.0998793840408325195 1.3517354726791381836 -1.8187450170516967773 -1.532521367073059082 -2.2873294353485107422 -4.1162405014038085938 -4.2902965545654296875 -4.1548256874084472656 -0.38787668943405151367 -4.5985465049743652344 -4.3440952301025390625 -3.1761319637298583984 -2.7273938655853271484 -2.7717537879943847656 -3.6862826347351074219 -3.2473120689392089844 -2.6156055927276611328 -2.2303736209869384766 -99999 -99999 -99999 -99999 2.4827313423156738281 0.80065369606018066406 -0.53868472576141357422 -0.41832065582275390625 -1.4815332889556884766 -0.83742606639862060547 -4.2495031356811523438 -0.84651738405227661133 2.0018835067749023438 -0.050031382590532302856 -2.6040995121002197266 -2.5480399131774902344 -1.3320113420486450195 -99999 -99999 -99999 -99999 -99999 -99999 -99999 3.4418346881866455078 2.2243108749389648438 0.5339654088020324707 0.39297816157341003418 0.44550001621246337891 0.52309745550155639648 0.42345026135444641113 0.17631325125694274902 -0.10265024751424789429 -0.47272098064422607422 -0.31862190365791320801 0.33667668700218200684 0.33787971735000610352 -0.73125213384628295898 -0.21464659273624420166 0.3666566312313079834 0.94959396123886108398 -0.11858476698398590088 -0.67352283000946044922 -0.42871552705764770508 0.30471718311309814453 -0.14671605825424194336 -0.51258224248886108398 -0.35398954153060913086 -0.70577359199523925781 -0.32349368929862976074 -0.19721876084804534912 -0.73524928092956542969 -0.27826157212257385254 -0.59716874361038208008 -99999 -99999 -99999 -99999 -99999 -99999 -99999 
-99999 -99999 -99999 -99999 -99999 -99999 -99999 -99999 -99999 -99999 -99999 -99999 -99999 -99999 -99999 -99999 0.69825416803359985352 1.0629678964614868164 1.8787443637847900391 1.9440858364105224609 1.1956527233123779297 1.3675016164779663086 0.59891170263290405273 0.3705431520938873291 -1.3124822378158569336 -2.1308116912841796875 -2.9954140186309814453 -3.2337243556976318359 -3.43192291259765625 -2.1870474815368652344 -1.4937317371368408203 -2.9922084808349609375 -3.2072279453277587891 -2.0782711505889892578 -1.2240792512893676758 -0.84281677007675170898 -1.0687379837036132812 -1.2546569108963012695 -1.1660403013229370117 -99999 -99999 -99999 -99999 -99999 2.0768795013427734375 2.9401836395263671875 -1.0933334827423095703 -0.9031702876091003418 -1.1458950042724609375 0.62428444623947143555 -2.5715639591217041016 -3.1881346702575683594 2.9483888149261474609 1.9079606533050537109 -0.7373479008674621582 -2.4628233909606933594 -3.0394127368927001953 -99999 -99999 -99999 -99999 -99999 -99999 -0.11845766752958297729 -0.054254405200481414795 3.1997022628784179688 4.4953565597534179688 3.9399321079254150391 1.6072139739990234375 0.86361372470855712891 0.36764943599700927734 0.4727541506290435791 0.48813062906265258789 -0.087946504354476928711 -0.42600733041763305664 -0.49711850285530090332 0.63055717945098876953 -0.68335819244384765625 -0.60493928194046020508 -0.38298627734184265137 0.53236842155456542969 0.77058643102645874023 -0.2012284398078918457 -0.33998703956604003906 -0.022709017619490623474 0.088803686201572418213 -0.45750740170478820801 -0.4272670447826385498 -0.68061053752899169922 -0.66410487890243530273 -0.13841120898723602295 -0.54601204395294189453 -0.10015858709812164307 -0.29821133613586425781 -0.097607478499412536621 -99999 -99999 -99999 -99999 -99999 -99999 
-99999 -99999 -99999 -99999 -99999 -99999 -99999 -99999 -99999 -99999 -99999 -99999 -99999 -99999 -99999 -99999 2.0597064495086669922 3.5103242397308349609 3.1897795200347900391 3.0883173942565917969 2.6549971103668212891 2.8225536346435546875 0.39274957776069641113 0.3705609440803527832 -1.4008857011795043945 -2.6573030948638916016 -0.89089888334274291992 -0.96929287910461425781 -2.3966302871704101562 -0.91549438238143920898 -1.1399523019790649414 -1.7347490787506103516 -2.0649259090423583984 -2.2057223320007324219 -1.2277612686157226562 -1.3553073406219482422 -0.48655170202255249023 -1.6806511878967285156 1.0739922523498535156 -99999 -99999 -99999 -99999 -99999 -99999 2.8086652755737304688 -0.11891220510005950928 -0.53930824995040893555 -1.485294342041015625 1.1853961944580078125 -1.3828220367431640625 -3.9184579849243164062 -0.29172244668006896973 1.5013252496719360352 0.24450987577438354492 -2.1467792987823486328 -2.3988552093505859375 -1.9994258880615234375 -1.5209827423095703125 -2.7662703990936279297 -1.782283782958984375 -1.0757777690887451172 5.1129460334777832031 2.0045158863067626953 -1.2907987833023071289 -2.5276830196380615234 -0.47426840662956237793 3.9571740627288818359 3.5265905857086181641 2.2890079021453857422 0.68778246641159057617 0.29367551207542419434 0.3148333132266998291 0.31081295013427734375 0.048771347850561141968 -0.64480555057525634766 0.29174366593360900879 -0.024257708340883255005 -0.43618109822273254395 -0.4956563413143157959 -0.29396581649780273438 0.44297629594802856445 0.13158342242240905762 -0.46771126985549926758 0.34923225641250610352 -0.096976079046726226807 -0.24625125527381896973 -0.26901319622993469238 -0.45263031125068664551 -0.59905868768692016602 -0.16929890215396881104 -0.45384889841079711914 -0.072662264108657836914 -0.056189365684986114502 -0.072780288755893707275 -0.024989318102598190308 -99999 -99999 -99999 -99999 -99999 
-99999 -99999 -99999 -99999 -99999 -99999 -99999 -99999 -99999 -99999 -99999 -99999 -99999 -99999 -99999 -0.81766927242279052734 -1.8898184299468994141 0.4591013789176940918 -0.22659134864807128906 1.6889493465423583984 -0.95871216058731079102 1.1407953500747680664 1.4809727668762207031 1.199166417121887207 0.075586616992950439453 -1.5867999792098999023 -0.83229243755340576172 0.48877951502799987793 -1.7173935174942016602 -0.83376133441925048828 -0.79132616519927978516 -1.2451598644256591797 -1.2099655866622924805 -1.0276435613632202148 -0.7086569666862487793 -1.1328563690185546875 -0.75450956821441650391 -2.3817031383514404297 -4.0945105552673339844 -99999 -99999 -99999 -99999 -99999 -99999 6.2297911643981933594 3.6787645816802978516 -0.22279003262519836426 -2.0042977333068847656 -0.03225490078330039978 -0.98448264598846435547 -1.737198948860168457 -1.772450566291809082 1.1059961318969726562 0.1900551915168762207 -3.6355724334716796875 -4.6167149543762207031 -3.4562878608703613281 -0.77902168035507202148 -4.7871451377868652344 -4.6590862274169921875 -2.3517262935638427734 3.8243360519409179688 4.6937198638916015625 1.8258739709854125977 2.3205151557922363281 -0.08745037764310836792 -2.1463725566864013672 0.38443982601165771484 2.3660144805908203125 1.7874662876129150391 0.77077877521514892578 0.58187705278396606445 0.38677182793617248535 0.57889419794082641602 -0.14812412858009338379 -0.1854925304651260376 0.57699656486511230469 -0.59582668542861938477 -0.042624361813068389893 -0.40079414844512939453 0.11886727064847946167 0.47614267468452453613 -0.5948670506477355957 0.29721486568450927734 0.21270361542701721191 0.01224092487245798111 0.29240113496780395508 -0.017522180452942848206 -0.53782325983047485352 -0.16590966284275054932 -0.35869106650352478027 -0.091005198657512664795 -0.09369388967752456665 -0.05481753125786781311 -0.047024521976709365845 -0.11390366405248641968 -99999 -99999 -99999 -99999 
-99999 -99999 -99999 -99999 -99999 -99999 -99999 -99999 -99999 -99999 -99999 -99999 -99999 -99999 -99999 0.2181539684534072876 -2.2725381851196289062 -1.553147435188293457 -0.64424532651901245117 1.1675250530242919922 3.1796700954437255859 2.0561461448669433594 1.7787111997604370117 1.8261988162994384766 0.30266779661178588867 -1.8753031492233276367 -1.8057368993759155273 0.039594933390617370605 -0.95020860433578491211 -0.75500047206878662109 -0.67311710119247436523 -0.18474943935871124268 -0.31138271093368530273 0.58754044771194458008 -0.85054218769073486328 -0.85623395442962646484 -0.89043062925338745117 -0.41457307338714599609 -4.2225375175476074219 -0.86758083105087280273 -99999 -99999 -99999 -99999 3.4105143547058105469 6.2361292839050292969 7.6578898429870605469 4.1512084007263183594 -0.21584488451480865479 -0.071395918726921081543 -1.2267616987228393555 -1.082140803337097168 -1.9379942417144775391 1.0185843706130981445 0.81598484516143798828 -0.23718339204788208008 -3.7791051864624023438 -3.7395615577697753906 -0.98537039756774902344 -3.0900909900665283203 -4.2622656822204589844 -2.7098422050476074219 2.8287699222564697266 3.1405565738677978516 1.2347042560577392578 0.80218666791915893555 0.68721336126327514648 2.9060368537902832031 0.69007092714309692383 -0.30829167366027832031 1.1192882061004638672 0.76524531841278076172 0.65633690357208251953 0.2723738253116607666 0.056188791990280151367 0.24973239004611968994 -0.75829231739044189453 0.4274469912052154541 -0.48162111639976501465 -0.20239910483360290527 -0.030475009232759475708 -0.7102832794189453125 -0.26101452112197875977 -0.39509057998657226562 -0.43238928914070129395 0.27660328149795532227 0.1635621190071105957 0.10786592960357666016 0.51802921295166015625 -0.38705131411552429199 -0.18522304296493530273 -0.15241427719593048096 0.020674930885434150696 -0.018990082666277885437 -0.032276798039674758911 -0.029987175017595291138 -0.18759334087371826172 -0.68986481428146362305 -0.97250348329544067383 -99999 -99999 
-99999 -99999 -99999 -99999 -99999 -99999 -99999 -99999 -99999 -99999 -99999 -99999 -99999 -99999 -99999 1.0613801479339599609 -0.83630990982055664062 -1.3440141677856445312 -0.85167109966278076172 -1.3733036518096923828 1.3785589933395385742 1.609244227409362793 -0.046253129839897155762 1.584208369255065918 1.020897984504699707 -0.5758838653564453125 -1.2419505119323730469 -0.41072320938110351562 -0.42790597677230834961 -0.20803508162498474121 -0.077334202826023101807 -0.55163085460662841797 -0.9725863337516784668 -0.19097067415714263916 -0.40248191356658935547 -1.8354111909866333008 -2.2485170364379882812 -0.97217935323715209961 -2.4052493572235107422 -3.5353791713714599609 -1.4318001270294189453 0.31405532360076904297 -0.050519414246082305908 -99999 0.50210982561111450195 1.9620810747146606445 7.9507703781127929688 7.2298126220703125 3.8278005123138427734 -0.31830361485481262207 -0.58309930562973022461 -1.1685367822647094727 -1.1008961200714111328 -0.78549009561538696289 -0.1464001089334487915 2.1198596954345703125 -1.5776976346969604492 -3.0022602081298828125 -1.5778425931930541992 -1.3985304832458496094 -3.0300290584564208984 -2.5880599021911621094 1.4846265316009521484 3.1704115867614746094 -0.13224244117736816406 -0.46228846907615661621 0.068671964108943939209 -0.84145694971084594727 2.6575651168823242188 1.7968180179595947266 1.3435944318771362305 1.3407257795333862305 1.0607455968856811523 0.62949138879776000977 0.23142915964126586914 0.25147828459739685059 -0.64363569021224975586 0.19211520254611968994 -0.43458068370819091797 -0.3698959648609161377 -0.10968779772520065308 -0.20727384090423583984 -0.039036314934492111206 -0.056586816906929016113 -0.20902842283248901367 -0.15524710714817047119 -0.13852544128894805908 0.19431442022323608398 0.86390364170074462891 -0.2364352494478225708 -0.21171119809150695801 -0.24087290465831756592 -0.0094820959493517875671 0.015131060034036636353 -0.033076975494623184204 -0.051499571651220321655 -0.20307357609272003174 -1.1455352306365966797 0.52369993925094604492 -0.50734037160873413086 -99999 
-99999 -99999 -99999 -99999 -99999 -99999 -99999 -99999 -99999 -99999 -99999 -99999 -99999 -99999 -99999 -0.026768095791339874268 0.64653182029724121094 -0.71521508693695068359 -0.85902196168899536133 0.56521642208099365234 -2.0997812747955322266 -0.22774513065814971924 0.055215682834386825562 0.078585363924503326416 0.44928193092346191406 -0.25427493453025817871 -0.67797988653182983398 -0.39024457335472106934 -0.17016352713108062744 -0.354740142822265625 -0.36780834197998046875 -1.2915029525756835938 -1.5993143320083618164 -1.7072256803512573242 -0.89332109689712524414 -2.0183382034301757812 -2.365322113037109375 -1.3031222820281982422 -2.2736046314239501953 -1.4967501163482666016 -2.1460864543914794922 -0.24760363996028900146 -0.54765981435775756836 -0.93811613321304321289 0.33977273106575012207 0.063942387700080871582 3.9014232158660888672 7.5599713325500488281 6.5265378952026367188 2.3160901069641113281 0.11376675218343734741 -0.48230069875717163086 0.28718015551567077637 -0.91962152719497680664 -1.7649515867233276367 1.045375823974609375 2.2453653812408447266 -0.8911355137825012207 -2.2286489009857177734 -1.0611108541488647461 -2.1490597724914550781 -1.2442564964294433594 -1.2794533967971801758 4.7193627357482910156 2.6153395175933837891 -0.79186862707138061523 1.2152956724166870117 -1.5500828027725219727 -0.88302469253540039062 0.44223287701606750488 1.2987383604049682617 1.1389266252517700195 1.5232005119323730469 0.64552515745162963867 0.48778888583183288574 0.54447817802429199219 -0.54688781499862670898 0.34303644299507141113 -0.4919033348560333252 -0.24722516536712646484 -0.019216258078813552856 0.053518716245889663696 0.0580919608473777771 0.020367730408906936646 0.014233606867492198944 -0.056414499878883361816 0.14824241399765014648 0.48360139131546020508 1.4863718748092651367 0.37373402714729309082 0.051596924662590026855 0.093839265406131744385 -0.1868117600679397583 -0.047213647514581680298 -0.12301843613386154175 -0.036976877599954605103 -0.21117904782295227051 -1.4581692218780517578 -2.5303463935852050781 -0.14804422855377197266 -99999 
-99999 -99999 -99999 -99999 -99999 -99999 -99999 -99999 -99999 -99999 -99999 -99999 -99999 -99999 -99999 -0.16516284644603729248 0.12946626543998718262 -0.25053256750106811523 -0.86221635341644287109 1.9245944023132324219 1.3147058486938476562 -0.93882459402084350586 0.24622355401515960693 -0.16976477205753326416 -0.0079115815460681915283 -0.34590739011764526367 -0.59822523593902587891 -0.30767717957496643066 -0.57535552978515625 -0.21829026937484741211 -0.78874063491821289062 -1.2783857583999633789 -1.7238106727600097656 -1.5197473764419555664 -0.92564743757247924805 -1.0446799993515014648 -1.8910366296768188477 -1.4293943643569946289 -1.584393620491027832 -0.68380981683731079102 0.9127915501594543457 0.071663767099380493164 -0.3982105255126953125 -0.96496748924255371094 -0.73920065164566040039 -1.02292633056640625 0.013478437438607215881 6.4248757362365722656 6.8530402183532714844 5.5871014595031738281 1.5620570182800292969 -1.6162691116333007812 -0.29882279038429260254 -0.48833701014518737793 -1.1986533403396606445 -0.40249735116958618164 3.2933416366577148438 2.38330841064453125 -2.1498320102691650391 -1.7809402942657470703 -0.72141438722610473633 -1.0342017412185668945 -2.0128471851348876953 0.45995894074440002441 0.58171635866165161133 -0.06112209707498550415 0.68667900562286376953 0.23935334384441375732 -0.67043828964233398438 0.088831260800361633301 -0.87980759143829345703 0.33756989240646362305 0.902835845947265625 0.035409789532423019409 0.63904160261154174805 0.67334020137786865234 -0.54595047235488891602 -0.11442466825246810913 -0.028375584632158279419 0.030119573697447776794 0.083743169903755187988 0.087875321507453918457 0.13709203898906707764 0.31206351518630981445 0.23886951804161071777 -0.3075427711009979248 0.25623932480812072754 0.62325251102447509766 1.4175115823745727539 0.51053220033645629883 0.054371953010559082031 0.11536148190498352051 0.13569486141204833984 -0.12967480719089508057 -0.092051915824413299561 -0.032817203551530838013 -0.1020431816577911377 -0.4878279268741607666 -1.9904849529266357422 -2.7949879169464111328 -99999 
-99999 -99999 -99999 -99999 -99999 -99999 -99999 -99999 -99999 -99999 -99999 -99999 -99999 -99999 -99999 0.74588674306869506836 0.7196407318115234375 -0.52800917625427246094 -0.14499516785144805908 2.53345489501953125 3.3601131439208984375 -0.036793075501918792725 -0.38644948601722717285 0.36434352397918701172 0.20403136312961578369 -0.047424186021089553833 -0.18760497868061065674 -0.16552326083183288574 -0.74276238679885864258 -0.37993228435516357422 -0.73592483997344970703 -1.2519377470016479492 -1.7729740142822265625 -1.6744972467422485352 -1.6213853359222412109 -1.0440309047698974609 -1.744725346565246582 -1.7537915706634521484 -1.1068940162658691406 -0.68176233768463134766 0.79727381467819213867 1.0242619514465332031 -0.34159141778945922852 -0.69493317604064941406 -1.4231399297714233398 0.038657646626234054565 -1.3171994686126708984 0.37538346648216247559 7.2301645278930664062 5.9605450630187988281 3.6378445625305175781 0.73279553651809692383 -1.782778620719909668 -0.28039005398750305176 -1.4206179380416870117 -0.97929561138153076172 0.85367059707641601562 2.8339686393737792969 -0.53376120328903198242 -5.6451802253723144531 -4.6146521568298339844 -1.4649710655212402344 -2.3303139209747314453 -0.27547216415405273438 -0.68242526054382324219 -0.4159946143627166748 -0.80654150247573852539 0.20610564947128295898 -1.4223459959030151367 -0.033817172050476074219 -0.13053114712238311768 -0.70049303770065307617 0.75804877281188964844 0.51074832677841186523 -0.21108891069889068604 1.6195921897888183594 0.19170477986335754395 -0.10314207524061203003 0.028576470911502838135 0.064058490097522735596 0.14166224002838134766 0.14040800929069519043 0.12102674692869186401 0.41660091280937194824 0.50313258171081542969 -0.32642024755477905273 -0.50553971529006958008 0.4651870429515838623 1.4672132730484008789 0.57740294933319091797 0.15640380978584289551 0.094888865947723388672 0.10880592465400695801 0.15947352349758148193 -0.047037482261657714844 -0.031791284680366516113 -0.10617915540933609009 -0.18841063976287841797 -0.80616867542266845703 -1.50223541259765625 -99999 
-99999 -99999 -99999 -99999 -99999 -99999 -99999 -99999 -99999 -99999 -99999 -99999 -99999 -99999 -99999 0.0092075327411293983459 0.54546469449996948242 -0.66925948858261108398 -0.66418969631195068359 0.56290537118911743164 5.3293981552124023438 2.2954754829406738281 0.96809870004653930664 0.8912194371223449707 0.40316104888916015625 -0.34194815158843994141 -0.85406529903411865234 -0.78395551443099975586 -0.57419705390930175781 -0.12775507569313049316 -0.12617342174053192139 -1.1777509450912475586 -1.4341120719909667969 -1.2987543344497680664 -1.7636035680770874023 -1.2913620471954345703 -1.275265812873840332 -1.558892369270324707 -1.2429565191268920898 -0.75593256950378417969 1.1559811830520629883 1.1649917364120483398 -0.29699340462684631348 -0.76399892568588256836 -1.4871580600738525391 -0.96800601482391357422 3.3653769493103027344 -2.3591759204864501953 3.4746084213256835938 7.0770831108093261719 5.3162794113159179688 3.7252392768859863281 0.41392910480499267578 -1.3893787860870361328 -2.1749742031097412109 -1.0032989978790283203 -0.0015697415219619870186 0.72675776481628417969 3.5608599185943603516 -1.9500472545623779297 -5.7038860321044921875 -3.1414854526519775391 -1.4518489837646484375 -0.084802448749542236328 1.9604629278182983398 0.78593021631240844727 -0.86889183521270751953 -0.4437046349048614502 -0.92412549257278442383 -0.96636617183685302734 -0.27550104260444641113 -0.66350144147872924805 -0.12548401951789855957 1.192287445068359375 -0.79089933633804321289 0.1304232478141784668 1.2286145687103271484 0.071805022656917572021 0.084672890603542327881 0.19759346544742584229 0.24010251462459564209 0.20879127085208892822 0.16021807491779327393 0.32722747325897216797 0.5257059931755065918 -0.16435618698596954346 -0.92451769113540649414 -0.016103835776448249817 1.3231747150421142578 0.79352658987045288086 0.26283502578735351562 0.24679839611053466797 0.13326339423656463623 0.14441247284412384033 0.1632029414176940918 0.11570320278406143188 0.048895534127950668335 0.078789949417114257812 -0.050407100468873977661 -0.63239181041717529297 -99999 
-99999 -99999 -99999 -99999 -99999 -99999 -99999 -99999 -99999 -99999 -99999 -99999 -99999 -99999 -99999 -99999 -0.064434818923473358154 -1.2823240756988525391 -0.83368092775344848633 -1.457247614860534668 1.6900150775909423828 4.5515875816345214844 2.3809788227081298828 2.3458497524261474609 1.0374151468276977539 -0.02640463411808013916 -0.61957848072052001953 -0.59971565008163452148 -0.90118658542633056641 -0.32087808847427368164 -0.031821813434362411499 -0.77717119455337524414 -1.2990471124649047852 -1.2596905231475830078 -1.2925920486450195312 -1.1495343446731567383 -1.1454690694808959961 -1.2520766258239746094 -1.5053125619888305664 -1.4060313701629638672 1.0157653093338012695 2.4112191200256347656 0.86883133649826049805 -0.90288841724395751953 -1.3728377819061279297 -1.9510474205017089844 1.1966609954833984375 -1.8507665395736694336 -4.037994384765625 7.5053911209106445312 5.791179656982421875 4.8338150978088378906 3.3627786636352539062 1.014517664909362793 -3.1840150356292724609 -1.334710240364074707 0.65367704629898071289 0.064223259687423706055 3.4449756145477294922 3.1829595565795898438 -1.2590001821517944336 -3.1443185806274414062 -0.62917649745941162109 -1.9188786745071411133 -0.85659241676330566406 2.1537020206451416016 0.58787268400192260742 0.0085896756500005722046 -0.36951607465744018555 0.010176844894886016846 0.071382038295269012451 -0.7093601226806640625 -0.64267188310623168945 0.71571391820907592773 -0.44079571962356567383 -1.2687280178070068359 0.75728613138198852539 0.24782586097717285156 0.17294864356517791748 0.21658673882484436035 0.25130158662796020508 0.21443775296211242676 0.44811293482780456543 0.10136730968952178955 0.61367017030715942383 0.68369489908218383789 -0.91070979833602905273 -0.25712758302688598633 1.2759130001068115234 1.1529314517974853516 0.34985139966011047363 0.55237287282943725586 0.13541086018085479736 0.13078323006629943848 0.17023004591464996338 0.094085276126861572266 0.072095744311809539795 0.1217109188437461853 0.024308448657393455505 0.07757644355297088623 -99999 
-99999 -99999 -99999 -99999 -99999 -99999 -99999 -99999 -99999 -99999 -99999 -99999 -99999 -99999 -99999 -99999 1.4224363565444946289 -1.3733910322189331055 -1.3057700395584106445 -1.5303343534469604492 -1.6186443567276000977 2.0049984455108642578 3.7668499946594238281 2.4490365982055664062 1.5207151174545288086 0.33474633097648620605 -0.40995517373085021973 -0.20923054218292236328 -0.83107107877731323242 -1.0391210317611694336 -0.24927093088626861572 -0.15194612741470336914 -1.1359789371490478516 -1.7247546911239624023 -1.6849625110626220703 -1.7911646366119384766 -1.271480560302734375 -1.2839189767837524414 -1.7896790504455566406 -1.238428950309753418 -1.339809417724609375 3.6236791610717773438 2.5421476364135742188 0.36945450305938720703 -2.28014373779296875 -4.0365281105041503906 -2.8120610713958740234 -0.91772443056106567383 -7.786205291748046875 -0.58216059207916259766 5.1484398841857910156 3.4260010719299316406 4.745944976806640625 3.3099257946014404297 -2.2705743312835693359 -4.1385741233825683594 -1.8759553432464599609 -1.6871114969253540039 -0.30326044559478759766 4.4822664260864257812 3.7036104202270507812 -0.95890063047409057617 -2.0981836318969726562 -1.3298386335372924805 -3.3595221042633056641 -0.77426117658615112305 0.6046937108039855957 0.26095485687255859375 -0.28084555268287658691 -0.13728885352611541748 0.66632610559463500977 0.48511505126953125 -0.51731795072555541992 0.29718932509422302246 0.18319481611251831055 0.19368527829647064209 0.65035921335220336914 2.1131703853607177734 0.81306308507919311523 0.5684916377067565918 0.67465811967849731445 0.15148989856243133545 0.8480618596076965332 -0.50338375568389892578 0.41539037227630615234 1.3000912666320800781 -0.35552293062210083008 -0.6780840754508972168 0.54664462804794311523 0.95665794610977172852 0.24245829880237579346 0.57601809501647949219 0.1576626896858215332 0.093832187354564666748 0.16123715043067932129 0.083949215710163116455 0.26069021224975585938 0.63032263517379760742 0.12717010080814361572 -99999 -99999 
-99999 -99999 -99999 -99999 -99999 -99999 -99999 -99999 -99999 -99999 -99999 -99999 -99999 -99999 -99999 -99999 1.4905669689178466797 1.0544031858444213867 -1.0333379507064819336 -1.2787849903106689453 -2.1803219318389892578 -2.5088284015655517578 1.0910902023315429688 1.2451105117797851562 1.1767964363098144531 0.11991175264120101929 -1.0533500909805297852 -0.41585397720336914062 -0.50989115238189697266 -0.87800806760787963867 -0.78559863567352294922 0.029735587537288665771 -0.22137349843978881836 -1.9728218317031860352 -1.1379820108413696289 -1.6994996070861816406 -1.4754569530487060547 -0.86325496435165405273 -1.7125779390335083008 -0.77865606546401977539 -2.7244937419891357422 1.4752044677734375 2.9203093051910400391 0.015668973326683044434 -0.82698476314544677734 -4.57604217529296875 -4.7771091461181640625 -2.5825786590576171875 -3.119873046875 -2.6651005744934082031 2.7380335330963134766 5.5992102622985839844 5.8404636383056640625 5.7471699714660644531 1.5470598936080932617 -3.02526092529296875 -3.4357173442840576172 -1.0316375494003295898 -2.9271616935729980469 -2.2669479846954345703 2.2115004062652587891 1.2623788118362426758 0.1283302605152130127 1.9916368722915649414 -1.2085403203964233398 -1.3001509904861450195 -0.68570780754089355469 -0.013970575295388698578 -0.1375522911548614502 -0.37155640125274658203 -0.23763443529605865479 0.57679849863052368164 0.047078352421522140503 0.26293390989303588867 -0.44185796380043029785 1.6947666406631469727 0.3278757631778717041 2.8161094188690185547 1.9350515604019165039 0.5563901066780090332 0.91919708251953125 0.56828469038009643555 0.72925263643264770508 -0.14712060987949371338 -0.63417094945907592773 1.0739549398422241211 0.37674131989479064941 -0.2994270622730255127 0.45815896987915039062 1.0870040655136108398 0.44071409106254577637 0.34125813841819763184 0.42570665478706359863 0.11566611379384994507 0.22617869079113006592 -0.054427195340394973755 -0.066837124526500701904 0.84524112939834594727 0.26018464565277099609 -99999 -99999 
-99999 -99999 -99999 -99999 -99999 -99999 -99999 -99999 -99999 -99999 -99999 -99999 -99999 -99999 -99999 -99999 -99999 1.522626042366027832 1.6045259237289428711 0.12325204163789749146 -0.89950674772262573242 -2.8411266803741455078 -0.95268332958221435547 -0.032461356371641159058 0.79954189062118530273 -0.23187135159969329834 -0.29366612434387207031 -0.08918581157922744751 -0.068678140640258789062 -0.62298560142517089844 -0.85086154937744140625 0.097872562706470489502 0.6638062596321105957 -1.591487884521484375 -1.7146974802017211914 -1.8809046745300292969 -1.8573318719863891602 -1.7160937786102294922 -2.0418369770050048828 -1.3278688192367553711 -3.5144946575164794922 -1.5056461095809936523 1.9793424606323242188 -0.70498228073120117188 3.3531434535980224609 3.8045480251312255859 1.0853366851806640625 -2.6666510105133056641 -4.4951405525207519531 -2.7342789173126220703 -1.3028111457824707031 1.5906509160995483398 5.0202922821044921875 6.4899544715881347656 4.7610387802124023438 -0.18030272424221038818 -2.9062123298645019531 -2.4215350151062011719 -1.2587896585464477539 -3.5853953361511230469 -1.8730623722076416016 -0.12514355778694152832 0.13299989700317382812 3.0612087249755859375 3.0405144691467285156 0.91012513637542724609 -0.87234801054000854492 -0.1485528796911239624 0.17333102226257324219 -0.28723278641700744629 -0.25373005867004394531 0.36019617319107055664 0.58924627304077148438 -0.0011565847089514136314 -1.5529023408889770508 0.3508777618408203125 0.044106274843215942383 1.6404250860214233398 1.5332994461059570312 1.1679251194000244141 1.0951879024505615234 1.5257413387298583984 0.61234176158905029297 0.52367895841598510742 -0.4067439734935760498 0.53079473972320556641 0.87019789218902587891 0.13747480511665344238 0.21052545309066772461 1.095587611198425293 0.9616406559944152832 -0.023018281906843185425 0.075216576457023620605 0.042181450873613357544 0.31017145514488220215 0.17484605312347412109 -0.68107116222381591797 0.6745446324348449707 0.27044683694839477539 -99999 -99999 
-99999 -99999 -99999 -99999 -99999 -99999 -99999 -99999 -99999 -99999 -99999 -99999 -99999 -99999 -99999 -99999 -99999 0.79718893766403198242 1.4351199865341186523 2.4470653533935546875 2.6957366466522216797 0.14225867390632629395 -1.1345379352569580078 -0.15099318325519561768 0.82044953107833862305 -0.26291349530220031738 -0.42146402597427368164 -0.26137089729309082031 -0.17309913039207458496 -0.58477061986923217773 -0.79368233680725097656 -0.44805121421813964844 0.82533931732177734375 -1.5950287580490112305 -2.8919186592102050781 -2.3725149631500244141 -1.2734981775283813477 -2.8130338191986083984 -2.7178773880004882812 -1.9513763189315795898 -2.6398878097534179688 -2.5844817161560058594 -3.3282778263092041016 -0.64569443464279174805 -1.7082258462905883789 1.1029760837554931641 2.5946698188781738281 1.5398161411285400391 -3.6440246105194091797 -1.3547761440277099609 -1.8756939172744750977 -4.7975840568542480469 -1.5541830062866210938 2.61794281005859375 6.0772390365600585938 1.996365666389465332 -1.4734719991683959961 -1.6551259756088256836 0.044217571616172790527 -0.083589188754558563232 -1.1625665426254272461 -0.81734937429428100586 -1.6015901565551757812 -1.3609970808029174805 3.5652334690093994141 2.2786455154418945312 -0.41134431958198547363 -0.59166383743286132812 0.038759432733058929443 -0.30331027507781982422 -0.15737548470497131348 -0.22448758780956268311 0.53388035297393798828 0.26034954190254211426 -1.320866703987121582 -0.55026590824127197266 -1.5171647071838378906 1.2447739839553833008 1.2269271612167358398 0.57015371322631835938 1.2124373912811279297 1.4396880865097045898 1.0466934442520141602 0.8710663914680480957 -0.076009206473827362061 -0.015656866133213043213 0.45856231451034545898 0.5502910614013671875 -0.036447808146476745605 0.10800060629844665527 1.0693712234497070312 0.34580254554748535156 0.056469254195690155029 -0.066821679472923278809 0.23566286265850067139 0.33802959322929382324 -0.54645514488220214844 0.29498291015625 -99999 -99999 -99999 
-99999 -99999 -99999 -99999 -99999 -99999 -99999 -99999 -99999 -99999 -99999 -99999 -99999 -99999 -99999 -99999 -99999 1.4115338325500488281 1.3117778301239013672 1.2921712398529052734 2.0041079521179199219 2.1323125362396240234 0.40330812335014343262 -0.14669552445411682129 0.70157629251480102539 0.23801198601722717285 0.39446631073951721191 0.26015910506248474121 -0.039974629878997802734 -0.30158153176307678223 -0.62460845708847045898 -0.51564252376556396484 1.4259666204452514648 -0.055302251130342483521 -3.3655221462249755859 -3.0612833499908447266 0.23914676904678344727 -1.9395170211791992188 -3.0665464401245117188 -2.6879799365997314453 -3.5316820144653320312 -2.19561767578125 -2.5669491291046142578 0.20729885995388031006 3.1237680912017822266 -1.0799906253814697266 -2.1005103588104248047 2.5861461162567138672 -4.5370602607727050781 -2.6382138729095458984 0.49879422783851623535 -6.420467376708984375 -7.0865302085876464844 -3.8640956878662109375 3.9242358207702636719 2.8761432170867919922 -0.32488754391670227051 -0.63333213329315185547 -1.0428056716918945312 1.1711113452911376953 -0.65390402078628540039 -1.0302881002426147461 -0.96196383237838745117 -2.9714412689208984375 1.0195163488388061523 3.6848294734954833984 0.72800695896148681641 -0.96182668209075927734 -0.12984016537666320801 -0.36618429422378540039 -0.31596404314041137695 -0.19718608260154724121 -0.37972030043601989746 0.0075184204615652561188 -1.0319783687591552734 -0.53773540258407592773 -2.2177002429962158203 0.62503850460052490234 1.3120685815811157227 -0.076092265546321868896 1.4554709196090698242 1.4881860017776489258 1.5740370750427246094 1.5215501785278320312 0.4664338529109954834 0.15579201281070709229 -0.19090442359447479248 0.42389139533042907715 -0.0048701786436140537262 -0.32873162627220153809 0.29682257771492004395 0.18536330759525299072 0.179296150803565979 0.17776396870613098145 0.21544727683067321777 0.56001937389373779297 -0.11499208956956863403 -99999 -99999 -99999 -99999 
-99999 -99999 -99999 -99999 -99999 -99999 -99999 -99999 -99999 -99999 -99999 -99999 -99999 -99999 -99999 -99999 -99999 -99999 0.20075520873069763184 2.2579312324523925781 3.4486346244812011719 2.4026215076446533203 1.3776557445526123047 0.71926873922348022461 0.48903235793113708496 0.080131806433200836182 0.87824100255966186523 0.72206133604049682617 0.056893963366746902466 -0.46025261282920837402 -0.66173851490020751953 -0.75222927331924438477 0.004202105104923248291 1.6446573734283447266 -0.35446909070014953613 -4.6108350753784179688 -1.6379430294036865234 -2.3952596187591552734 -0.0062241549603641033173 -0.25689831376075744629 -3.1638052463531494141 -1.6800239086151123047 -2.1062936782836914062 -1.6788055896759033203 3.7308609485626220703 7.7382950782775878906 -1.3670963048934936523 1.6001408100128173828 -3.1313159465789794922 -5.1099820137023925781 -1.961150050163269043 -0.11185496300458908081 -1.2467237710952758789 -5.2139883041381835938 -0.95276075601577758789 1.8621321916580200195 -0.72312742471694946289 -0.48984792828559875488 -0.076939895749092102051 0.047326084226369857788 -0.41208213567733764648 -0.013785221613943576813 -1.2013654708862304688 -2.3727471828460693359 -3.2535457611083984375 1.9452848434448242188 2.1238191127777099609 -0.084790557622909545898 -0.34490782022476196289 -0.21711388230323791504 -0.2030003666877746582 -0.1676285862922668457 -0.179185524582862854 -0.2556775510311126709 -1.3678479194641113281 -1.0427258014678955078 -1.8031861782073974609 -0.70775973796844482422 1.3130868673324584961 -0.06717446446418762207 1.2369072437286376953 2.1934428215026855469 2.6043736934661865234 1.9826233386993408203 0.91741269826889038086 0.27820762991905212402 -0.025610568001866340637 -0.24771097302436828613 0.16604219377040863037 0.48771461844444274902 0.03096097894012928009 0.1583115309476852417 -0.10543861240148544312 0.58270621299743652344 0.22963868081569671631 0.44259181618690490723 0.326751708984375 -99999 -99999 -99999 -99999 
-99999 -99999 -99999 -99999 -99999 -99999 -99999 -99999 -99999 -99999 -99999 -99999 -99999 -99999 -99999 -99999 -99999 -0.77010357379913330078 -0.81666398048400878906 0.43041768670082092285 1.635565638542175293 1.6986525058746337891 1.3877079486846923828 0.854766845703125 0.66333431005477905273 -0.044011492282152175903 0.1740894615650177002 0.27626097202301025391 0.65534377098083496094 0.2396360933780670166 -0.38241627812385559082 -0.33538904786109924316 -2.1078739166259765625 0.84581613540649414062 0.028456278145313262939 -2.4566454887390136719 -2.3550364971160888672 -4.5819139480590820312 -3.8905801773071289062 -1.7312796115875244141 -1.0762304067611694336 -1.9575121402740478516 -2.8942952156066894531 -2.8929164409637451172 -0.79175817966461181641 4.3568768501281738281 1.0684905052185058594 -1.9491764307022094727 -1.4097102880477905273 0.59005659818649291992 1.3029855489730834961 2.0946807861328125 6.6593403816223144531 2.6848371028900146484 -2.7226965427398681641 1.0642755031585693359 0.16738113760948181152 -1.7042754888534545898 0.35939285159111022949 -1.0307059288024902344 -0.080000013113021850586 -1.1183147430419921875 -0.83192545175552368164 -1.3998361825942993164 -3.575469970703125 -1.2509784698486328125 1.2578179836273193359 0.94104492664337158203 -0.04921021685004234314 -0.10623323172330856323 -0.025733308866620063782 0.024440769106149673462 0.0051486347801983356476 -0.12620143592357635498 -0.095898002386093139648 -0.14348128437995910645 -1.910460352897644043 -0.8599306941032409668 0.4865608513355255127 -0.40230870246887207031 0.68747717142105102539 1.3630051612854003906 2.0027265548706054688 1.6589972972869873047 0.98542797565460205078 0.57547944784164428711 0.54900920391082763672 0.13840785622596740723 -0.38111314177513122559 0.096654050052165985107 0.10122852027416229248 0.076240256428718566895 -0.28751277923583984375 -0.28678932785987854004 0.21135602891445159912 0.11693014949560165405 -99999 -99999 -99999 -99999 -99999 
-99999 -99999 -99999 -99999 -99999 -99999 -99999 -99999 -99999 -99999 -99999 -99999 -99999 -99999 -99999 -99999 -99999 -0.076808154582977294922 -1.1152558326721191406 -0.20777682960033416748 -0.4403826594352722168 0.26164558529853820801 0.68299853801727294922 0.59781825542449951172 0.62497347593307495117 0.059847764670848846436 0.28543075919151306152 0.086766622960567474365 0.18487840890884399414 0.18885932862758636475 0.21249294281005859375 0.30197340250015258789 -0.28068572282791137695 -0.30866628885269165039 2.1599233150482177734 1.4355480670928955078 -0.17273417115211486816 -3.4611463546752929688 -3.1132678985595703125 -1.6215698719024658203 -1.4038187265396118164 -3.1354129314422607422 -2.5883634090423583984 -2.8108248710632324219 -2.1362619400024414062 3.1779141426086425781 0.31813311576843261719 -0.076231285929679870605 -0.78801882266998291016 3.7660338878631591797 2.7081608772277832031 4.6255292892456054688 8.2349290847778320312 8.6221456527709960938 3.265224456787109375 1.9512026309967041016 0.88170003890991210938 -1.5557426214218139648 0.58655947446823120117 0.1715351790189743042 -0.13461358845233917236 -0.33053377270698547363 -0.29738906025886535645 0.23164777457714080811 0.062466233968734741211 -2.0192961692810058594 -0.50954020023345947266 0.22231163084506988525 0.097794950008392333984 0.077899366617202758789 0.18148551881313323975 0.16492991149425506592 0.097589880228042602539 -0.14806304872035980225 -1.0973857641220092773 -0.91233682632446289062 -0.80655640363693237305 -0.9190114140510559082 -1.2251366376876831055 -0.98665499687194824219 -0.61290597915649414062 -0.32204800844192504883 -1.3174619674682617188 -0.44964256882667541504 -0.68046355247497558594 -0.23622557520866394043 -0.29682517051696777344 0.30417713522911071777 0.010140695609152317047 0.33252701163291931152 0.77362388372421264648 0.13788282871246337891 0.33010092377662658691 -0.21953754127025604248 -0.050270039588212966919 0.36746311187744140625 -99999 -99999 -99999 -99999 -99999 
-99999 -99999 -99999 -99999 -99999 -99999 -99999 -99999 -99999 -99999 -99999 -99999 -99999 -99999 -99999 -99999 -0.160009041428565979 -0.87386691570281982422 -1.0048643350601196289 0.39401346445083618164 1.0093744993209838867 1.2605773210525512695 1.0924698114395141602 0.667453765869140625 0.21622745692729949951 0.13702608644962310791 0.32516664266586303711 0.3899116814136505127 0.1110515892505645752 0.17243014276027679443 0.77342838048934936523 -0.85063689947128295898 0.67585533857345581055 -1.7579081058502197266 0.70349472761154174805 2.7532145977020263672 5.1744709014892578125 0.71060216426849365234 -0.24240946769714355469 -0.75151646137237548828 0.13726264238357543945 -0.74964809417724609375 -4.7515530586242675781 -3.5486676692962646484 -2.9255366325378417969 -1.3141536712646484375 2.1501040458679199219 4.5773749351501464844 1.6791673898696899414 -0.76473003625869750977 1.9910352230072021484 -1.0269503593444824219 6.2123007774353027344 7.7081403732299804688 6.2962923049926757812 5.153537750244140625 1.7627477645874023438 -1.3893411159515380859 -1.3845995664596557617 0.46989259123802185059 0.29774177074432373047 0.45048248767852783203 0.63065141439437866211 -0.1365680992603302002 1.7904771566390991211 0.076966606080532073975 -0.61871933937072753906 0.007235355675220489502 0.81389558315277099609 0.24306048452854156494 0.12566696107387542725 0.068358801305294036865 0.075017780065536499023 0.14590686559677124023 -0.068996399641036987305 -1.2154422998428344727 -2.1181926727294921875 -0.70879006385803222656 -0.84911680221557617188 -1.9128258228302001953 0.39972078800201416016 0.32480698823928833008 1.4896118640899658203 1.965731501579284668 1.406116485595703125 0.46962440013885498047 0.14243321120738983154 0.063524529337882995605 0.24635775387287139893 0.16011694073677062988 0.94860404729843139648 0.10288330167531967163 -0.046669557690620422363 0.28815314173698425293 -0.20094464719295501709 -0.24979977309703826904 -99999 -99999 -99999 -99999 -99999 
-99999 -99999 -99999 -99999 -99999 -99999 -99999 -99999 -99999 -99999 -99999 -99999 -99999 -99999 -99999 -99999 1.0780321359634399414 -0.84230476617813110352 -0.95354759693145751953 0.40659299492835998535 1.7089087963104248047 3.5042164325714111328 2.6327953338623046875 0.93675750494003295898 0.3056252896785736084 0.11587727814912796021 0.14996837079524993896 0.21264970302581787109 0.13117617368698120117 0.049096491187810897827 0.2548395991325378418 1.0120396614074707031 0.35722410678863525391 -0.1297092437744140625 0.023153262212872505188 0.91458165645599365234 5.0244784355163574219 2.6522383689880371094 0.5003223419189453125 2.4920890331268310547 0.23185107111930847168 4.8602824211120605469 -1.7968465089797973633 -3.4076263904571533203 -2.4562013149261474609 -0.28287526965141296387 -2.5883128643035888672 4.0082855224609375 6.1909122467041015625 -1.3040916919708251953 -2.0514371395111083984 -5.8745985031127929688 -0.47882243990898132324 4.1000237464904785156 3.8304610252380371094 5.4922137260437011719 2.7212891578674316406 -0.02955395914614200592 -0.90139114856719970703 -0.69429248571395874023 -0.20931363105773925781 0.027547683566808700562 1.2740864753723144531 0.47655555605888366699 1.1136313676834106445 1.4483344554901123047 0.61095589399337768555 0.34265348315238952637 1.397019505500793457 0.61408811807632446289 0.22788681089878082275 0.17392972111701965332 0.099483177065849304199 0.24911367893218994141 0.36381563544273376465 -0.3593857884407043457 -1.4660654067993164062 -0.6522299647331237793 -0.45237308740615844727 0.097491160035133361816 0.95643019676208496094 1.1664997339248657227 1.7652677297592163086 2.0399065017700195312 2.9452598094940185547 1.9668059349060058594 0.70270097255706787109 0.62128686904907226562 0.36645731329917907715 0.13956372439861297607 0.30301675200462341309 0.055576030164957046509 -0.29856276512145996094 0.37825429439544677734 -0.19832827150821685791 -0.36724463105201721191 -99999 -99999 -99999 -99999 -99999 
-99999 -99999 -99999 -99999 -99999 -99999 -99999 -99999 -99999 -99999 -99999 -99999 -99999 -99999 -99999 -99999 0.31173658370971679688 -0.02617966383695602417 -1.5656125545501708984 -0.77198809385299682617 -0.76208519935607910156 0.60354697704315185547 2.8615808486938476562 0.96979600191116333008 0.34439462423324584961 0.18130782246589660645 0.15794791281223297119 0.17349241673946380615 0.13507801294326782227 0.15832677483558654785 -0.15161037445068359375 0.49234533309936523438 0.077450811862945556641 -0.11676132678985595703 -0.034032713621854782104 0.45700666308403015137 0.57977950572967529297 1.2973942756652832031 0.013481347821652889252 2.2424881458282470703 -2.0002346038818359375 4.5782256126403808594 5.3569407463073730469 1.6013011932373046875 0.4616527557373046875 5.0813040733337402344 -0.0091158309951424598694 0.37278467416763305664 6.0559234619140625 0.3331559598445892334 -4.4643816947937011719 -6.4626870155334472656 -5.5365548133850097656 -0.18285207450389862061 -4.1800150871276855469 -0.76471710205078125 1.9966421127319335938 0.74090135097503662109 0.51318204402923583984 0.68293553590774536133 0.19033291935920715332 -1.0825220346450805664 0.84877449274063110352 1.1760438680648803711 1.3823429346084594727 1.6710851192474365234 1.0457419157028198242 1.586212158203125 0.73767316341400146484 0.90115386247634887695 0.34200271964073181152 0.2617702484130859375 0.050279367715120315552 -0.0042056790553033351898 0.15647394955158233643 -0.44452694058418273926 -1.0179758071899414062 -1.0366201400756835938 -0.26003068685531616211 -1.1520346403121948242 -0.11824854463338851929 0.13122913241386413574 -1.4702249765396118164 -0.43811908364295959473 -0.061277035623788833618 0.9819577336311340332 0.55878776311874389648 0.49123132228851318359 0.39394173026084899902 0.048709105700254440308 0.11001566797494888306 -0.024399954825639724731 -0.30735495686531066895 0.19302475452423095703 0.0085455328226089477539 -0.0061354385688900947571 -99999 -99999 -99999 -99999 -99999 
-99999 -99999 -99999 -99999 -99999 -99999 -99999 -99999 -99999 -99999 -99999 -99999 -99999 -99999 -99999 -99999 1.3408961296081542969 1.2945984601974487305 -0.56789630651473999023 -1.0384583473205566406 -1.4568220376968383789 0.83977025747299194336 0.55655515193939208984 0.78893655538558959961 0.088114663958549499512 0.16142266988754272461 0.23456080257892608643 0.21617783606052398682 -0.17817094922065734863 0.021101618185639381409 -0.1009141877293586731 0.21883341670036315918 -1.0719317197799682617 -0.36378419399261474609 -0.0056410422548651695251 2.2303023338317871094 1.5792284011840820312 0.73042923212051391602 -0.036782726645469665527 0.59296405315399169922 -1.2299543619155883789 0.98197758197784423828 6.8250274658203125 5.124073028564453125 -2.8059022426605224609 1.2157437801361083984 0.88178050518035888672 0.48396959900856018066 5.2675733566284179688 2.8628087043762207031 -0.1596451103687286377 -4.6491932868957519531 -5.1000928878784179688 -0.60435223579406738281 0.32415673136711120605 2.421955108642578125 2.9054212570190429688 1.9211413860321044922 0.46633359789848327637 1.3621296882629394531 0.89511525630950927734 -0.54201841354370117188 -0.60281258821487426758 -0.12851947546005249023 0.92191356420516967773 1.0369907617568969727 0.79345881938934326172 1.0843042135238647461 0.580387115478515625 1.1254534721374511719 0.4631316065788269043 0.18655881285667419434 -0.054652888327836990356 0.071656271815299987793 -0.063719585537910461426 -0.53878492116928100586 -1.0446616411209106445 -1.3255491256713867188 -1.8507105112075805664 -1.158881068229675293 -0.55659443140029907227 1.1191574335098266602 -0.1666310727596282959 -0.49246540665626525879 0.26800361275672912598 0.44597366452217102051 -0.20334930717945098877 -0.12875956296920776367 0.3276297152042388916 0.14350958168506622314 0.11403955519199371338 -0.022484345361590385437 0.045968238264322280884 0.29924830794334411621 0.26224991679191589355 0.10376210510730743408 -99999 -99999 -99999 -99999 -99999 
-99999 -99999 -99999 -99999 -99999 -99999 -99999 -99999 -99999 -99999 -99999 -99999 -99999 -99999 -99999 -99999 0.4956875145435333252 0.36606049537658691406 -0.0027121244929730892181 -1.9469397068023681641 -1.650166630744934082 -0.76936036348342895508 0.36985224485397338867 0.9245745539665222168 0.38584700226783752441 0.24498084187507629395 0.34162491559982299805 0.20423084497451782227 -0.22934499382972717285 -0.30927413702011108398 -0.070603132247924804688 -0.21519936621189117432 -0.60418617725372314453 -1.5867780447006225586 -0.2966022789478302002 2.0996620655059814453 2.2871603965759277344 0.95256048440933227539 0.29873597621917724609 0.074668414890766143799 -1.5922780036926269531 0.0068501755595207214355 3.3959836959838867188 6.3226776123046875 1.1904367208480834961 -1.7275007963180541992 0.85837507247924804688 -0.65447795391082763672 0.48820042610168457031 1.7273347377777099609 5.3929567337036132812 1.152529597282409668 -1.2480436563491821289 1.1386808156967163086 2.7198574542999267578 2.4015941619873046875 6.6778421401977539062 3.4971680641174316406 0.45773354172706604004 0.53243625164031982422 0.17935864627361297607 -0.13943696022033691406 -0.31098639965057373047 -0.44773378968238830566 0.14586256444454193115 0.043327003717422485352 -0.40375655889511108398 0.28824761509895324707 0.18297658860683441162 0.4742266237735748291 0.64281100034713745117 0.27011346817016601562 0.1349881291389465332 0.25746110081672668457 0.13324415683746337891 -0.43068730831146240234 -0.80666685104370117188 -0.7831732630729675293 -0.90042030811309814453 -1.1347532272338867188 -0.71064025163650512695 1.8999489545822143555 1.7621142864227294922 0.2870044410228729248 -0.29899680614471435547 0.36586654186248779297 0.32793623208999633789 0.046963695436716079712 0.2581456601619720459 0.26535555720329284668 0.24575369060039520264 -0.047051347792148590088 0.27023974061012268066 0.44224077463150024414 0.6658776402473449707 0.57074707746505737305 -99999 -99999 -99999 -99999 -99999 
-99999 -99999 -99999 -99999 -99999 -99999 -99999 -99999 -99999 -99999 -99999 -99999 -99999 -99999 -99999 -99999 0.79100000858306884766 0.73618686199188232422 1.0484700202941894531 1.0030007362365722656 -0.48328202962875366211 -0.72380506992340087891 -0.16309309005737304688 0.66388618946075439453 0.67585557699203491211 0.26599982380867004395 0.11390951275825500488 0.049615796655416488647 -0.24970497190952301025 -0.37844648957252502441 -0.26812320947647094727 0.11841811984777450562 -0.35904857516288757324 -0.62937009334564208984 -1.8550046682357788086 0.68999040126800537109 1.6181141138076782227 0.78188842535018920898 0.70485031604766845703 -1.9172188043594360352 -2.2019360065460205078 -2.8633580207824707031 1.9402118921279907227 5.8016390800476074219 4.501148223876953125 0.38087874650955200195 -1.9098035097122192383 2.1234350204467773438 1.6836047172546386719 1.7939490079879760742 6.1284704208374023438 3.1307225227355957031 1.117356419563293457 -0.26986634731292724609 5.3261270523071289062 -1.3304482698440551758 5.2508802413940429688 4.7961244583129882812 1.3914626836776733398 0.30600985884666442871 0.098782077431678771973 -0.2165190577507019043 -0.63157159090042114258 -0.40476956963539123535 -0.61406600475311279297 -0.12020961195230484009 -0.039935227483510971069 0.45939797163009643555 0.39320623874664306641 0.43121612071990966797 0.4076296687126159668 0.11437395960092544556 0.14911402761936187744 0.00019896417506970465183 0.094139054417610168457 -0.14013072848320007324 -1.2506999969482421875 -0.9518782496452331543 -1.0828077793121337891 -1.3372449874877929688 -1.4121848344802856445 1.1941885948181152344 1.5223572254180908203 0.45860302448272705078 0.22710275650024414062 0.69082361459732055664 1.166802525520324707 0.91640484333038330078 0.90599519014358520508 0.63062745332717895508 0.42488616704940795898 -0.24626959860324859619 -0.43807443976402282715 0.56109887361526489258 1.3176157474517822266 1.3884977102279663086 -99999 -99999 -99999 -99999 -99999 
-99999 -99999 -99999 -99999 -99999 -99999 -99999 -99999 -99999 -99999 -99999 -99999 -99999 -99999 -99999 -99999 1.0958679914474487305 1.5992232561111450195 0.93212687969207763672 0.77419608831405639648 2.6881256103515625 3.0762331485748291016 -0.077930733561515808105 -0.085602961480617523193 0.054674815386533737183 -0.056950129568576812744 0.052560932934284210205 0.10564514249563217163 -0.084646850824356079102 -0.46033069491386413574 -0.5592905879020690918 -0.39555490016937255859 -0.54331266880035400391 -0.4761098027229309082 -0.084054626524448394775 0.23929956555366516113 0.93945956230163574219 1.1680722236633300781 1.605761408805847168 -0.19111281633377075195 -3.1040537357330322266 -4.3123922348022460938 -3.6080696582794189453 0.3360576629638671875 3.3891730308532714844 4.2638430595397949219 -0.51057481765747070312 0.46565580368041992188 -0.22672615945339202881 4.61353302001953125 5.4544653892517089844 2.58316802978515625 2.7744858264923095703 -2.2321107387542724609 1.4324408769607543945 1.3019167184829711914 2.1836197376251220703 5.4815263748168945312 2.2131326198577880859 0.85228431224822998047 0.55591487884521484375 0.40668287873268127441 -0.1841379702091217041 -1.0338420867919921875 -0.69161695241928100586 -0.098855167627334594727 0.04357890784740447998 0.24674595892429351807 0.21775843203067779541 0.16141574084758758545 0.3825969398021697998 0.14538779854774475098 0.092337220907211303711 -0.085235998034477233887 -0.45085814595222473145 0.30405849218368530273 -0.73293125629425048828 -1.0050272941589355469 -0.83927321434020996094 -1.2512762546539306641 -0.88072192668914794922 0.88923662900924682617 1.1042609214782714844 0.53606063127517700195 1.2441909313201904297 0.64725631475448608398 1.3967518806457519531 1.148543238639831543 1.3153436183929443359 0.70647245645523071289 0.46085578203201293945 0.050952769815921783447 0.15970666706562042236 -0.95214116573333740234 -0.22718864679336547852 -99999 -99999 -99999 -99999 -99999 -99999 
-99999 -99999 -99999 -99999 -99999 -99999 -99999 -99999 -99999 -99999 -99999 -99999 -99999 -99999 -99999 -99999 1.2841132879257202148 1.0757629871368408203 -0.48646596074104309082 -1.1441507339477539062 -0.72844588756561279297 0.72093206644058227539 0.59328627586364746094 0.16407771408557891846 0.14184591174125671387 0.075085557997226715088 0.13136334717273712158 -0.084905937314033508301 0.13509765267372131348 -0.16168732941150665283 -0.39596188068389892578 -0.036898497492074966431 -0.41280487179756164551 -0.65841186046600341797 1.2056884765625 0.45249667763710021973 -0.25892972946166992188 0.57819503545761108398 -0.35713142156600952148 0.89266341924667358398 0.99803841114044189453 -2.7400166988372802734 -4.2442069053649902344 -2.4875006675720214844 0.5756359100341796875 3.5470018386840820312 4.766201019287109375 0.29772910475730895996 -3.5073828697204589844 1.6935900449752807617 5.2984533309936523438 2.7106940746307373047 1.9278692007064819336 1.7294043302536010742 -0.17704728245735168457 1.1664730310440063477 1.236639857292175293 4.1372632980346679688 2.6659731864929199219 1.2482837438583374023 0.75013130903244018555 0.61872965097427368164 0.39886468648910522461 -0.099131725728511810303 -0.67224812507629394531 -0.68785935640335083008 -0.12197780609130859375 0.011341828852891921997 0.037123624235391616821 -0.0014649445656687021255 0.11702191084623336792 0.34060230851173400879 0.18496467173099517822 0.00098375405650585889816 -0.4051691591739654541 -0.28508386015892028809 -0.60144215822219848633 -0.65371799468994140625 -0.48827099800109863281 -0.94987028837203979492 -1.9426769018173217773 1.1636139154434204102 1.439335942268371582 0.48357054591178894043 1.6103786230087280273 1.4088097810745239258 1.2651762962341308594 0.47358179092407226562 1.6256413459777832031 1.1793849468231201172 0.76748502254486083984 -0.0093918628990650177002 -0.11021519452333450317 0.86877083778381347656 -0.88761830329895019531 -1.2380316257476806641 -99999 -99999 -99999 -99999 -99999 
-99999 -99999 -99999 -99999 -99999 -99999 -99999 -99999 -99999 -99999 -99999 -99999 -99999 -99999 -99999 -99999 1.7554159164428710938 1.0755102634429931641 0.53654050827026367188 -0.60534554719924926758 -0.50255197286605834961 -0.15094061195850372314 0.24557194113731384277 0.31178528070449829102 0.26039201021194458008 0.11155411601066589355 0.189047202467918396 -0.1012900620698928833 -0.35883843898773193359 0.22094069421291351318 -0.17447803914546966553 -0.099039219319820404053 -0.41957426071166992188 -0.32055562734603881836 -0.21647582948207855225 0.51138424873352050781 -0.19704192876815795898 -0.30026093125343322754 0.22529028356075286865 -1.2513867616653442383 2.2213754653930664062 0.36448112130165100098 -2.1870028972625732422 -3.8743884563446044922 -0.67331099510192871094 3.00649261474609375 4.3814797401428222656 1.1755200624465942383 -3.4413712024688720703 -1.9971655607223510742 4.2874941825866699219 3.9216947555541992188 2.5651266574859619141 0.60208916664123535156 -0.29671004414558410645 0.13966624438762664795 2.1103863716125488281 1.5909276008605957031 2.1794486045837402344 1.290606379508972168 0.38662505149841308594 0.38114374876022338867 0.2178643643856048584 0.29505306482315063477 0.034582160413265228271 -0.4421164393424987793 -0.48925364017486572266 -0.1891289055347442627 0.17857879400253295898 0.10627308487892150879 -0.1403080672025680542 -0.10504877567291259766 0.023317582905292510986 -0.12979426980018615723 -0.1959715038537979126 -0.11537323892116546631 -0.49132055044174194336 -0.37722218036651611328 -0.75567722320556640625 -0.91414493322372436523 -1.614687800407409668 0.39110386371612548828 0.90062505006790161133 -0.080495856702327728271 0.17451117932796478271 1.8834117650985717773 2.5443251132965087891 1.0451214313507080078 0.67082571983337402344 1.0078513622283935547 1.1811251640319824219 -0.02555907517671585083 0.31303170323371887207 0.68036329746246337891 0.44659829139709472656 -1.6422406435012817383 -0.37979781627655029297 -99999 -99999 -99999 -99999 
-99999 -99999 -99999 -99999 -99999 -99999 -99999 -99999 -99999 -99999 -99999 -99999 -99999 -99999 -99999 -99999 2.6683678627014160156 1.4515823125839233398 0.95503753423690795898 1.2734607458114624023 0.92339730262756347656 1.5116592645645141602 1.2717460393905639648 0.44524860382080078125 0.15959706902503967285 0.12809477746486663818 0.16973246634006500244 -0.065615661442279815674 -0.41421738266944885254 -0.8231099247932434082 -0.28521418571472167969 -0.2880083918571472168 -0.68792253732681274414 0.69697684049606323242 0.30047667026519775391 -0.12747147679328918457 0.48060274124145507812 0.65921980142593383789 -0.92359995841979980469 0.97761613130569458008 -0.82189399003982543945 2.5888471603393554688 -0.009845410473644733429 -1.3575990200042724609 -2.2679955959320068359 -1.1753271818161010742 -0.11492975056171417236 0.22983905673027038574 -0.38290929794311523438 -1.1591436862945556641 2.2782170772552490234 4.0787501335144042969 3.0556185245513916016 1.6575514078140258789 -99999 -99999 -99999 -99999 2.6589531898498535156 1.1745394468307495117 0.2179241478443145752 0.48511561751365661621 0.63387376070022583008 0.36926877498626708984 -0.048001401126384735107 -0.094031043350696563721 -0.50765204429626464844 -0.096099145710468292236 -0.22700265049934387207 0.31684967875480651855 0.39501538872718811035 0.34537339210510253906 0.34660035371780395508 -0.13235190510749816895 -0.016933113336563110352 0.12221343815326690674 -0.30679845809936523438 0.11015760153532028198 -0.17164511978626251221 -0.96675628423690795898 -1.5777238607406616211 0.86507207155227661133 1.0740659236907958984 -0.42353540658950805664 0.057633344084024429321 1.4620926380157470703 2.3451783657073974609 1.7044330835342407227 0.71396219730377197266 1.1750828027725219727 1.1430124044418334961 -0.38154724240303039551 -0.76145160198211669922 -0.18458168208599090576 1.0460083484649658203 0.92155611515045166016 -0.083377674221992492676 -0.38174423575401306152 -99999 -99999 -99999 
-99999 -99999 -99999 -99999 -99999 -99999 -99999 -99999 -99999 -99999 -99999 -99999 -99999 -99999 -99999 -99999 2.8836591243743896484 2.1190915107727050781 2.2624275684356689453 0.84668821096420288086 0.97581279277801513672 2.2205045223236083984 1.7165192365646362305 0.52933555841445922852 0.22176979482173919678 0.14762420952320098877 0.13194791972637176514 0.10511969774961471558 0.048560932278633117676 -0.26475057005882263184 -0.4651362001895904541 -0.4429836571216583252 -0.75552690029144287109 0.70659589767456054688 0.60514026880264282227 0.10677867382764816284 -0.052164852619171142578 -0.007516069803386926651 -1.041876673698425293 -0.70029878616333007812 0.78689432144165039062 -0.031968425959348678589 -0.39693489670753479004 -0.62810075283050537109 -1.8071876764297485352 0.022477598860859870911 0.013774177990853786469 0.037486843764781951904 0.26921331882476806641 -99999 -99999 -99999 2.2905964851379394531 2.1816945075988769531 -99999 -99999 -99999 -99999 0.37608665227890014648 0.88205671310424804688 0.17308254539966583252 0.90574097633361816406 1.144681096076965332 0.44266560673713684082 0.30401188135147094727 0.24513396620750427246 -0.23467394709587097168 -0.038488648831844329834 -0.21468754112720489502 -0.071934811770915985107 0.25290349125862121582 0.23020324110984802246 0.37290492653846740723 -0.10932064056396484375 -0.24399328231811523438 -0.16636852920055389404 -0.54061603546142578125 -0.77393776178359985352 -0.41115418076515197754 -0.25318378210067749023 -1.1114717721939086914 -1.4150803089141845703 0.31708312034606933594 -0.1636721491813659668 -2.2936472892761230469 -0.16456754505634307861 1.9188563823699951172 1.3996306657791137695 1.1502715349197387695 2.6428101062774658203 2.2188975811004638672 1.9690685272216796875 0.11397701501846313477 -0.74656289815902709961 -0.080770552158355712891 0.44168743491172790527 0.64311707019805908203 0.74717110395431518555 -99999 -99999 -99999 
-99999 -99999 -99999 -99999 -99999 -99999 -99999 -99999 -99999 -99999 -99999 -99999 -99999 -99999 -99999 -99999 -99999 2.2889499664306640625 2.1512148380279541016 0.35928556323051452637 0.88842767477035522461 1.2534439563751220703 3.7671759128570556641 0.81150019168853759766 0.33317539095878601074 0.22574888169765472412 -0.030111648142337799072 0.16931261122226715088 0.45757663249969482422 0.14432582259178161621 0.13116988539695739746 -0.94789415597915649414 -0.59782111644744873047 0.98230975866317749023 0.96942293643951416016 0.54917794466018676758 -0.12200726568698883057 0.49036097526550292969 0.74688297510147094727 -1.0330395698547363281 0.9273249506950378418 -0.42914986610412597656 0.37990301847457885742 -0.22911369800567626953 1.0059273242950439453 1.3081182241439819336 1.2574515342712402344 0.70228648185729980469 -99999 -99999 -99999 -99999 -99999 -99999 -99999 -99999 -99999 -99999 -99999 -99999 -99999 -99999 0.92329108715057373047 0.26664900779724121094 0.20604985952377319336 0.26808243989944458008 -0.085778877139091491699 -0.081184923648834228516 -0.069919198751449584961 -0.04373083263635635376 -0.1899662017822265625 -0.032604210078716278076 -0.016141045838594436646 -0.070283226668834686279 -0.26522657275199890137 -0.12860058248043060303 -0.71178454160690307617 -0.87820345163345336914 -0.91038805246353149414 -0.43776962161064147949 -0.31463631987571716309 -1.394744873046875 -1.4265288114547729492 -0.063906498253345489502 -1.0789219141006469727 -0.70529818534851074219 2.2246146202087402344 2.0726239681243896484 1.4974782466888427734 3.2731032371520996094 2.9044103622436523438 2.397510528564453125 2.6884071826934814453 -99999 -99999 -99999 -99999 -99999 -99999 -99999 -99999 
-99999 -99999 -99999 -99999 -99999 -99999 -99999 -99999 -99999 -99999 -99999 -99999 -99999 -99999 -99999 -99999 1.0992162227630615234 -0.40695813298225402832 1.1463944911956787109 0.039839673787355422974 0.62696927785873413086 0.65312546491622924805 2.3194870948791503906 0.75574356317520141602 0.92300760746002197266 0.27622434496879577637 -0.20445522665977478027 -0.57943940162658691406 0.17073768377304077148 -0.020454555749893188477 0.7054125666618347168 -0.17061570286750793457 0.11953321844339370728 0.82029098272323608398 0.10321210324764251709 0.76957517862319946289 0.52710837125778198242 0.27884042263031005859 -0.651271820068359375 -0.0070857140235602855682 0.07233107835054397583 1.4196617603302001953 0.8886394500732421875 0.1858711540699005127 2.5488667488098144531 2.1485531330108642578 1.5829795598983764648 -0.72640275955200195312 -99999 -99999 -99999 -99999 -99999 -99999 -99999 -99999 -99999 -99999 -99999 -99999 -99999 -99999 -99999 0.26897060871124267578 0.092916548252105712891 0.27141439914703369141 0.23068979382514953613 -0.14953023195266723633 -0.11237438768148422241 -0.048477344214916229248 -0.039252649992704391479 -0.055777363479137420654 0.0094185713678598403931 -0.021578203886747360229 -0.2688528597354888916 -0.22251619398593902588 -0.31263661384582519531 -0.43972298502922058105 -0.89723318815231323242 -1.3630276918411254883 -0.54429870843887329102 0.028999203816056251526 -0.91702640056610107422 -0.98701333999633789062 0.44856598973274230957 0.010991035960614681244 0.3296413719654083252 1.9538286924362182617 1.9824137687683105469 1.5256813764572143555 2.0188462734222412109 1.7644258737564086914 1.6989797353744506836 -99999 -99999 -99999 -99999 -99999 -99999 -99999 -99999 
-99999 -99999 -99999 -99999 -99999 -99999 -99999 -99999 -99999 -99999 -99999 -99999 -99999 -99999 -99999 -99999 1.8343061208724975586 0.67511987686157226562 0.92827266454696655273 0.61805033683776855469 1.1228673458099365234 0.66031360626220703125 0.54637938737869262695 0.73286348581314086914 0.44385764002799987793 0.30719599127769470215 -0.056647285819053649902 -0.63887578248977661133 -0.39101704955101013184 -0.4451102912425994873 0.45910429954528808594 0.39490491151809692383 0.42609193921089172363 0.42123201489448547363 -0.11491181701421737671 0.74352270364761352539 1.4115555286407470703 0.081058576703071594238 -1.3540537357330322266 0.18047122657299041748 -1.1235954761505126953 0.53864818811416625977 1.4604030847549438477 0.40468576550483703613 0.46804419159889221191 1.6919817924499511719 1.1201665401458740234 -0.19065913558006286621 -99999 -99999 -99999 -99999 -99999 -99999 -99999 -99999 -99999 -99999 -99999 -99999 -99999 -99999 -99999 0.40812185406684875488 0.21312972903251647949 0.16792272031307220459 0.14556784927845001221 0.021675406023859977722 -0.041496686637401580811 -0.0037673090118914842606 0.060085732489824295044 0.10718407481908798218 0.22433485090732574463 0.086907155811786651611 -0.085263960063457489014 -0.21818429231643676758 -0.1643714606761932373 -0.43260839581489562988 -0.6066805720329284668 -0.87750762701034545898 -0.9400780797004699707 -0.76125991344451904297 -0.58158230781555175781 -1.3393685817718505859 -1.5817734003067016602 -0.9841607213020324707 -1.4571646451950073242 -99999 -99999 -99999 -99999 -99999 -99999 -99999 -99999 -99999 -99999 -99999 -99999 -99999 -99999 
-99999 -99999 -99999 -99999 -99999 -99999 -99999 -99999 -99999 -99999 -99999 -99999 -99999 -99999 -99999 -99999 1.9637752771377563477 0.88110518455505371094 1.9000034332275390625 -0.66924172639846801758 1.7240966558456420898 2.2401595115661621094 0.97307181358337402344 1.1993410587310791016 0.75155621767044067383 0.34338092803955078125 -0.25822594761848449707 -0.13026238977909088135 -0.43826323747634887695 -0.75271040201187133789 -0.91219145059585571289 1.4922494888305664062 1.0248615741729736328 0.72250980138778686523 -0.19080473482608795166 0.14931011199951171875 1.114681243896484375 0.70200461149215698242 -2.1898090839385986328 -3.1020205020904541016 -3.630016326904296875 -1.1595911979675292969 1.1473494768142700195 1.1318169832229614258 -99999 -99999 1.8946890830993652344 1.10106658935546875 -99999 -99999 -99999 -99999 -99999 -99999 -99999 -99999 -99999 -99999 -99999 -99999 -99999 -99999 -99999 -99999 -0.090540781617164611816 0.13096597790718078613 0.28864783048629760742 0.36322268843650817871 0.18653945624828338623 0.084291927516460418701 0.10058864951133728027 0.22277523577213287354 0.1342293471097946167 -0.0318605080246925354 0.32164692878723144531 -0.1269747316837310791 0.043233044445514678955 -0.058179564774036407471 -0.38789221644401550293 -0.56157732009887695312 -0.68372648954391479492 -0.7190253138542175293 -1.1969190835952758789 -1.4770544767379760742 -1.6177686452865600586 -1.914788365364074707 -1.4167110919952392578 -99999 -99999 -99999 -99999 -99999 -99999 -99999 -99999 -99999 -99999 -99999 -99999 -99999 -99999 
-99999 -99999 -99999 -99999 -99999 -99999 -99999 -99999 -99999 -99999 -99999 -99999 -99999 -99999 -99999 -99999 2.1497771739959716797 -0.1594514697790145874 2.8232305049896240234 0.76681923866271972656 1.7165997028350830078 1.9333822727203369141 0.5489279627799987793 0.85425275564193725586 0.38643500208854675293 0.31038331985473632812 -0.043360747396945953369 -0.67385947704315185547 -0.60200989246368408203 -0.16628551483154296875 -0.64912199974060058594 0.22643706202507019043 0.99422979354858398438 1.4428344964981079102 -0.021496353670954704285 -0.85020864009857177734 1.5224145650863647461 -1.6851017475128173828 1.8064336776733398438 -1.1437506675720214844 -2.7250220775604248047 -2.9299721717834472656 -99999 0.69866758584976196289 -99999 -99999 -99999 -99999 -99999 -99999 -99999 -99999 -99999 -99999 -99999 -99999 -99999 -99999 -99999 -99999 -99999 -99999 -99999 -99999 0.071154929697513580322 0.37172019481658935547 0.48144233226776123047 0.22813789546489715576 0.41270592808723449707 0.28054001927375793457 0.086314693093299865723 0.17794905602931976318 0.14227771759033203125 -0.15502408146858215332 0.31771573424339294434 -0.16487456858158111572 -0.30674672126770019531 -0.23299399018287658691 -0.34830018877983093262 -0.078995950520038604736 -0.11837031692266464233 -0.34700718522071838379 -0.41281932592391967773 -0.85577541589736938477 -1.0838488340377807617 -0.14309014379978179932 0.73818320035934448242 -99999 -99999 -99999 -99999 -99999 -99999 -99999 -99999 -99999 -99999 -99999 -99999 -99999 -99999 
-99999 -99999 -99999 -99999 -99999 -99999 -99999 -99999 -99999 -99999 -99999 -99999 -99999 -99999 -99999 3.2495791912078857422 2.3562605381011962891 -0.74761682748794555664 0.27517139911651611328 2.7039151191711425781 1.5565454959869384766 0.76585566997528076172 0.26679575443267822266 0.49596145749092102051 0.2153711169958114624 0.43263146281242370605 0.16387328505516052246 -0.59728997945785522461 -0.64035111665725708008 -0.14111858606338500977 -0.084460012614727020264 0.98583656549453735352 0.3005301356315612793 1.2676224708557128906 -0.45137372612953186035 0.098015226423740386963 1.5564955472946166992 0.35614117980003356934 0.72568303346633911133 1.2518249750137329102 -2.6292891502380371094 -2.7633404731750488281 -99999 -99999 -99999 -99999 -99999 -99999 -99999 -99999 -99999 -99999 -99999 -99999 -99999 -99999 -99999 -99999 -99999 -99999 -99999 -99999 -99999 -99999 -99999 -99999 -99999 -99999 0.21624773740768432617 0.25243434309959411621 0.10804022848606109619 0.10579391568899154663 0.16035434603691101074 -0.21406641602516174316 0.35714742541313171387 -0.008057767525315284729 -0.12368791550397872925 -0.10038448125123977661 -0.1770578920841217041 -0.36249008774757385254 -0.02634688839316368103 -0.27309066057205200195 -0.67099541425704956055 -0.26077824831008911133 -99999 -99999 -99999 -99999 -99999 -99999 -99999 -99999 -99999 -99999 -99999 -99999 -99999 -99999 -99999 -99999 -99999 
-99999 -99999 -99999 -99999 -99999 -99999 -99999 -99999 -99999 -99999 -99999 -99999 -99999 -99999 -99999 3.2982029914855957031 2.2068307399749755859 2.3567571640014648438 0.87732511758804321289 1.6159002780914306641 2.3021655082702636719 2.3244848251342773438 1.2118067741394042969 1.0970894098281860352 0.21526741981506347656 0.55006259679794311523 -0.050165757536888122559 -0.59353488683700561523 -1.0096186399459838867 -1.1048818826675415039 -0.92089247703552246094 -0.21573755145072937012 -0.55025833845138549805 -0.13597248494625091553 -1.7214756011962890625 -2.3541014194488525391 0.16038659214973449707 -0.53285074234008789062 0.24742318689823150635 2.1015844345092773438 -1.6671555042266845703 -99999 -99999 -99999 -99999 -99999 -99999 -99999 -99999 -99999 -99999 -99999 -99999 -99999 -99999 -99999 -99999 -99999 -99999 -99999 -99999 -99999 -99999 -99999 -99999 -99999 -99999 -99999 -99999 -99999 0.32598423957824707031 0.091608546674251556396 0.036929551512002944946 -0.16248553991317749023 0.24890238046646118164 0.13397718966007232666 -0.25210094451904296875 -0.082764074206352233887 -0.15605914592742919922 -0.40324109792709350586 -0.56225883960723876953 -0.46402260661125183105 -0.41077733039855957031 -0.51468396186828613281 -99999 -99999 -99999 -99999 -99999 -99999 -99999 -99999 -99999 -99999 -99999 -99999 -99999 -99999 -99999 -99999 -99999 
-99999 -99999 -99999 -99999 -99999 -99999 -99999 -99999 -99999 -99999 -99999 -99999 -99999 -99999 -99999 -99999 0.86262613534927368164 1.3775779008865356445 -0.02889352850615978241 2.6715161800384521484 3.391147613525390625 2.5069746971130371094 0.8826134800910949707 0.59969896078109741211 0.46123999357223510742 0.14309829473495483398 0.44676190614700317383 -0.29949960112571716309 -0.57810461521148681641 -1.2773903608322143555 -1.0217734575271606445 -0.080476582050323486328 1.7505006790161132812 3.8568215370178222656 0.94022387266159057617 0.24451784789562225342 -1.2510392665863037109 0.0089882435277104377747 0.64894789457321166992 1.4890116453170776367 0.43768924474716186523 -99999 -99999 -99999 -99999 -99999 -99999 -99999 -99999 -99999 -99999 -99999 -99999 -99999 -99999 -99999 -99999 -99999 -99999 -99999 -99999 -99999 -99999 -99999 -99999 -99999 -99999 -99999 -99999 -99999 -99999 -99999 -99999 0.058469336479902267456 -0.11597336083650588989 0.44797351956367492676 -0.031566858291625976562 -0.1525166928768157959 -0.14343169331550598145 -0.097564212977886199951 -0.34127071499824523926 -0.45494058728218078613 -0.5276038050651550293 -0.54388862848281860352 -99999 -99999 -99999 -99999 -99999 -99999 -99999 -99999 -99999 -99999 -99999 -99999 -99999 -99999 -99999 -99999 -99999 
-99999 -99999 -99999 -99999 -99999 -99999 -99999 -99999 -99999 -99999 -99999 -99999 -99999 -99999 -99999 -99999 -99999 0.45371547341346740723 0.64496380090713500977 1.7044461965560913086 -99999 -99999 0.56200748682022094727 0.49868723750114440918 -99999 -0.059281770139932632446 0.42296326160430908203 -0.021453192457556724548 0.3226298987865447998 0.31955289840698242188 0.36329239606857299805 1.011220097541809082 0.27904170751571655273 5.55803680419921875 1.3311482667922973633 1.0644844770431518555 0.85762268304824829102 -1.0493770837783813477 1.1313720941543579102 2.6497161388397216797 -99999 -99999 -99999 -99999 -99999 -99999 -99999 -99999 -99999 -99999 -99999 -99999 -99999 -99999 -99999 -99999 -99999 -99999 -99999 -99999 -99999 -99999 -99999 -99999 -99999 -99999 -99999 -99999 -99999 -99999 -99999 -99999 -99999 0.27703991532325744629 -0.24571074545383453369 0.31984007358551025391 0.23075833916664123535 -0.013287845999002456665 -0.14747916162014007568 -0.17500105500221252441 -0.16724771261215209961 -0.25524878501892089844 -0.306484222412109375 -99999 -99999 -99999 -99999 -99999 -99999 -99999 -99999 -99999 -99999 -99999 -99999 -99999 -99999 -99999 -99999 -99999 -99999 
-99999 -99999 -99999 -99999 -99999 -99999 -99999 -99999 -99999 -99999 -99999 -99999 -99999 -99999 -99999 -99999 -99999 -99999 -99999 -99999 -99999 -99999 -99999 -99999 -99999 -99999 -99999 0.38388392329216003418 0.30865249037742614746 0.029042642563581466675 -1.0265485048294067383 1.3294463157653808594 -0.76087301969528198242 4.9621496200561523438 2.7214705944061279297 0.83176892995834350586 2.7233796119689941406 -0.87277948856353759766 -0.42860734462738037109 2.9407899379730224609 -99999 -99999 -99999 -99999 -99999 -99999 -99999 -99999 -99999 -99999 -99999 -99999 -99999 -99999 -99999 -99999 -99999 -99999 -99999 -99999 -99999 -99999 -99999 -99999 -99999 -99999 -99999 -99999 -99999 -99999 -99999 -99999 -99999 -99999 -0.037671957165002822876 -0.097694113850593566895 0.27411830425262451172 0.17785558104515075684 -0.01062892470508813858 -0.10633983463048934937 -0.079546265304088592529 -0.11685581505298614502 -0.072433851659297943115 -99999 -99999 -99999 -99999 -99999 -99999 -99999 -99999 -99999 -99999 -99999 -99999 -99999 -99999 -99999 -99999 -99999 -99999 
-99999 -99999 -99999 -99999 -99999 -99999 -99999 -99999 -99999 -99999 -99999 -99999 -99999 -99999 -99999 -99999 -99999 -99999 -99999 -99999 -99999 -99999 -99999 -99999 -99999 -99999 -99999 0.25952610373497009277 0.78215402364730834961 0.88561469316482543945 -1.9008452892303466797 -2.4388031959533691406 0.37404486536979675293 4.0839924812316894531 3.6711394786834716797 3.5918211936950683594 4.9500041007995605469 1.0391449928283691406 -2.2411692142486572266 -99999 -99999 -99999 -99999 -99999 -99999 -99999 -99999 -99999 -99999 -99999 -99999 -99999 -99999 -99999 -99999 -99999 -99999 -99999 -99999 -99999 -99999 -99999 -99999 -99999 -99999 -99999 -99999 -99999 -99999 -99999 -99999 -99999 -99999 -99999 0.441799163818359375 0.062178000807762145996 0.066484950482845306396 0.2871761322021484375 0.36574143171310424805 0.0048842062242329120636 0.18189005553722381592 0.22999684512615203857 -99999 -99999 -99999 -99999 -99999 -99999 -99999 -99999 -99999 -99999 -99999 -99999 -99999 -99999 -99999 -99999 -99999 -99999 -99999 
-99999 -99999 -99999 -99999 -99999 -99999 -99999 -99999 -99999 -99999 -99999 -99999 -99999 -99999 -99999 -99999 -99999 -99999 -99999 -99999 -99999 -99999 -99999 -99999 -99999 -99999 -99999 0.24423861503601074219 -0.0042403875850141048431 0.24383518099784851074 -0.0030529794748872518539 -2.2623741626739501953 -99999 3.6282250881195068359 3.6837279796600341797 3.7377605438232421875 8.57692718505859375 3.1945936679840087891 -99999 -99999 -99999 -99999 -99999 -99999 -99999 -99999 -99999 -99999 -99999 -99999 -99999 -99999 -99999 -99999 -99999 -99999 -99999 -99999 -99999 -99999 -99999 -99999 -99999 -99999 -99999 -99999 -99999 -99999 -99999 -99999 -99999 -99999 -99999 -99999 0.47147572040557861328 0.34290516376495361328 0.12175959348678588867 0.050062049180269241333 0.36463630199432373047 0.058915346860885620117 -0.094536468386650085449 -99999 -99999 -99999 -99999 -99999 -99999 -99999 -99999 -99999 -99999 -99999 -99999 -99999 -99999 -99999 -99999 -99999 -99999 -99999 -99999 
-99999 -99999 -99999 -99999 -99999 -99999 -99999 -99999 -99999 -99999 -99999 -99999 -99999 -99999 -99999 -99999 -99999 -99999 -99999 -99999 -99999 -99999 -99999 -99999 -99999 -99999 -99999 -99999 -99999 -99999 -99999 -99999 -99999 -99999 0.18762701749801635742 1.8481082916259765625 9.6406097412109375 5.943973541259765625 -99999 -99999 -99999 -99999 -99999 -99999 -99999 -99999 -99999 -99999 -99999 -99999 -99999 -99999 -99999 -99999 -99999 -99999 -99999 -99999 -99999 -99999 -99999 -99999 -99999 -99999 -99999 -99999 -99999 -99999 -99999 -99999 -99999 -99999 -99999 -99999 0.5607007145881652832 0.07770563662052154541 0.4475218653678894043 -0.11599486321210861206 0.035153105854988098145 0.33936080336570739746 -0.39227950572967529297 -99999 -99999 -99999 -99999 -99999 -99999 -99999 -99999 -99999 -99999 -99999 -99999 -99999 -99999 -99999 -99999 -99999 -99999 -99999 -99999 
-99999 -99999 -99999 -99999 -99999 -99999 -99999 -99999 -99999 -99999 -99999 -99999 -99999 -99999 -99999 -99999 -99999 -99999 -99999 -99999 -99999 -99999 -99999 -99999 -99999 -99999 -99999 -99999 -99999 -99999 -99999 -99999 -99999 -99999 -1.704672694206237793 -2.2540845870971679688 5.9021944999694824219 6.414165496826171875 -99999 -99999 -99999 -99999 -99999 -99999 -99999 -99999 -99999 -99999 -99999 -99999 -99999 -99999 -99999 -99999 -99999 -99999 -99999 -99999 -99999 -99999 -99999 -99999 -99999 -99999 -99999 -99999 -99999 -99999 -99999 -99999 -99999 -99999 -99999 -99999 0.46019545197486877441 0.21197001636028289795 0.42499271035194396973 0.32421401143074035645 0.17027798295021057129 0.53424257040023803711 0.085232295095920562744 0.058500744402408599854 -99999 -99999 -99999 -99999 -99999 -99999 -99999 -99999 -99999 -99999 -99999 -99999 -99999 -99999 -99999 -99999 -99999 -99999 -99999 
-99999 -99999 -99999 -99999 -99999 -99999 -99999 -99999 -99999 -99999 -99999 -99999 -99999 -99999 -99999 -99999 -99999 -99999 -99999 -99999 -99999 -99999 -99999 -99999 -99999 -99999 -99999 -99999 -99999 -99999 -99999 -99999 -99999 -99999 -99999 -99999 -99999 -99999 -99999 -99999 -99999 -99999 -99999 -99999 -99999 -99999 -99999 -99999 -99999 -99999 -99999 -99999 -99999 -99999 -99999 -99999 -99999 -99999 -99999 -99999 -99999 -99999 -99999 -99999 -99999 -99999 -99999 -99999 -99999 -99999 -99999 -99999 -99999 -99999 -99999 -99999 0.40829345583915710449 0.36637315154075622559 0.32746469974517822266 1.2368016242980957031 0.22282102704048156738 0.76132571697235107422 -99999 -99999 -99999 -99999 -99999 -99999 -99999 -99999 -99999 -99999 -99999 -99999 -99999 -99999 -99999 -99999 -99999 -99999 -99999 
-99999 -99999 -99999 -99999 -99999 -99999 -99999 -99999 -99999 -99999 -99999 -99999 -99999 -99999 -99999 -99999 -99999 -99999 -99999 -99999 -99999 -99999 -99999 -99999 -99999 -99999 -99999 -99999 -99999 -99999 -99999 -99999 -99999 -99999 -99999 -99999 -99999 -99999 -99999 -99999 -99999 -99999 -99999 -99999 -99999 -99999 -99999 -99999 -99999 -99999 -99999 -99999 -99999 -99999 -99999 -99999 -99999 -99999 -99999 -99999 -99999 -99999 -99999 -99999 -99999 -99999 -99999 -99999 -99999 -99999 -99999 -99999 -99999 -99999 -99999 -99999 -99999 0.93539220094680786133 0.22351124882698059082 1.7489761114120483398 0.29515686631202697754 0.010426819324493408203 -99999 -99999 -99999 -99999 -99999 -99999 -99999 -99999 -99999 -99999 -99999 -99999 -99999 -99999 -99999 -99999 -99999 -99999 -99999 
-99999 -99999 -99999 -99999 -99999 -99999 -99999 -99999 -99999 -99999 -99999 -99999 -99999 -99999 -99999 -99999 -99999 -99999 -99999 -99999 -99999 -99999 -99999 -99999 -99999 -99999 -99999 -99999 -99999 -99999 -99999 -99999 -99999 -99999 -99999 -99999 -99999 -99999 -99999 -99999 -99999 -99999 -99999 -99999 -99999 -99999 -99999 -99999 -99999 -99999 -99999 -99999 -99999 -99999 -99999 -99999 -99999 -99999 -99999 -99999 -99999 -99999 -99999 -99999 -99999 -99999 -99999 -99999 -99999 -99999 -99999 -99999 -99999 -99999 -99999 -99999 -99999 1.0738912820816040039 1.1110171079635620117 1.5569549798965454102 0.59728729724884033203 0.093610025942325592041 -99999 -99999 -99999 -99999 -99999 -99999 -99999 -99999 -99999 -99999 -99999 -99999 -99999 -99999 -99999 -99999 -99999 -99999 -99999 
-99999 -99999 -99999 -99999 -99999 -99999 -99999 -99999 -99999 -99999 -99999 -99999 -99999 -99999 -99999 -99999 -99999 -99999 -99999 -99999 -99999 -99999 -99999 -99999 -99999 -99999 -99999 -99999 -99999 -99999 -99999 -99999 -99999 -99999 -99999 -99999 -99999 -99999 -99999 -99999 -99999 -99999 -99999 -99999 -99999 -99999 -99999 -99999 -99999 -99999 -99999 -99999 -99999 -99999 -99999 -99999 -99999 -99999 -99999 -99999 -99999 -99999 -99999 -99999 -99999 -99999 -99999 -99999 -99999 -99999 -99999 -99999 -99999 -99999 -99999 -99999 -99999 -99999 1.7128663063049316406 2.9018313884735107422 1.4771057367324829102 0.9488735198974609375 -99999 -99999 -99999 -99999 -99999 -99999 -99999 -99999 -99999 -99999 -99999 -99999 -99999 -99999 -99999 -99999 -99999 -99999 -99999 
-99999 -99999 -99999 -99999 -99999 -99999 -99999 -99999 -99999 -99999 -99999 -99999 -99999 -99999 -99999 -99999 -99999 -99999 -99999 -99999 -99999 -99999 -99999 -99999 -99999 -99999 -99999 -99999 -99999 -99999 -99999 -99999 -99999 -99999 -99999 -99999 -99999 -99999 -99999 -99999 -99999 -99999 -99999 -99999 -99999 -99999 -99999 -99999 -99999 -99999 -99999 -99999 -99999 -99999 -99999 -99999 -99999 -99999 -99999 -99999 -99999 -99999 -99999 -99999 -99999 -99999 -99999 -99999 -99999 -99999 -99999 -99999 -99999 -99999 -99999 -99999 -99999 -99999 -99999 -99999 3.4953773021697998047 2.5548763275146484375 -99999 -99999 -99999 -99999 -99999 -99999 -99999 -99999 -99999 -99999 -99999 -99999 -99999 -99999 -99999 -99999 -99999 -99999 -99999 
