ncols        101
nrows        101
xllcorner    412736.042777144641
yllcorner    4624596.874991853721
dx           982.704863755106
dy           742.907128512748
NODATA_value -9999
-9999.0 -9999 -9999 -9999 -9999 -9999 -9999 -9999 -9999 -9999 -9999 -9999 -9999 -9999 -9999 -9999 -9999 -9999 -9999 -9999 -9999 -9999 -9999 -9999 -9999 -9999 -9999 -9999 -9999 -9999 -9999 -9999 -9999 -9999 -9999 -9999 -9999 -9999 -9999 -9999 -9999 -9999 -9999 -9999 -9999 -9999 -9999 -9999 -9999 -9999 -9999 -9999 -9999 -9999 -9999 -9999 -9999 -9999 -9999 -9999 -9999 -9999 -9999 -9999 -9999 -9999 -9999 -9999 -9999 -9999 -9999 -9999 -9999 -9999 -9999 -9999 -9999 -9999 -9999 -9999 -9999 -9999 -9999 -9999 -9999 -9999 -9999 -9999 -9999 -9999 -9999 -9999 -9999 -9999 -9999 -9999 -9999 -9999 -9999 -9999 -9999 
-9999 -9999 -9999 -9999 -9999 -9999 -9999 -9999 -9999 -9999 -9999 -9999 -9999 -9999 -9999 -9999 -9999 -9999 -9999 -9999 -9999 -9999 -9999 -9999 -9999 -9999 24.8311767578125 26.644815444946289062 -9999 -9999 -9999 -9999 -9999 -9999 -9999 -9999 -9999 -9999 -9999 -9999 -9999 -9999 -9999 -9999 -9999 -9999 -9999 -9999 -9999 -9999 -9999 -9999 -9999 -9999 -9999 -9999 -9999 -9999 -9999 -9999 -9999 -9999 -9999 -9999 -9999 -9999 -9999 -9999 -9999 -9999 -9999 -9999 -9999 -9999 -9999 -9999 -9999 -9999 -9999 -9999 -9999 -9999 -9999 -9999 -9999 -9999 -9999 -9999 -9999 -9999 -9999 -9999 -9999 -9999 -9999 -9999 -9999 -9999 -9999 -9999 -9999 
-9999 -9999 -9999 -9999 -9999 -9999 -9999 -9999 -9999 -9999 -9999 -9999 -9999 -9999 -9999 -9999 -9999 -9999 -9999 -9999 -9999 -9999 -9999 -9999 -9999 -9999 23.95025634765625 24.156284332275390625 14.287561416625976562 -9999 -9999 -9999 -9999 -9999 -9999 -9999 -9999 -9999 -9999 -9999 -9999 -9999 -9999 -9999 -9999 -9999 -9999 -9999 -9999 -9999 -9999 -9999 -9999 -9999 -9999 -9999 -9999 -9999 -9999 -9999 -9999 -9999 -9999 -9999 -9999 -9999 -9999 -9999 -9999 -9999 -9999 -9999 -9999 -9999 -9999 -9999 -9999 -9999 -9999 -9999 -9999 -9999 -9999 -9999 -9999 -9999 -9999 -9999 -9999 -9999 -9999 -9999 -9999 -9999 -9999 -9999 -9999 -9999 -9999 -9999 -9999 
-9999 -9999 -9999 -9999 -9999 -9999 -9999 -9999 -9999 -9999 -9999 -9999 -9999 -9999 -9999 -9999 -9999 -9999 28.69367218017578125 26.776052474975585938 -9999 -9999 -9999 25.600284576416015625 25.2659149169921875 19.095628738403320312 19.401660919189453125 23.84719085693359375 26.347698211669921875 19.599351882934570312 22.317607879638671875 21.580190658569335938 -9999 -9999 -9999 -9999 -9999 -9999 -9999 -9999 -9999 -9999 -9999 -9999 -9999 -9999 -9999 -9999 -9999 -9999 -9999 -9999 -9999 -9999 -9999 -9999 -9999 -9999 -9999 -9999 -9999 -9999 -9999 -9999 -9999 -9999 -9999 -9999 -9999 -9999 -9999 -9999 -9999 -9999 -9999 -9999 -9999 -9999 -9999 -9999 -9999 -9999 -9999 -9999 -9999 -9999 -9999 -9999 -9999 -9999 -9999 -9999 -9999 -9999 -9999 -9999 -9999 -9999 -9999 -9999 -9999 
-9999 -9999 -9999 -9999 -9999 -9999 -9999 -9999 -9999 -9999 -9999 -9999 -9999 -9999 -9999 -9999 25.223081588745117188 26.444606781005859375 27.346548080444335938 25.748811721801757812 26.408941268920898438 25.905691146850585938 25.029554367065429688 20.8040008544921875 20.036523818969726562 24.625448226928710938 28.3365936279296875 27.764984130859375 29.14810943603515625 27.16521453857421875 27.043107986450195312 26.103588104248046875 20.494161605834960938 -9999 -9999 -9999 -9999 -9999 -9999 -9999 -9999 -9999 -9999 -9999 -9999 -9999 -9999 -9999 -9999 -9999 -9999 -9999 -9999 -9999 -9999 -9999 -9999 -9999 -9999 -9999 -9999 -9999 -9999 -9999 -9999 -9999 -9999 -9999 -9999 -9999 -9999 -9999 -9999 -9999 -9999 -9999 -9999 -9999 -9999 -9999 -9999 -9999 -9999 -9999 -9999 -9999 -9999 -9999 -9999 -9999 -9999 -9999 -9999 -9999 -9999 -9999 -9999 -9999 -9999 -9999 -9999 
-9999 -9999 -9999 -9999 -9999 -9999 -9999 -9999 -9999 -9999 -9999 -9999 -9999 -9999 -9999 -9999 29.707555770874023438 28.546297073364257812 25.036180496215820312 25.80258941650390625 27.468242645263671875 24.334970474243164062 21.249378204345703125 21.847759246826171875 24.550037384033203125 28.206096649169921875 33.12882232666015625 34.99401092529296875 28.35633087158203125 22.0517120361328125 19.675989151000976562 25.652957916259765625 22.947118759155273438 24.671100616455078125 -9999 -9999 -9999 -9999 -9999 -9999 -9999 -9999 -9999 -9999 -9999 -9999 -9999 -9999 -9999 -9999 -9999 -9999 -9999 -9999 -9999 -9999 -9999 -9999 -9999 -9999 -9999 -9999 -9999 -9999 -9999 -9999 -9999 -9999 -9999 -9999 -9999 -9999 -9999 -9999 -9999 -9999 -9999 -9999 -9999 -9999 -9999 -9999 -9999 -9999 -9999 -9999 -9999 -9999 -9999 -9999 -9999 -9999 -9999 -9999 -9999 -9999 -9999 -9999 -9999 -9999 -9999 
-9999 -9999 -9999 -9999 -9999 -9999 -9999 -9999 -9999 -9999 -9999 -9999 -9999 -9999 -9999 -9999 25.285900115966796875 28.27764892578125 27.119207382202148438 26.239950180053710938 26.743562698364257812 20.868694305419921875 21.51739501953125 21.704837799072265625 25.86624908447265625 28.619310379028320312 32.80422210693359375 30.393396377563476562 25.745517730712890625 24.568058013916015625 22.651638031005859375 23.588134765625 20.77945709228515625 22.075176239013671875 24.358001708984375 -9999 -9999 -9999 -9999 -9999 -9999 -9999 -9999 -9999 -9999 -9999 -9999 -9999 -9999 -9999 -9999 -9999 -9999 -9999 -9999 -9999 -9999 -9999 -9999 -9999 -9999 -9999 -9999 -9999 -9999 -9999 -9999 -9999 -9999 -9999 -9999 -9999 -9999 -9999 -9999 -9999 -9999 -9999 -9999 -9999 -9999 -9999 -9999 -9999 -9999 -9999 -9999 -9999 -9999 -9999 -9999 -9999 -9999 -9999 -9999 -9999 -9999 -9999 -9999 -9999 -9999 
-9999 -9999 -9999 -9999 -9999 -9999 -9999 -9999 -9999 -9999 -9999 -9999 -9999 -9999 -9999 24.5219268798828125 24.322193145751953125 25.595262527465820312 25.412405014038085938 25.684350967407226562 26.093975067138671875 26.012945175170898438 23.97275543212890625 27.368215560913085938 26.201564788818359375 24.420278549194335938 29.91161346435546875 32.08954620361328125 29.175710678100585938 27.664865493774414062 26.2504119873046875 22.246248245239257812 19.740482330322265625 22.659902572631835938 23.476102828979492188 22.202236175537109375 20.498775482177734375 -9999 -9999 -9999 -9999 -9999 -9999 -9999 -9999 -9999 -9999 -9999 -9999 -9999 -9999 -9999 -9999 -9999 -9999 -9999 -9999 -9999 -9999 -9999 -9999 -9999 -9999 -9999 -9999 -9999 -9999 -9999 -9999 -9999 -9999 -9999 -9999 -9999 -9999 -9999 -9999 -9999 -9999 -9999 -9999 -9999 -9999 -9999 -9999 -9999 -9999 -9999 -9999 -9999 -9999 -9999 -9999 -9999 -9999 -9999 -9999 -9999 -9999 -9999 -9999 
-9999 -9999 -9999 -9999 -9999 -9999 -9999 -9999 -9999 -9999 -9999 -9999 -9999 -9999 -9999 19.75341796875 23.905834197998046875 28.6962127685546875 27.007585525512695312 24.421049118041992188 26.527172088623046875 33.385410308837890625 28.919801712036132812 23.393629074096679688 26.049234390258789062 25.274377822875976562 27.578218460083007812 27.50331878662109375 30.475061416625976562 26.842336654663085938 26.303333282470703125 23.719104766845703125 25.04244232177734375 23.286935806274414062 22.269458770751953125 22.35941314697265625 23.559373855590820312 21.114894866943359375 18.739849090576171875 14.032139778137207031 14.152797698974609375 -9999 -9999 -9999 -9999 -9999 -9999 -9999 -9999 -9999 -9999 -9999 -9999 -9999 -9999 -9999 -9999 -9999 -9999 -9999 -9999 -9999 -9999 -9999 -9999 -9999 -9999 -9999 -9999 -9999 -9999 -9999 -9999 -9999 -9999 -9999 -9999 -9999 -9999 -9999 -9999 -9999 -9999 -9999 -9999 -9999 -9999 -9999 -9999 -9999 -9999 -9999 -9999 -9999 -9999 -9999 -9999 -9999 -9999 -9999 -9999 
-9999 -9999 -9999 -9999 -9999 -9999 -9999 -9999 -9999 -9999 -9999 -9999 -9999 -9999 25.303415298461914062 24.066650390625 23.933404922485351562 26.657970428466796875 30.934072494506835938 28.877286911010742188 32.4879302978515625 36.65761566162109375 35.526149749755859375 26.587781906127929688 25.82305908203125 27.6343994140625 28.619907379150390625 27.158723831176757812 24.782720565795898438 22.82741546630859375 25.54106903076171875 26.537282943725585938 27.012163162231445312 22.986700057983398438 23.575384140014648438 22.637182235717773438 24.17119598388671875 23.976221084594726562 21.918798446655273438 15.611399650573730469 16.226715087890625 -9999 -9999 -9999 -9999 -9999 -9999 -9999 -9999 -9999 -9999 -9999 -9999 -9999 -9999 -9999 -9999 -9999 -9999 -9999 -9999 -9999 -9999 -9999 -9999 -9999 -9999 -9999 -9999 -9999 -9999 -9999 -9999 -9999 -9999 -9999 -9999 -9999 -9999 -9999 -9999 -9999 -9999 -9999 -9999 -9999 -9999 -9999 -9999 -9999 -9999 -9999 -9999 -9999 -9999 -9999 -9999 -9999 -9999 -9999 -9999 
-9999 -9999 -9999 -9999 -9999 -9999 -9999 -9999 -9999 -9999 -9999 -9999 -9999 22.061231613159179688 25.513885498046875 25.73270416259765625 26.069036483764648438 27.345705032348632812 35.16278076171875 34.601406097412109375 35.9711151123046875 32.558612823486328125 34.723388671875 28.774881362915039062 24.554779052734375 27.758531570434570312 28.954692840576171875 26.894519805908203125 24.9283599853515625 25.8783111572265625 23.744373321533203125 25.144273757934570312 23.10009765625 20.406114578247070312 21.896854400634765625 22.64434051513671875 24.012929916381835938 22.749822616577148438 21.078824996948242188 18.447290420532226562 17.478122711181640625 14.293626785278320312 -9999 -9999 -9999 -9999 -9999 -9999 -9999 -9999 -9999 -9999 -9999 -9999 -9999 -9999 -9999 -9999 -9999 -9999 -9999 -9999 -9999 -9999 -9999 -9999 -9999 -9999 -9999 -9999 -9999 -9999 -9999 -9999 -9999 -9999 -9999 -9999 -9999 -9999 -9999 -9999 -9999 -9999 -9999 -9999 -9999 -9999 -9999 -9999 -9999 -9999 -9999 -9999 -9999 -9999 -9999 -9999 -9999 -9999 -9999 
-9999 -9999 -9999 -9999 -9999 -9999 -9999 -9999 -9999 -9999 -9999 -9999 20.197759628295898438 19.813312530517578125 22.0199737548828125 22.266504287719726562 22.530942916870117188 22.423818588256835938 35.354114532470703125 34.900966644287109375 32.286945343017578125 33.189971923828125 31.85889434814453125 24.113506317138671875 21.302286148071289062 24.165559768676757812 26.977258682250976562 27.271081924438476562 28.460611343383789062 28.5651092529296875 23.78948974609375 20.563701629638671875 17.780149459838867188 18.921590805053710938 23.496829986572265625 21.100564956665039062 16.077243804931640625 16.716028213500976562 21.361383438110351562 22.626804351806640625 15.904176712036132812 19.3067169189453125 -9999 -9999 -9999 -9999 -9999 -9999 -9999 -9999 -9999 -9999 -9999 -9999 -9999 -9999 -9999 -9999 -9999 -9999 -9999 -9999 -9999 -9999 -9999 -9999 -9999 -9999 -9999 -9999 -9999 -9999 -9999 -9999 -9999 -9999 -9999 -9999 -9999 -9999 -9999 -9999 -9999 -9999 -9999 -9999 -9999 -9999 -9999 -9999 -9999 -9999 -9999 -9999 -9999 -9999 -9999 -9999 -9999 -9999 -9999 
-9999 -9999 -9999 -9999 -9999 -9999 -9999 -9999 -9999 -9999 13.509599685668945312 19.09838104248046875 17.9665069580078125 24.08429718017578125 28.9768829345703125 27.3470916748046875 25.416011810302734375 25.202863693237304688 32.191150665283203125 30.374570846557617188 30.721979141235351562 26.633115768432617188 24.497083663940429688 21.092700958251953125 20.614843368530273438 20.68482208251953125 27.539896011352539062 27.857992172241210938 30.868038177490234375 28.508853912353515625 23.556283950805664062 18.010301589965820312 18.5924835205078125 20.94753265380859375 21.407205581665039062 23.901308059692382812 17.130756378173828125 15.473454475402832031 18.7239532470703125 20.459638595581054688 17.389209747314453125 18.507143020629882812 -9999 -9999 -9999 -9999 -9999 -9999 -9999 -9999 -9999 -9999 -9999 -9999 -9999 -9999 -9999 -9999 -9999 -9999 -9999 -9999 -9999 -9999 -9999 -9999 -9999 -9999 -9999 -9999 -9999 -9999 -9999 -9999 -9999 -9999 -9999 -9999 -9999 -9999 -9999 -9999 -9999 -9999 -9999 -9999 -9999 -9999 -9999 -9999 -9999 -9999 -9999 -9999 -9999 -9999 -9999 -9999 -9999 -9999 -9999 
-9999 -9999 -9999 -9999 -9999 -9999 -9999 15.850984573364257812 11.635675430297851562 16.612842559814453125 23.054264068603515625 24.685811996459960938 22.524583816528320312 20.473934173583984375 26.397264480590820312 28.185455322265625 27.936513900756835938 25.55998992919921875 24.633459091186523438 25.807104110717773438 25.895656585693359375 21.971445083618164062 24.169347763061523438 19.324588775634765625 20.263307571411132812 20.01515960693359375 21.983953475952148438 24.033971786499023438 27.461765289306640625 27.010496139526367188 23.577444076538085938 16.948934555053710938 17.289127349853515625 22.019838333129882812 22.308200836181640625 27.358472824096679688 19.812747955322265625 15.453667640686035156 17.226980209350585938 19.494541168212890625 17.207708358764648438 -9999 -9999 -9999 -9999 -9999 -9999 -9999 -9999 -9999 -9999 -9999 -9999 -9999 -9999 -9999 -9999 -9999 -9999 -9999 -9999 -9999 -9999 -9999 -9999 -9999 -9999 -9999 -9999 -9999 -9999 -9999 -9999 -9999 -9999 -9999 -9999 -9999 -9999 -9999 -9999 -9999 -9999 -9999 -9999 -9999 -9999 -9999 -9999 -9999 -9999 -9999 -9999 -9999 -9999 -9999 -9999 -9999 -9999 -9999 -9999 
-9999 -9999 -9999 -9999 -9999 -9999 16.200174331665039062 22.299144744873046875 21.247865676879882812 21.5361328125 24.351057052612304688 25.766448974609375 24.70819091796875 23.131761550903320312 21.933992385864257812 27.777927398681640625 29.1190185546875 27.097730636596679688 25.466449737548828125 21.847406387329101562 20.854982376098632812 23.8816070556640625 25.966196060180664062 18.428911209106445312 21.076311111450195312 24.812257766723632812 23.427225112915039062 22.215330123901367188 23.262500762939453125 27.459108352661132812 23.955766677856445312 20.68628692626953125 15.559747695922851562 17.95954132080078125 23.635099411010742188 22.878204345703125 18.527975082397460938 17.138441085815429688 14.880123138427734375 19.18788909912109375 16.842325210571289062 -9999 -9999 -9999 -9999 -9999 -9999 -9999 -9999 -9999 -9999 -9999 -9999 -9999 -9999 -9999 -9999 -9999 -9999 -9999 -9999 -9999 -9999 -9999 -9999 -9999 -9999 -9999 -9999 -9999 -9999 -9999 -9999 -9999 -9999 -9999 -9999 -9999 -9999 -9999 -9999 -9999 -9999 -9999 -9999 -9999 -9999 -9999 -9999 -9999 -9999 -9999 -9999 -9999 -9999 -9999 -9999 -9999 -9999 -9999 -9999 
-9999 -9999 -9999 -9999 15.36223602294921875 15.835837364196777344 14.774555206298828125 23.325056076049804688 22.132673263549804688 19.928375244140625 21.726446151733398438 22.356805801391601562 21.204257965087890625 23.966449737548828125 18.456775665283203125 28.56407928466796875 31.9351654052734375 27.788404464721679688 24.991487503051757812 23.388790130615234375 23.719379425048828125 26.437887191772460938 24.985105514526367188 17.643466949462890625 19.577493667602539062 23.4515228271484375 26.928920745849609375 27.2193756103515625 23.3471527099609375 23.67345428466796875 22.382200241088867188 19.9748687744140625 18.89806365966796875 17.634130477905273438 20.697784423828125 18.884777069091796875 15.053518295288085938 17.403509140014648438 17.230937957763671875 19.78008270263671875 14.070704460144042969 -9999 -9999 -9999 -9999 -9999 -9999 -9999 -9999 -9999 -9999 -9999 -9999 -9999 -9999 -9999 -9999 -9999 -9999 -9999 -9999 -9999 -9999 -9999 -9999 -9999 -9999 -9999 -9999 -9999 -9999 -9999 -9999 -9999 -9999 -9999 -9999 -9999 -9999 -9999 -9999 -9999 -9999 -9999 -9999 -9999 -9999 -9999 -9999 -9999 -9999 -9999 -9999 -9999 -9999 -9999 -9999 -9999 -9999 -9999 -9999 
-9999 -9999 -9999 -9999 20.950420379638671875 22.483692169189453125 18.60800933837890625 24.926763534545898438 24.144382476806640625 21.310518264770507812 21.946794509887695312 22.6674957275390625 22.045347213745117188 23.156240463256835938 20.608243942260742188 21.303630828857421875 25.416971206665039062 24.358633041381835938 21.102140426635742188 24.095233917236328125 26.005214691162109375 23.311004638671875 20.230503082275390625 19.655426025390625 19.150028228759765625 21.325122833251953125 24.986629486083984375 29.061283111572265625 25.090206146240234375 19.2839202880859375 18.914396286010742188 22.166606903076171875 21.237659454345703125 20.449625015258789062 20.8243865966796875 18.318277359008789062 17.140438079833984375 15.771100044250488281 18.377925872802734375 16.553462982177734375 -9999 -9999 -9999 -9999 -9999 -9999 -9999 -9999 -9999 -9999 -9999 -9999 -9999 -9999 -9999 -9999 -9999 -9999 -9999 -9999 -9999 -9999 -9999 -9999 -9999 -9999 -9999 -9999 -9999 -9999 -9999 -9999 -9999 -9999 -9999 -9999 -9999 -9999 -9999 -9999 -9999 -9999 -9999 -9999 -9999 -9999 -9999 -9999 -9999 -9999 -9999 -9999 -9999 -9999 -9999 -9999 -9999 -9999 -9999 -9999 -9999 
-9999 -9999 -9999 -9999 21.27384185791015625 22.888883590698242188 24.729091644287109375 25.388330459594726562 25.843296051025390625 27.94890594482421875 24.955892562866210938 24.310224533081054688 22.531030654907226562 22.16890716552734375 22.944103240966796875 21.515733718872070312 19.65802001953125 20.889406204223632812 23.116403579711914062 26.009967803955078125 23.241617202758789062 21.006256103515625 20.404035568237304688 20.43604278564453125 17.725774765014648438 18.106805801391601562 15.092587471008300781 18.34996795654296875 20.463670730590820312 19.893655776977539062 17.212139129638671875 17.284023284912109375 19.694532394409179688 19.592859268188476562 20.302463531494140625 17.733123779296875 17.395162582397460938 17.904100418090820312 18.381010055541992188 16.727685928344726562 -9999 -9999 -9999 -9999 -9999 -9999 -9999 -9999 -9999 -9999 -9999 -9999 -9999 -9999 -9999 -9999 -9999 -9999 -9999 -9999 -9999 -9999 -9999 -9999 -9999 -9999 -9999 -9999 -9999 -9999 -9999 -9999 -9999 -9999 -9999 -9999 -9999 -9999 -9999 -9999 -9999 -9999 -9999 -9999 -9999 -9999 -9999 -9999 -9999 -9999 -9999 -9999 -9999 -9999 -9999 -9999 -9999 -9999 -9999 -9999 -9999 
-9999 -9999 9.9407806396484375 13.140557289123535156 19.967329025268554688 21.288309097290039062 23.685865402221679688 24.538516998291015625 23.500139236450195312 23.5513153076171875 24.2591094970703125 22.20230865478515625 20.048326492309570312 16.969755172729492188 20.475650787353515625 24.065431594848632812 22.44724273681640625 22.342977523803710938 22.624416351318359375 23.394876480102539062 23.69307708740234375 23.827760696411132812 24.814502716064453125 21.502361297607421875 21.108663558959960938 24.177171707153320312 16.935161590576171875 18.615171432495117188 22.755044937133789062 20.067083358764648438 19.034381866455078125 19.024553298950195312 17.270771026611328125 16.647680282592773438 17.4202423095703125 17.784481048583984375 17.3466796875 17.701726913452148438 19.46035003662109375 -9999 -9999 -9999 -9999 -9999 -9999 -9999 -9999 -9999 -9999 -9999 -9999 -9999 -9999 -9999 -9999 -9999 -9999 -9999 -9999 -9999 -9999 -9999 -9999 -9999 -9999 -9999 -9999 -9999 -9999 -9999 -9999 -9999 -9999 -9999 -9999 -9999 -9999 -9999 -9999 -9999 -9999 -9999 -9999 -9999 -9999 -9999 -9999 -9999 -9999 -9999 -9999 -9999 -9999 -9999 -9999 -9999 -9999 -9999 -9999 -9999 -9999 
-9999 -9999 13.573327064514160156 14.493196487426757812 24.8997955322265625 27.31439971923828125 25.300176620483398438 20.67226409912109375 21.232240676879882812 22.2442626953125 22.53656005859375 20.08715057373046875 22.1119842529296875 16.876621246337890625 19.539121627807617188 24.965715408325195312 24.104711532592773438 25.97802734375 22.866413116455078125 19.202239990234375 20.049694061279296875 20.949041366577148438 21.66548919677734375 25.334697723388671875 26.73148345947265625 24.209611892700195312 20.562257766723632812 15.976129531860351562 17.470813751220703125 21.995229721069335938 21.4444427490234375 18.81722259521484375 17.329494476318359375 12.620612144470214844 8.802768707275390625 14.814298629760742188 14.160356521606445312 18.33069610595703125 -9999 -9999 -9999 -9999 -9999 -9999 -9999 -9999 -9999 -9999 -9999 -9999 -9999 -9999 -9999 -9999 -9999 -9999 -9999 -9999 -9999 -9999 -9999 -9999 -9999 -9999 -9999 -9999 -9999 -9999 -9999 -9999 -9999 -9999 -9999 -9999 -9999 -9999 -9999 -9999 -9999 -9999 -9999 -9999 -9999 -9999 -9999 -9999 -9999 -9999 -9999 -9999 -9999 -9999 -9999 -9999 -9999 -9999 -9999 -9999 -9999 -9999 -9999 
16.21889495849609375 14.745458602905273438 16.382358551025390625 16.28964996337890625 18.171581268310546875 17.6141204833984375 -9999 20.055889129638671875 17.971864700317382812 17.7906951904296875 19.14435577392578125 18.5356597900390625 21.787151336669921875 22.648410797119140625 23.75539398193359375 22.0629730224609375 18.355401992797851562 20.860836029052734375 25.872039794921875 19.116191864013671875 18.650854110717773438 18.456922531127929688 16.61975860595703125 17.175281524658203125 22.458728790283203125 23.12416839599609375 20.8375396728515625 18.281087875366210938 20.117433547973632812 22.711578369140625 16.675394058227539062 11.666103363037109375 12.768591880798339844 15.718816757202148438 15.591876029968261719 17.263751983642578125 20.704784393310546875 21.224559783935546875 -9999 -9999 -9999 -9999 -9999 -9999 -9999 -9999 -9999 -9999 -9999 -9999 -9999 -9999 -9999 -9999 -9999 -9999 -9999 -9999 -9999 -9999 -9999 -9999 -9999 -9999 -9999 -9999 -9999 -9999 -9999 -9999 -9999 -9999 -9999 -9999 -9999 -9999 -9999 -9999 -9999 -9999 -9999 -9999 -9999 -9999 -9999 -9999 -9999 -9999 -9999 -9999 -9999 -9999 -9999 -9999 -9999 -9999 -9999 -9999 -9999 -9999 -9999 
-9999 13.94472503662109375 15.545465469360351562 16.203786849975585938 -9999 -9999 -9999 -9999 18.158559799194335938 16.863458633422851562 17.8314361572265625 23.517618179321289062 24.382577896118164062 27.597364425659179688 23.525691986083984375 19.80519866943359375 16.831941604614257812 17.625713348388671875 23.717988967895507812 20.463047027587890625 21.645374298095703125 15.725038528442382812 20.956571578979492188 23.427766799926757812 16.569927215576171875 19.279977798461914062 18.247823715209960938 16.245849609375 15.504659652709960938 16.304639816284179688 15.342993736267089844 15.299032211303710938 21.935085296630859375 25.89644622802734375 23.39101409912109375 22.474395751953125 23.66011810302734375 -9999 -9999 -9999 -9999 -9999 -9999 -9999 -9999 -9999 -9999 -9999 -9999 -9999 -9999 -9999 -9999 -9999 -9999 -9999 -9999 -9999 -9999 -9999 -9999 -9999 -9999 -9999 -9999 -9999 -9999 -9999 -9999 -9999 -9999 -9999 -9999 -9999 -9999 -9999 -9999 -9999 -9999 -9999 -9999 -9999 -9999 -9999 -9999 -9999 -9999 -9999 -9999 -9999 -9999 -9999 -9999 -9999 -9999 -9999 -9999 -9999 -9999 -9999 -9999 
-9999 -9999 -9999 -9999 -9999 -9999 -9999 -9999 -9999 -9999 18.878082275390625 21.026592254638671875 25.40459442138671875 24.208507537841796875 22.157123565673828125 19.983476638793945312 16.880811691284179688 19.28083038330078125 24.148105621337890625 24.328107833862304688 23.80655670166015625 23.540004730224609375 25.053630828857421875 20.410741806030273438 12.679994583129882812 12.4782562255859375 11.285458564758300781 14.962640762329101562 19.889352798461914062 23.804910659790039062 25.49050140380859375 24.347448348999023438 22.094707489013671875 19.364727020263671875 16.367029190063476562 17.283771514892578125 21.471782684326171875 -9999 -9999 -9999 -9999 -9999 -9999 -9999 -9999 -9999 -9999 -9999 -9999 -9999 -9999 -9999 -9999 -9999 -9999 -9999 -9999 -9999 -9999 -9999 -9999 -9999 -9999 -9999 -9999 -9999 -9999 -9999 -9999 -9999 -9999 -9999 -9999 -9999 -9999 -9999 -9999 -9999 -9999 -9999 -9999 -9999 -9999 -9999 -9999 -9999 -9999 -9999 -9999 -9999 -9999 -9999 -9999 -9999 -9999 -9999 -9999 -9999 -9999 -9999 -9999 
-9999 -9999 -9999 -9999 -9999 -9999 -9999 -9999 -9999 -9999 -9999 24.452459335327148438 23.220996856689453125 23.40352630615234375 22.412441253662109375 19.091075897216796875 18.8033294677734375 25.110748291015625 24.526397705078125 21.073205947875976562 22.865558624267578125 23.876834869384765625 22.3290863037109375 18.61664581298828125 16.319133758544921875 18.840822219848632812 21.2046051025390625 18.618661880493164062 19.907602310180664062 22.736591339111328125 20.8800048828125 17.735593795776367188 18.163543701171875 15.727846145629882812 15.875634193420410156 14.373960494995117188 17.898883819580078125 20.577283859252929688 -9999 -9999 -9999 -9999 -9999 -9999 -9999 -9999 -9999 -9999 -9999 -9999 -9999 -9999 -9999 -9999 -9999 -9999 -9999 -9999 -9999 -9999 -9999 -9999 -9999 -9999 -9999 -9999 -9999 -9999 -9999 -9999 -9999 -9999 -9999 -9999 -9999 -9999 -9999 -9999 -9999 -9999 -9999 -9999 -9999 -9999 -9999 -9999 -9999 -9999 -9999 -9999 -9999 -9999 -9999 -9999 -9999 -9999 -9999 -9999 -9999 -9999 -9999 
-9999 -9999 -9999 -9999 -9999 -9999 -9999 -9999 -9999 -9999 23.197156906127929688 22.6965789794921875 20.523786544799804688 24.758993148803710938 21.934816360473632812 17.572265625 14.0596160888671875 19.559499740600585938 23.422369003295898438 18.57781219482421875 21.477510452270507812 25.9228973388671875 23.052873611450195312 16.281719207763671875 22.365240097045898438 28.191438674926757812 27.851430892944335938 23.004507064819335938 24.611970901489257812 21.999383926391601562 18.598897933959960938 15.419894218444824219 14.251122474670410156 19.477313995361328125 18.996397018432617188 15.990694999694824219 15.766818046569824219 14.538629531860351562 -9999 -9999 -9999 -9999 -9999 -9999 -9999 -9999 -9999 -9999 -9999 -9999 -9999 -9999 -9999 -9999 -9999 -9999 -9999 -9999 -9999 -9999 -9999 -9999 -9999 -9999 -9999 -9999 -9999 -9999 -9999 -9999 -9999 -9999 -9999 -9999 -9999 -9999 -9999 -9999 -9999 -9999 -9999 -9999 -9999 -9999 -9999 -9999 -9999 -9999 -9999 -9999 -9999 -9999 -9999 -9999 -9999 -9999 -9999 -9999 -9999 -9999 -9999 
-9999 -9999 -9999 -9999 -9999 -9999 -9999 -9999 -9999 -9999 18.464712142944335938 20.95066070556640625 25.348222732543945312 28.466367721557617188 28.679689407348632812 25.808429718017578125 23.482118606567382812 22.740343093872070312 21.14844512939453125 20.673580169677734375 22.09645843505859375 24.85671234130859375 21.80487823486328125 25.645551681518554688 28.6112518310546875 29.415515899658203125 26.127918243408203125 27.827880859375 23.82403564453125 19.324474334716796875 18.394239425659179688 18.753698348999023438 16.451898574829101562 18.267858505249023438 22.545368194580078125 21.76851654052734375 16.224420547485351562 -9999 -9999 -9999 -9999 -9999 -9999 -9999 -9999 -9999 -9999 -9999 -9999 -9999 -9999 -9999 -9999 -9999 -9999 -9999 -9999 -9999 -9999 -9999 -9999 -9999 -9999 -9999 -9999 -9999 -9999 -9999 -9999 -9999 -9999 -9999 -9999 -9999 -9999 -9999 -9999 -9999 -9999 -9999 -9999 -9999 -9999 -9999 -9999 -9999 -9999 -9999 -9999 -9999 -9999 -9999 -9999 -9999 -9999 -9999 -9999 -9999 -9999 -9999 -9999 
-9999 -9999 -9999 -9999 -9999 -9999 -9999 -9999 -9999 19.448253631591796875 22.201412200927734375 24.112140655517578125 25.61354827880859375 27.611846923828125 28.884840011596679688 29.850009918212890625 30.753526687622070312 26.407941818237304688 25.43556976318359375 27.216474533081054688 25.683719635009765625 24.802804946899414062 21.841321945190429688 23.002826690673828125 23.994869232177734375 23.516231536865234375 20.025140762329101562 18.27465057373046875 18.492717742919921875 17.984834671020507812 20.660547256469726562 21.21739959716796875 22.044511795043945312 22.121334075927734375 23.897686004638671875 17.474117279052734375 -9999 -9999 -9999 -9999 -9999 -9999 -9999 -9999 -9999 -9999 -9999 -9999 -9999 -9999 -9999 -9999 -9999 -9999 -9999 -9999 -9999 -9999 -9999 -9999 -9999 -9999 -9999 -9999 -9999 -9999 -9999 -9999 -9999 -9999 -9999 -9999 -9999 -9999 -9999 -9999 -9999 -9999 -9999 -9999 -9999 -9999 -9999 -9999 -9999 -9999 -9999 -9999 -9999 -9999 -9999 -9999 -9999 -9999 -9999 -9999 -9999 -9999 -9999 -9999 -9999 
-9999 -9999 -9999 -9999 -9999 -9999 -9999 -9999 -9999 23.61498260498046875 23.882232666015625 24.972990036010742188 25.925323486328125 25.4689483642578125 25.1768798828125 26.031610488891601562 28.635833740234375 27.55736541748046875 25.895601272583007812 29.14034271240234375 30.279857635498046875 29.091703414916992188 29.041812896728515625 25.407726287841796875 23.889661788940429688 25.717027664184570312 21.327135086059570312 22.207902908325195312 22.116586685180664062 23.171047210693359375 23.22509002685546875 22.126049041748046875 23.990383148193359375 23.108911514282226562 19.851903915405273438 11.616450309753417969 -9999 -9999 -9999 -9999 -9999 -9999 -9999 -9999 -9999 -9999 -9999 -9999 -9999 -9999 -9999 -9999 -9999 -9999 -9999 -9999 -9999 -9999 -9999 -9999 -9999 -9999 -9999 -9999 -9999 -9999 -9999 -9999 -9999 -9999 -9999 -9999 -9999 -9999 -9999 -9999 -9999 -9999 -9999 -9999 -9999 -9999 -9999 -9999 -9999 -9999 -9999 -9999 -9999 -9999 -9999 -9999 -9999 -9999 -9999 -9999 -9999 -9999 -9999 -9999 -9999 
-9999 -9999 -9999 -9999 -9999 -9999 -9999 -9999 -9999 23.785308837890625 23.501401901245117188 24.520864486694335938 24.045038223266601562 23.279615402221679688 23.84810638427734375 24.533893585205078125 27.6671142578125 29.898193359375 25.774824142456054688 27.892765045166015625 27.074907302856445312 24.346837997436523438 25.007650375366210938 28.229383468627929688 25.802335739135742188 24.15924072265625 22.490476608276367188 23.540130615234375 22.752634048461914062 21.480123519897460938 22.184965133666992188 20.915924072265625 19.830129623413085938 17.091268539428710938 13.91053009033203125 12.036971092224121094 -9999 -9999 -9999 -9999 -9999 -9999 -9999 -9999 -9999 -9999 -9999 -9999 -9999 -9999 -9999 -9999 -9999 -9999 -9999 -9999 -9999 -9999 -9999 -9999 -9999 -9999 -9999 -9999 -9999 -9999 -9999 -9999 -9999 -9999 -9999 -9999 -9999 -9999 -9999 -9999 -9999 -9999 -9999 -9999 -9999 -9999 -9999 -9999 -9999 -9999 -9999 -9999 -9999 -9999 -9999 -9999 -9999 -9999 -9999 -9999 -9999 -9999 -9999 -9999 -9999 
-9999 -9999 -9999 -9999 -9999 -9999 -9999 -9999 17.259660720825195312 17.080244064331054688 17.004467010498046875 17.587903976440429688 16.610569000244140625 16.981801986694335938 17.865993499755859375 21.851581573486328125 23.187616348266601562 24.39105224609375 24.161943435668945312 26.105121612548828125 26.03542327880859375 25.604404449462890625 26.199350357055664062 25.217451095581054688 23.88301849365234375 23.439775466918945312 22.217252731323242188 22.547534942626953125 18.851388931274414062 19.786256790161132812 18.494470596313476562 14.150824546813964844 13.806794166564941406 17.768184661865234375 19.902620315551757812 -9999 -9999 -9999 -9999 -9999 -9999 -9999 -9999 -9999 -9999 -9999 -9999 -9999 -9999 -9999 -9999 -9999 -9999 -9999 -9999 -9999 -9999 -9999 -9999 -9999 -9999 -9999 -9999 -9999 -9999 -9999 -9999 -9999 -9999 -9999 -9999 -9999 -9999 -9999 -9999 -9999 -9999 -9999 -9999 -9999 -9999 -9999 -9999 -9999 -9999 -9999 -9999 -9999 -9999 -9999 -9999 -9999 -9999 -9999 -9999 -9999 -9999 -9999 -9999 -9999 -9999 
-9999 -9999 -9999 -9999 -9999 -9999 -9999 -9999 -9999 19.04740142822265625 19.29180145263671875 19.269762039184570312 18.185642242431640625 17.396734237670898438 15.971041679382324219 19.456865310668945312 20.283763885498046875 20.21091461181640625 16.220279693603515625 18.88478851318359375 22.62319183349609375 21.96733856201171875 23.666784286499023438 22.12390899658203125 17.462642669677734375 19.050968170166015625 17.908229827880859375 18.745718002319335938 16.5514984130859375 13.479175567626953125 11.430547714233398438 13.058038711547851562 16.711811065673828125 21.704511642456054688 -9999 -9999 -9999 -9999 -9999 -9999 -9999 -9999 -9999 -9999 -9999 -9999 -9999 -9999 -9999 -9999 -9999 -9999 -9999 -9999 -9999 -9999 -9999 -9999 -9999 -9999 -9999 -9999 -9999 -9999 -9999 -9999 -9999 -9999 -9999 -9999 -9999 -9999 -9999 -9999 -9999 -9999 -9999 -9999 -9999 -9999 -9999 -9999 -9999 -9999 -9999 -9999 -9999 -9999 -9999 -9999 -9999 -9999 -9999 -9999 -9999 -9999 -9999 -9999 -9999 -9999 -9999 
-9999 -9999 -9999 -9999 -9999 -9999 -9999 -9999 -9999 19.51415252685546875 19.299560546875 18.546075820922851562 18.341304779052734375 16.941608428955078125 15.718992233276367188 16.82266998291015625 19.726467132568359375 20.35223388671875 17.680131912231445312 18.439352035522460938 21.883661270141601562 20.581903457641601562 20.909885406494140625 19.963994979858398438 17.424528121948242188 18.414272308349609375 18.036680221557617188 13.131422996520996094 10.166303634643554688 12.251421928405761719 18.4231109619140625 22.686946868896484375 22.687116622924804688 21.976442337036132812 -9999 -9999 -9999 -9999 -9999 -9999 -9999 -9999 -9999 -9999 -9999 -9999 -9999 -9999 -9999 -9999 -9999 -9999 -9999 -9999 -9999 -9999 -9999 -9999 -9999 -9999 -9999 -9999 -9999 -9999 -9999 -9999 -9999 -9999 -9999 -9999 -9999 -9999 -9999 -9999 -9999 -9999 -9999 -9999 -9999 -9999 -9999 -9999 -9999 -9999 -9999 -9999 -9999 -9999 -9999 -9999 -9999 -9999 -9999 -9999 -9999 -9999 -9999 -9999 -9999 -9999 -9999 
-9999 -9999 -9999 -9999 -9999 -9999 -9999 -9999 -9999 16.702852249145507812 17.833681106567382812 18.382112503051757812 18.961771011352539062 18.629610061645507812 17.490606307983398438 15.562527656555175781 15.264214515686035156 14.984141349792480469 14.502336502075195312 18.973255157470703125 20.229015350341796875 19.598569869995117188 19.78035736083984375 18.904247283935546875 18.39461517333984375 16.1140289306640625 13.559217453002929688 9.8253536224365234375 14.039576530456542969 19.553922653198242188 21.758798599243164062 22.323396682739257812 20.029672622680664062 19.072874069213867188 -9999 -9999 -9999 -9999 -9999 -9999 -9999 -9999 -9999 -9999 -9999 -9999 -9999 -9999 -9999 -9999 -9999 -9999 -9999 -9999 -9999 -9999 -9999 -9999 -9999 -9999 -9999 -9999 -9999 -9999 -9999 -9999 -9999 -9999 -9999 -9999 -9999 -9999 -9999 -9999 -9999 -9999 -9999 -9999 -9999 -9999 -9999 -9999 -9999 -9999 -9999 -9999 -9999 -9999 -9999 -9999 -9999 -9999 -9999 -9999 -9999 -9999 -9999 -9999 -9999 -9999 -9999 
-9999 -9999 -9999 -9999 -9999 -9999 -9999 -9999 -9999 23.506193161010742188 21.276214599609375 20.992811203002929688 19.059389114379882812 19.755254745483398438 19.378612518310546875 17.049333572387695312 17.413116455078125 17.905086517333984375 11.486736297607421875 14.340244293212890625 15.980866432189941406 16.66931915283203125 16.464086532592773438 14.23614501953125 14.167974472045898438 14.366697311401367188 18.10990142822265625 19.088655471801757812 16.006376266479492188 15.625956535339355469 17.645940780639648438 16.995927810668945312 16.734209060668945312 17.49773406982421875 -9999 -9999 -9999 -9999 -9999 -9999 -9999 -9999 -9999 -9999 -9999 -9999 -9999 -9999 -9999 -9999 -9999 -9999 -9999 -9999 -9999 -9999 -9999 -9999 -9999 -9999 -9999 -9999 -9999 -9999 -9999 -9999 -9999 -9999 -9999 -9999 -9999 -9999 -9999 -9999 -9999 -9999 -9999 -9999 -9999 -9999 -9999 -9999 -9999 -9999 -9999 -9999 -9999 -9999 -9999 -9999 -9999 -9999 -9999 -9999 -9999 -9999 -9999 -9999 -9999 -9999 -9999 
-9999 -9999 -9999 -9999 -9999 -9999 -9999 -9999 -9999 -9999 19.566951751708984375 18.586360931396484375 15.451609611511230469 15.003926277160644531 17.789793014526367188 18.859807968139648438 19.258260726928710938 19.0760650634765625 16.100637435913085938 14.818006515502929688 17.595249176025390625 15.773882865905761719 14.3192138671875 15.533520698547363281 16.087650299072265625 22.123973846435546875 23.132513046264648438 20.082166671752929688 14.669264793395996094 13.7215576171875 16.448490142822265625 19.116418838500976562 19.371953964233398438 -9999 -9999 -9999 -9999 -9999 -9999 -9999 -9999 -9999 -9999 -9999 -9999 -9999 -9999 -9999 -9999 -9999 -9999 -9999 -9999 -9999 -9999 -9999 -9999 -9999 -9999 -9999 -9999 -9999 -9999 -9999 -9999 -9999 -9999 -9999 -9999 -9999 -9999 -9999 -9999 -9999 -9999 -9999 -9999 -9999 -9999 -9999 -9999 -9999 -9999 -9999 -9999 -9999 -9999 -9999 -9999 -9999 -9999 -9999 -9999 -9999 -9999 -9999 -9999 -9999 -9999 -9999 -9999 
-9999 -9999 -9999 -9999 -9999 -9999 -9999 -9999 -9999 -9999 -9999 -9999 15.019160270690917969 13.559451103210449219 16.25042724609375 19.486177444458007812 18.2574005126953125 18.163896560668945312 16.748815536499023438 11.812556266784667969 14.481444358825683594 13.844806671142578125 16.714097976684570312 17.819444656372070312 16.73572540283203125 19.515890121459960938 17.299531936645507812 17.412191390991210938 17.723455429077148438 19.047197341918945312 18.774309158325195312 19.299337387084960938 18.629945755004882812 -9999 -9999 -9999 -9999 -9999 -9999 -9999 -9999 -9999 -9999 -9999 -9999 -9999 -9999 -9999 -9999 -9999 -9999 -9999 -9999 -9999 -9999 -9999 -9999 -9999 -9999 -9999 -9999 -9999 -9999 -9999 -9999 -9999 -9999 -9999 -9999 -9999 -9999 -9999 -9999 -9999 -9999 -9999 -9999 -9999 -9999 -9999 -9999 -9999 -9999 -9999 -9999 -9999 -9999 -9999 -9999 -9999 -9999 -9999 -9999 -9999 -9999 -9999 -9999 -9999 -9999 -9999 -9999 
-9999 -9999 -9999 -9999 -9999 -9999 -9999 -9999 -9999 -9999 -9999 -9999 14.617765426635742188 12.15625762939453125 14.367031097412109375 15.957234382629394531 16.2361907958984375 17.70523834228515625 16.38321685791015625 13.919023513793945312 11.413423538208007812 19.574472427368164062 22.820865631103515625 18.917636871337890625 17.186740875244140625 20.14598846435546875 20.472835540771484375 22.4208831787109375 21.531553268432617188 20.71381378173828125 20.866930007934570312 22.236764907836914062 23.584316253662109375 23.982633590698242188 -9999 -9999 -9999 -9999 -9999 -9999 -9999 -9999 -9999 -9999 -9999 -9999 -9999 -9999 -9999 -9999 -9999 -9999 -9999 -9999 -9999 -9999 -9999 -9999 -9999 -9999 -9999 -9999 -9999 -9999 -9999 -9999 -9999 -9999 -9999 -9999 -9999 -9999 -9999 -9999 -9999 -9999 -9999 -9999 -9999 -9999 -9999 -9999 -9999 -9999 -9999 -9999 -9999 -9999 -9999 -9999 -9999 -9999 -9999 -9999 -9999 -9999 -9999 -9999 -9999 -9999 -9999 
-9999 -9999 -9999 -9999 -9999 -9999 -9999 -9999 -9999 -9999 -9999 -9999 13.565973281860351562 14.135931015014648438 16.304962158203125 18.680938720703125 17.580682754516601562 17.8438873291015625 22.323822021484375 23.094324111938476562 17.65692138671875 14.5872955322265625 19.159879684448242188 18.239595413208007812 18.228017807006835938 18.751529693603515625 16.156457901000976562 16.094888687133789062 14.689112663269042969 16.361101150512695312 14.466472625732421875 14.9804229736328125 20.312479019165039062 19.000301361083984375 -9999 -9999 -9999 -9999 -9999 -9999 -9999 -9999 -9999 -9999 -9999 -9999 -9999 -9999 -9999 -9999 -9999 -9999 -9999 -9999 -9999 -9999 -9999 -9999 -9999 -9999 -9999 -9999 -9999 -9999 -9999 -9999 -9999 -9999 -9999 -9999 -9999 -9999 -9999 -9999 -9999 -9999 -9999 -9999 -9999 -9999 -9999 -9999 -9999 -9999 -9999 -9999 -9999 -9999 -9999 -9999 -9999 -9999 -9999 -9999 -9999 -9999 -9999 -9999 -9999 -9999 -9999 
-9999 -9999 -9999 -9999 -9999 -9999 -9999 -9999 -9999 -9999 -9999 -9999 17.550052642822265625 19.613241195678710938 19.76251220703125 20.627971649169921875 20.515720367431640625 21.708454132080078125 21.2310333251953125 19.927722930908203125 15.85027313232421875 17.063800811767578125 23.400056838989257812 22.301349639892578125 20.432203292846679688 18.049608230590820312 20.078809738159179688 20.9905853271484375 21.39178466796875 20.804050445556640625 19.559473037719726562 19.209127426147460938 22.321905136108398438 21.298254013061523438 21.343473434448242188 -9999 -9999 -9999 -9999 -9999 -9999 -9999 -9999 -9999 -9999 -9999 -9999 -9999 -9999 -9999 -9999 -9999 -9999 -9999 -9999 -9999 -9999 -9999 -9999 -9999 -9999 -9999 -9999 -9999 -9999 -9999 -9999 -9999 -9999 -9999 -9999 -9999 -9999 -9999 -9999 -9999 -9999 -9999 -9999 -9999 -9999 -9999 -9999 -9999 -9999 -9999 -9999 -9999 -9999 -9999 -9999 -9999 -9999 -9999 -9999 -9999 -9999 -9999 -9999 -9999 -9999 
-9999 -9999 -9999 -9999 -9999 -9999 -9999 -9999 -9999 -9999 -9999 -9999 20.61774444580078125 21.022096633911132812 22.704507827758789062 23.178989410400390625 23.205247879028320312 21.771814346313476562 16.761106491088867188 12.715017318725585938 14.611186027526855469 18.640384674072265625 22.786920547485351562 23.825044631958007812 22.140453338623046875 23.550119400024414062 23.122350692749023438 24.608491897583007812 24.394063949584960938 24.288087844848632812 24.035467147827148438 23.535665512084960938 24.317142486572265625 23.359569549560546875 22.275951385498046875 -9999 -9999 -9999 -9999 -9999 -9999 -9999 -9999 -9999 -9999 -9999 -9999 -9999 -9999 -9999 -9999 -9999 -9999 -9999 -9999 -9999 -9999 -9999 -9999 -9999 -9999 -9999 -9999 -9999 -9999 -9999 -9999 -9999 -9999 -9999 -9999 -9999 -9999 -9999 -9999 -9999 -9999 -9999 -9999 -9999 -9999 -9999 -9999 -9999 -9999 -9999 -9999 -9999 -9999 -9999 -9999 -9999 -9999 -9999 -9999 -9999 -9999 -9999 -9999 -9999 -9999 
-9999 -9999 -9999 -9999 -9999 -9999 -9999 -9999 -9999 -9999 -9999 -9999 -9999 22.485378265380859375 22.019847869873046875 20.18968963623046875 18.748163223266601562 20.3809356689453125 20.934665679931640625 19.05750274658203125 21.349622726440429688 18.539180755615234375 22.427734375 23.206106185913085938 22.480342864990234375 22.430492401123046875 23.20233154296875 23.421270370483398438 23.926130294799804688 23.467901229858398438 24.230222702026367188 22.587125778198242188 21.432626724243164062 21.981067657470703125 18.03658294677734375 -9999 -9999 -9999 -9999 -9999 -9999 -9999 -9999 -9999 -9999 -9999 -9999 -9999 -9999 -9999 -9999 -9999 -9999 -9999 -9999 -9999 -9999 -9999 -9999 -9999 -9999 -9999 -9999 -9999 -9999 -9999 -9999 -9999 -9999 -9999 -9999 -9999 -9999 -9999 -9999 -9999 -9999 -9999 -9999 -9999 -9999 -9999 -9999 -9999 -9999 -9999 -9999 -9999 -9999 -9999 -9999 -9999 -9999 -9999 -9999 -9999 -9999 -9999 -9999 -9999 -9999 
-9999 -9999 -9999 -9999 -9999 -9999 -9999 -9999 -9999 -9999 -9999 -9999 -9999 16.6069488525390625 18.850675582885742188 19.540609359741210938 18.865804672241210938 16.831754684448242188 19.975543975830078125 19.832887649536132812 19.396059036254882812 15.707166671752929688 20.975477218627929688 20.404516220092773438 21.465867996215820312 20.755311965942382812 21.313215255737304688 26.047922134399414062 24.28496551513671875 22.232908248901367188 23.050992965698242188 22.816446304321289062 23.854846954345703125 -9999 -9999 -9999 -9999 -9999 -9999 -9999 -9999 -9999 -9999 -9999 -9999 -9999 -9999 -9999 -9999 -9999 -9999 -9999 -9999 -9999 -9999 -9999 -9999 -9999 -9999 -9999 -9999 -9999 -9999 -9999 -9999 -9999 -9999 -9999 -9999 -9999 -9999 -9999 -9999 -9999 -9999 -9999 -9999 -9999 -9999 -9999 -9999 -9999 -9999 -9999 -9999 -9999 -9999 -9999 -9999 -9999 -9999 -9999 -9999 -9999 -9999 -9999 -9999 -9999 -9999 -9999 -9999 
-9999 -9999 -9999 -9999 -9999 -9999 -9999 -9999 -9999 -9999 -9999 -9999 -9999 -9999 16.497161865234375 18.312570571899414062 17.222314834594726562 20.857725143432617188 20.634838104248046875 18.386077880859375 17.820547103881835938 15.575775146484375 17.255779266357421875 15.825051307678222656 17.821561813354492188 21.095132827758789062 25.468051910400390625 26.721384048461914062 23.315753936767578125 20.949872970581054688 19.9462738037109375 21.720569610595703125 22.713155746459960938 -9999 -9999 -9999 -9999 -9999 -9999 -9999 -9999 -9999 -9999 -9999 -9999 -9999 -9999 -9999 -9999 -9999 -9999 -9999 -9999 -9999 -9999 -9999 -9999 -9999 -9999 -9999 -9999 -9999 -9999 -9999 -9999 -9999 -9999 -9999 -9999 -9999 -9999 -9999 -9999 -9999 -9999 -9999 -9999 -9999 -9999 -9999 -9999 -9999 -9999 -9999 -9999 -9999 -9999 -9999 -9999 -9999 -9999 -9999 -9999 -9999 -9999 -9999 -9999 -9999 -9999 -9999 -9999 
-9999 -9999 -9999 -9999 -9999 -9999 -9999 -9999 -9999 -9999 -9999 -9999 -9999 15.705304145812988281 18.830625534057617188 16.918392181396484375 17.58719635009765625 16.659252166748046875 16.994565963745117188 17.579916000366210938 18.251237869262695312 17.94379425048828125 19.135354995727539062 18.094696044921875 17.393154144287109375 17.776247024536132812 24.697551727294921875 24.996366500854492188 25.937158584594726562 22.332178115844726562 23.283010482788085938 22.10604095458984375 19.962289810180664062 -9999 -9999 -9999 -9999 -9999 -9999 -9999 -9999 -9999 -9999 -9999 -9999 -9999 -9999 -9999 -9999 -9999 -9999 -9999 -9999 -9999 -9999 -9999 -9999 -9999 -9999 -9999 -9999 -9999 -9999 -9999 -9999 -9999 -9999 -9999 -9999 -9999 -9999 9.6516866683959960938 9.0790796279907226562 -9999 -9999 -9999 -9999 -9999 -9999 -9999 -9999 -9999 -9999 -9999 -9999 -9999 -9999 -9999 -9999 -9999 -9999 -9999 -9999 -9999 -9999 -9999 -9999 -9999 -9999 -9999 -9999 
-9999 -9999 -9999 -9999 -9999 -9999 -9999 -9999 -9999 -9999 -9999 -9999 -9999 14.732957839965820312 16.836406707763671875 15.537957191467285156 12.665980339050292969 13.362248420715332031 13.790250778198242188 14.286863327026367188 19.739953994750976562 20.74204254150390625 22.618749618530273438 19.9639434814453125 17.44802093505859375 15.622259140014648438 19.993663787841796875 23.0172576904296875 23.184251785278320312 20.266000747680664062 22.248991012573242188 22.975877761840820312 19.5425567626953125 19.263347625732421875 -9999 -9999 -9999 -9999 -9999 -9999 -9999 -9999 -9999 -9999 -9999 -9999 -9999 -9999 -9999 -9999 -9999 -9999 -9999 -9999 -9999 -9999 -9999 -9999 -9999 -9999 -9999 -9999 -9999 -9999 -9999 -9999 -9999 -9999 -9999 -9999 5.7535266876220703125 9.4557085037231445312 9.6299219131469726562 8.731258392333984375 -9999 -9999 -9999 -9999 -9999 -9999 -9999 -9999 -9999 -9999 -9999 -9999 -9999 -9999 -9999 -9999 -9999 -9999 -9999 -9999 -9999 -9999 -9999 -9999 -9999 -9999 -9999 
-9999 -9999 -9999 -9999 -9999 -9999 -9999 -9999 -9999 -9999 -9999 -9999 -9999 20.85150146484375 23.783514022827148438 22.604349136352539062 17.433763504028320312 14.032176971435546875 11.001871109008789062 12.873004913330078125 17.866304397583007812 24.340253829956054688 22.829778671264648438 18.715524673461914062 20.480245590209960938 20.22409820556640625 21.154771804809570312 20.324884414672851562 20.250551223754882812 22.400508880615234375 24.200815200805664062 23.979442596435546875 17.13970184326171875 15.906972885131835938 -9999 -9999 -9999 -9999 -9999 -9999 -9999 -9999 -9999 -9999 -9999 -9999 -9999 -9999 -9999 -9999 -9999 -9999 -9999 -9999 -9999 -9999 -9999 -9999 -9999 -9999 -9999 -9999 -9999 -9999 -9999 -9999 8.9008731842041015625 6.1853008270263671875 3.63849639892578125 2.6965711116790771484 6.175754547119140625 7.7914953231811523438 9.6686811447143554688 7.8043260574340820312 6.2328677177429199219 -9999 -9999 -9999 -9999 -9999 -9999 -9999 -9999 -9999 -9999 -9999 -9999 -9999 -9999 -9999 -9999 -9999 -9999 -9999 -9999 -9999 -9999 -9999 -9999 -9999 -9999 
-9999 -9999 -9999 -9999 -9999 -9999 -9999 -9999 -9999 -9999 -9999 -9999 -9999 18.363067626953125 17.873432159423828125 17.176515579223632812 16.133182525634765625 17.571014404296875 16.615739822387695312 17.493076324462890625 20.0208587646484375 20.727674484252929688 15.486280441284179688 14.620576858520507812 18.051544189453125 16.654994964599609375 17.480562210083007812 20.11502838134765625 19.100416183471679688 19.232881546020507812 18.082157135009765625 20.1488189697265625 17.58005523681640625 18.198757171630859375 20.094532012939453125 -9999 -9999 -9999 -9999 -9999 -9999 -9999 -9999 -9999 -9999 -9999 -9999 -9999 -9999 -9999 -9999 -9999 -9999 -9999 -9999 -9999 -9999 -9999 -9999 -9999 -9999 -9999 -9999 -9999 -9999 -9999 12.380107879638671875 8.1982126235961914062 5.9461131095886230469 4.1300611495971679688 6.8833818435668945312 6.1445255279541015625 8.142353057861328125 6.8290910720825195312 4.9507265090942382812 5.620388031005859375 -9999 -9999 -9999 -9999 -9999 -9999 -9999 -9999 -9999 -9999 -9999 -9999 -9999 -9999 -9999 -9999 -9999 -9999 -9999 -9999 -9999 -9999 -9999 -9999 -9999 
-9999 -9999 -9999 -9999 -9999 -9999 -9999 -9999 -9999 -9999 -9999 -9999 -9999 18.776021957397460938 18.88649749755859375 17.54500579833984375 17.362886428833007812 16.132658004760742188 15.17101287841796875 16.770336151123046875 18.81223297119140625 19.382677078247070312 16.39554595947265625 19.889171600341796875 20.010080337524414062 19.0665435791015625 17.293094635009765625 20.299884796142578125 19.781604766845703125 18.84069061279296875 20.609333038330078125 18.962213516235351562 16.500337600708007812 17.606746673583984375 14.159865379333496094 19.427656173706054688 -9999 -9999 -9999 -9999 -9999 -9999 -9999 -9999 -9999 -9999 -9999 -9999 -9999 -9999 -9999 -9999 -9999 -9999 -9999 -9999 -9999 -9999 -9999 -9999 -9999 -9999 -9999 -9999 -9999 -9999 12.540307044982910156 7.1161642074584960938 4.7873964309692382812 6.4271655082702636719 7.0906000137329101562 5.75077056884765625 6.5790467262268066406 7.1887235641479492188 6.25016021728515625 7.1895537376403808594 6.2316794395446777344 6.1948399543762207031 6.5535640716552734375 -9999 4.2542872428894042969 -9999 -9999 -9999 -9999 -9999 -9999 -9999 -9999 -9999 -9999 -9999 -9999 -9999 -9999 -9999 -9999 -9999 -9999 -9999 -9999 
-9999 -9999 -9999 -9999 -9999 -9999 -9999 -9999 -9999 -9999 -9999 -9999 -9999 14.24401092529296875 15.46494293212890625 18.276376724243164062 17.210674285888671875 19.41156005859375 15.298479080200195312 15.276013374328613281 17.364971160888671875 15.096021652221679688 15.99346160888671875 20.409399032592773438 21.632829666137695312 20.763303756713867188 14.226175308227539062 13.98404693603515625 14.650342941284179688 16.765340805053710938 16.81479644775390625 15.626200675964355469 19.44193267822265625 19.346063613891601562 14.820502281188964844 17.907766342163085938 -9999 -9999 -9999 -9999 -9999 -9999 -9999 -9999 -9999 -9999 17.02353668212890625 18.096195220947265625 17.001428604125976562 13.957373619079589844 17.011266708374023438 -9999 -9999 -9999 -9999 -9999 -9999 -9999 -9999 -9999 -9999 -9999 -9999 -9999 -9999 -9999 11.650630950927734375 4.3372588157653808594 2.45098876953125 4.74433135986328125 6.5196595191955566406 6.0756974220275878906 5.5616688728332519531 7.0431699752807617188 6.8918371200561523438 7.5809779167175292969 6.8022017478942871094 6.1736540794372558594 7.1023869514465332031 5.2993612289428710938 4.867702484130859375 3.6031289100646972656 3.8970639705657958984 4.3070406913757324219 3.5839412212371826172 -9999 -9999 -9999 -9999 -9999 -9999 -9999 -9999 -9999 -9999 -9999 -9999 -9999 -9999 -9999 -9999 
-9999 -9999 -9999 -9999 -9999 -9999 -9999 -9999 -9999 -9999 -9999 -9999 -9999 -9999 15.940802574157714844 15.545374870300292969 13.458701133728027344 12.91025543212890625 11.86138916015625 12.978617668151855469 15.393156051635742188 16.182657241821289062 16.310415267944335938 16.929521560668945312 16.619556427001953125 13.357400894165039062 13.971747398376464844 14.540875434875488281 14.634047508239746094 16.2010650634765625 17.503576278686523438 20.228206634521484375 22.876390457153320312 22.980495452880859375 21.7082366943359375 23.385114669799804688 -9999 -9999 -9999 -9999 -9999 -9999 -9999 -9999 -9999 18.719097137451171875 16.101894378662109375 15.20754241943359375 12.358484268188476562 13.92665863037109375 16.4950103759765625 16.528482437133789062 19.715505599975585938 -9999 -9999 -9999 -9999 -9999 -9999 -9999 -9999 -9999 -9999 -9999 -9999 -9999 13.007703781127929688 3.6454355716705322266 2.8218257427215576172 2.9162678718566894531 4.9354677200317382812 5.7360930442810058594 4.810802459716796875 6.6638140678405761719 7.3726377487182617188 7.64662933349609375 7.4883737564086914062 7.5257387161254882812 8.6133680343627929688 7.0920095443725585938 4.5206480026245117188 4.4344015121459960938 6.6192784309387207031 6.1686272621154785156 5.0700521469116210938 3.5936131477355957031 -9999 -9999 -9999 -9999 -9999 -9999 -9999 -9999 -9999 -9999 -9999 -9999 -9999 -9999 -9999 
-9999 -9999 -9999 -9999 -9999 -9999 -9999 -9999 -9999 -9999 -9999 -9999 -9999 -9999 -9999 13.549220085144042969 11.544780731201171875 10.57808685302734375 9.857860565185546875 12.650324821472167969 10.577243804931640625 14.107479095458984375 9.6472148895263671875 10.295281410217285156 11.357969284057617188 15.573015213012695312 18.887159347534179688 21.59000396728515625 19.228036880493164062 20.0222320556640625 22.650117874145507812 24.710603713989257812 26.256870269775390625 26.0127716064453125 25.18643951416015625 23.691585540771484375 -9999 -9999 -9999 -9999 -9999 -9999 -9999 -9999 -9999 16.450042724609375 14.973303794860839844 13.306286811828613281 13.530858039855957031 14.419631004333496094 15.892239570617675781 17.514499664306640625 18.273235321044921875 26.851846694946289062 24.3023681640625 -9999 -9999 -9999 -9999 -9999 -9999 -9999 -9999 -9999 21.28183746337890625 20.425386428833007812 16.502481460571289062 5.3660078048706054688 5.2506041526794433594 2.8417158126831054688 3.5906717777252197266 5.7163300514221191406 4.357639312744140625 5.4136071205139160156 6.6130990982055664062 8.1225671768188476562 6.8976292610168457031 6.0895700454711914062 6.1437954902648925781 8.1344661712646484375 5.4173984527587890625 4.7110848426818847656 5.8057951927185058594 6.6547942161560058594 6.8796448707580566406 5.6775979995727539062 5.2751660346984863281 5.7263522148132324219 6.2182412147521972656 5.1231713294982910156 5.8651232719421386719 6.0595927238464355469 5.9788942337036132812 -9999 -9999 -9999 -9999 -9999 -9999 -9999 -9999 
-9999 -9999 -9999 -9999 -9999 -9999 -9999 -9999 -9999 -9999 -9999 -9999 -9999 -9999 -9999 10.981608390808105469 15.737101554870605469 14.139013290405273438 10.215044975280761719 10.508382797241210938 10.267251968383789062 11.04158782958984375 8.7612276077270507812 9.911304473876953125 14.8967437744140625 20.717838287353515625 21.525121688842773438 22.614410400390625 22.189073562622070312 25.520967483520507812 24.427936553955078125 22.311079025268554688 24.474201202392578125 25.963556289672851562 24.56183624267578125 22.626821517944335938 24.290472030639648438 25.43352508544921875 -9999 -9999 -9999 -9999 -9999 -9999 -9999 15.902308464050292969 13.636912345886230469 12.841326713562011719 15.472199440002441406 15.238358497619628906 17.224729537963867188 17.475851058959960938 23.879266738891601562 23.07968902587890625 18.414501190185546875 18.89702606201171875 20.239606857299804688 -9999 -9999 -9999 -9999 -9999 -9999 -9999 15.749683380126953125 18.03992462158203125 14.964929580688476562 6.0373501777648925781 6.0214405059814453125 2.4822974205017089844 2.2276973724365234375 4.0081348419189453125 4.3618192672729492188 4.809722900390625 5.1387705802917480469 7.4371390342712402344 6.3902697563171386719 6.4159059524536132812 5.2096295356750488281 6.6658005714416503906 5.9794912338256835938 4.9485807418823242188 5.9045915603637695312 5.3558263778686523438 5.3552975654602050781 5.9238405227661132812 6.2232847213745117188 6.1967515945434570312 6.0114312171936035156 5.674182891845703125 4.8345265388488769531 6.1090197563171386719 6.3206243515014648438 -9999 -9999 -9999 -9999 -9999 -9999 -9999 -9999 
-9999 -9999 -9999 -9999 -9999 -9999 -9999 -9999 -9999 -9999 -9999 -9999 -9999 -9999 -9999 -9999 12.950641632080078125 15.881296157836914062 10.277738571166992188 11.307976722717285156 13.971228599548339844 12.812601089477539062 12.181401252746582031 13.516406059265136719 16.307031631469726562 19.659236907958984375 25.661228179931640625 27.069667816162109375 27.317705154418945312 26.170263290405273438 25.927320480346679688 25.588968276977539062 21.794677734375 18.709728240966796875 15.897745132446289062 15.144502639770507812 17.318124771118164062 18.726734161376953125 17.35018157958984375 18.830335617065429688 -9999 -9999 -9999 -9999 -9999 15.900740623474121094 11.919228553771972656 14.747027397155761719 16.362548828125 16.228921890258789062 17.688158035278320312 17.545816421508789062 22.073328018188476562 16.067291259765625 17.607789993286132812 20.1324920654296875 21.385946273803710938 -9999 -9999 -9999 -9999 -9999 -9999 -9999 17.052539825439453125 18.236909866333007812 11.680388450622558594 7.1703763008117675781 6.1756205558776855469 3.57546234130859375 3.0333251953125 2.5765223503112792969 2.8950531482696533203 4.0086574554443359375 5.0944414138793945312 6.6321158409118652344 7.2401676177978515625 6.5531778335571289062 5.6089653968811035156 5.4740395545959472656 6.0233063697814941406 5.1980929374694824219 5.626598358154296875 5.1918244361877441406 5.7089495658874511719 5.7904973030090332031 5.8676476478576660156 5.7813277244567871094 5.8420233726501464844 6.0980234146118164062 4.6862120628356933594 5.8061304092407226562 6.2008390426635742188 6.1099491119384765625 -9999 -9999 -9999 -9999 -9999 -9999 -9999 
-9999 -9999 -9999 -9999 -9999 -9999 -9999 -9999 -9999 -9999 -9999 -9999 -9999 -9999 -9999 -9999 13.492938995361328125 13.739879608154296875 16.039606094360351562 17.6067047119140625 16.214246749877929688 14.610896110534667969 13.471909523010253906 11.213032722473144531 11.714155197143554688 16.089372634887695312 17.294040679931640625 19.072998046875 16.520612716674804688 13.46727752685546875 14.325814247131347656 15.840936660766601562 14.011774063110351562 15.965420722961425781 12.35089874267578125 13.650648117065429688 13.997574806213378906 16.9757537841796875 15.766421318054199219 -9999 -9999 -9999 -9999 -9999 -9999 15.689623832702636719 11.414923667907714844 13.983136177062988281 14.663770675659179688 16.930614471435546875 13.505773544311523438 19.050449371337890625 21.391351699829101562 16.262420654296875 14.324198722839355469 18.349897384643554688 17.558597564697265625 -9999 -9999 -9999 -9999 -9999 -9999 18.458848953247070312 19.046283721923828125 21.754652023315429688 19.839550018310546875 15.235690116882324219 10.533933639526367188 5.9858355522155761719 4.2643146514892578125 4.609012603759765625 4.3016080856323242188 2.9121494293212890625 4.2414350509643554688 6.4405646324157714844 8.9443178176879882812 6.2735619544982910156 6.5083622932434082031 6.3737506866455078125 7.3469014167785644531 6.1975150108337402344 4.5722589492797851562 4.6063432693481445312 5.2997159957885742188 6.0805306434631347656 6.241893768310546875 6.6158475875854492188 5.9763388633728027344 5.9674692153930664062 5.2393364906311035156 5.544078826904296875 4.5501832962036132812 3.2077145576477050781 2.7532968521118164062 -9999 -9999 -9999 -9999 -9999 -9999 
-9999 -9999 -9999 -9999 -9999 -9999 -9999 -9999 -9999 -9999 -9999 -9999 -9999 -9999 -9999 -9999 14.86835479736328125 18.363977432250976562 16.457769393920898438 17.253543853759765625 19.36261749267578125 19.42366790771484375 9.7435846328735351562 8.6149692535400390625 7.1129846572875976562 10.756049156188964844 15.730241775512695312 13.338518142700195312 11.323075294494628906 10.036696434020996094 11.935297966003417969 12.204951286315917969 13.652283668518066406 14.972246170043945312 13.105214118957519531 13.695544242858886719 14.100125312805175781 19.2284088134765625 21.808607101440429688 -9999 -9999 -9999 -9999 -9999 -9999 17.101894378662109375 10.151842117309570312 10.691939353942871094 14.011508941650390625 17.582927703857421875 11.235596656799316406 18.7057342529296875 24.114915847778320312 14.272315025329589844 15.609478950500488281 18.87595367431640625 19.894847869873046875 19.413848876953125 21.099788665771484375 -9999 -9999 -9999 22.609891891479492188 17.707788467407226562 15.477476119995117188 20.862335205078125 21.374227523803710938 20.100383758544921875 17.282501220703125 11.681477546691894531 5.1820034980773925781 6.0983867645263671875 5.3345265388488769531 3.0975162982940673828 2.6698007583618164062 5.2138304710388183594 7.998180389404296875 6.7741732597351074219 6.2268090248107910156 6.0650124549865722656 7.8331956863403320312 6.5682697296142578125 4.996097564697265625 4.4808778762817382812 4.62352752685546875 4.7444849014282226562 4.7463321685791015625 5.5118513107299804688 4.011066436767578125 5.0217366218566894531 5.3092226982116699219 4.7552642822265625 3.2449743747711181641 2.0166440010070800781 1.5827590227127075195 -9999 -9999 -9999 -9999 -9999 -9999 
-9999 -9999 -9999 -9999 -9999 -9999 -9999 -9999 -9999 -9999 -9999 -9999 -9999 -9999 -9999 6.8655853271484375 12.284895896911621094 13.731406211853027344 10.689539909362792969 14.187383651733398438 15.770631790161132812 16.828304290771484375 11.932855606079101562 10.656273841857910156 9.2533092498779296875 12.984866142272949219 17.3477325439453125 11.327851295471191406 7.161205291748046875 7.6361422538757324219 10.01978302001953125 11.071309089660644531 12.763846397399902344 14.207853317260742188 14.000121116638183594 13.912837982177734375 13.670088768005371094 16.179544448852539062 25.591466903686523438 -9999 -9999 -9999 -9999 -9999 -9999 22.279775619506835938 14.768185615539550781 8.4666624069213867188 15.041906356811523438 14.441637039184570312 10.559567451477050781 11.975381851196289062 17.171102523803710938 14.074846267700195312 14.404211044311523438 17.05951690673828125 22.26772308349609375 20.180572509765625 18.78845977783203125 17.644527435302734375 19.41756439208984375 19.181949615478515625 20.769666671752929688 20.036075592041015625 13.973934173583984375 19.228296279907226562 20.940153121948242188 20.358135223388671875 15.889406204223632812 13.434087753295898438 8.4975805282592773438 7.2893476486206054688 5.0397543907165527344 3.2616224288940429688 3.8119628429412841797 3.8708155155181884766 6.7387723922729492188 7.544635772705078125 6.1045074462890625 6.814838409423828125 8.1132020950317382812 6.5410718917846679688 4.8174681663513183594 4.6226215362548828125 4.3036060333251953125 2.7808241844177246094 2.8123307228088378906 4.896656036376953125 2.8273186683654785156 3.6361341476440429688 4.0096759796142578125 3.4902281761169433594 2.5429294109344482422 1.657399296760559082 1.3624475002288818359 1.4752111434936523438 1.7952710390090942383 -9999 -9999 -9999 -9999 
-9999 -9999 -9999 -9999 -9999 -9999 -9999 -9999 -9999 -9999 -9999 -9999 -9999 -9999 -9999 7.6651797294616699219 9.3110513687133789062 13.392727851867675781 13.890812873840332031 17.227865219116210938 17.419691085815429688 14.548552513122558594 13.237762451171875 13.592992782592773438 13.717867851257324219 14.49495697021484375 12.844079971313476562 8.4741811752319335938 5.644969940185546875 6.9845499992370605469 9.8030004501342773438 11.539936065673828125 12.400473594665527344 12.427947044372558594 13.28664398193359375 15.37638092041015625 13.311580657958984375 11.813663482666015625 15.762783050537109375 25.324008941650390625 -9999 -9999 -9999 -9999 -9999 19.160938262939453125 22.653898239135742188 16.661096572875976562 11.727124214172363281 13.571094512939453125 9.8500461578369140625 10.436282157897949219 12.38112640380859375 13.766524314880371094 13.195538520812988281 14.665960311889648438 14.450689315795898438 18.335268020629882812 17.304727554321289062 13.3071441650390625 18.755962371826171875 23.678060531616210938 25.692811965942382812 21.834287643432617188 14.057662010192871094 13.074930191040039062 18.3946075439453125 19.094984054565429688 17.40735626220703125 13.635721206665039062 12.482669830322265625 7.7664022445678710938 5.6854333877563476562 4.3151307106018066406 5.5892987251281738281 4.35756683349609375 5.531978607177734375 6.7001738548278808594 6.991756439208984375 7.5314912796020507812 7.1569395065307617188 7.6609072685241699219 4.889881134033203125 3.5392785072326660156 4.2458615303039550781 3.5377602577209472656 4.4098453521728515625 5.3276872634887695312 3.5569665431976318359 2.9215548038482666016 3.0498368740081787109 2.9112541675567626953 1.9015859365463256836 1.5194885730743408203 1.4326717853546142578 1.4706313610076904297 1.8532614707946777344 4.7538881301879882812 -9999 -9999 -9999 
-9999 -9999 -9999 -9999 -9999 -9999 -9999 -9999 -9999 -9999 -9999 -9999 -9999 -9999 -9999 9.7018594741821289062 5.8715090751647949219 5.8747258186340332031 8.63722991943359375 14.971706390380859375 19.3529510498046875 13.341573715209960938 12.270964622497558594 13.054793357849121094 10.00246429443359375 8.8028039932250976562 6.4085183143615722656 5.2872071266174316406 4.6081285476684570312 6.7173891067504882812 8.6376562118530273438 8.9300718307495117188 10.598540306091308594 10.790638923645019531 14.01926422119140625 15.394222259521484375 16.052373886108398438 13.608609199523925781 15.070265769958496094 24.042680740356445312 24.35945892333984375 -9999 -9999 -9999 -9999 8.9081144332885742188 19.808147430419921875 20.1148834228515625 15.072538375854492188 9.8388185501098632812 8.4090633392333984375 9.9083375930786132812 9.3237504959106445312 11.354462623596191406 13.910111427307128906 16.553312301635742188 10.145627975463867188 11.008662223815917969 11.617940902709960938 9.728969573974609375 19.34108734130859375 21.974697113037109375 24.195056915283203125 21.940237045288085938 14.120906829833984375 16.423879623413085938 14.416932106018066406 15.281554222106933594 19.11531829833984375 17.935712814331054688 14.883732795715332031 11.55953216552734375 9.2082386016845703125 5.7657375335693359375 5.8254022598266601562 5.3639240264892578125 5.3805637359619140625 7.1380033493041992188 6.74718475341796875 8.8572854995727539062 6.02300262451171875 3.4873833656311035156 3.3074383735656738281 3.0201179981231689453 3.1297078132629394531 4.231842041015625 4.7113676071166992188 7.0948376655578613281 4.5217957496643066406 2.3316769599914550781 2.0219223499298095703 2.2360880374908447266 2.0696446895599365234 1.5628943443298339844 1.9254218339920043945 1.7425684928894042969 1.5089993476867675781 7.4233522415161132812 15.999121665954589844 12.381597518920898438 -9999 
-9999 -9999 -9999 -9999 -9999 -9999 -9999 -9999 -9999 -9999 -9999 -9999 -9999 -9999 -9999 8.7392673492431640625 10.150620460510253906 5.6285624504089355469 6.6478161811828613281 16.910543441772460938 18.757717132568359375 10.751248359680175781 14.640912055969238281 14.274380683898925781 8.6344671249389648438 6.5101332664489746094 4.9329562187194824219 4.9537134170532226562 5.3882822990417480469 6.1965570449829101562 7.1061239242553710938 9.1305904388427734375 10.200681686401367188 12.234772682189941406 13.057159423828125 10.32285308837890625 10.193025588989257812 8.84467315673828125 14.869950294494628906 17.969747543334960938 12.250594139099121094 8.6058807373046875 10.9534149169921875 9.54254150390625 8.66602325439453125 9.87435150146484375 12.50806427001953125 18.976446151733398438 20.276994705200195312 10.099645614624023438 5.0766472816467285156 9.2113389968872070312 10.934057235717773438 11.880716323852539062 13.879362106323242188 16.85115814208984375 13.947144508361816406 6.8564839363098144531 7.8437151908874511719 13.64731597900390625 20.442935943603515625 22.620706558227539062 22.26726531982421875 22.925580978393554688 16.559337615966796875 15.636174201965332031 14.639096260070800781 11.828034400939941406 12.267542839050292969 14.439049720764160156 11.691611289978027344 11.372392654418945312 11.301087379455566406 6.9690022468566894531 7.5820851325988769531 5.3006143569946289062 4.2525148391723632812 6.236324310302734375 6.528217315673828125 5.9088792800903320312 3.5907938480377197266 2.8594913482666015625 3.1582989692687988281 2.660320281982421875 2.1618857383728027344 4.1691775321960449219 7.3528695106506347656 7.5645756721496582031 7.0600595474243164062 3.0170755386352539062 2.1111617088317871094 2.265048980712890625 2.3840236663818359375 1.7598512172698974609 1.7141327857971191406 1.4769170284271240234 1.3508000373840332031 4.6298685073852539062 17.342021942138671875 17.538671493530273438 -9999 
-9999 -9999 -9999 -9999 -9999 -9999 -9999 -9999 -9999 -9999 -9999 -9999 -9999 -9999 -9999 8.36711883544921875 11.774782180786132812 7.41326141357421875 8.1610088348388671875 13.565489768981933594 15.529370307922363281 8.3110799789428710938 12.223572731018066406 13.592684745788574219 7.7244749069213867188 5.3187956809997558594 4.2506041526794433594 4.3023676872253417969 5.1533474922180175781 5.6296887397766113281 7.5519700050354003906 9.6391544342041015625 9.9988279342651367188 13.170865058898925781 12.993435859680175781 9.381443023681640625 7.5856490135192871094 6.8936266899108886719 8.9051141738891601562 14.512146949768066406 12.523480415344238281 7.5168409347534179688 10.678894996643066406 9.5946378707885742188 8.041240692138671875 11.970171928405761719 13.419115066528320312 19.079158782958984375 19.641483306884765625 17.520910263061523438 10.286038398742675781 12.180170059204101562 14.011096954345703125 12.420595169067382812 13.568376541137695312 14.660282135009765625 15.982938766479492188 12.116400718688964844 10.625316619873046875 14.851421356201171875 13.930581092834472656 21.741107940673828125 23.710836410522460938 23.276491165161132812 19.9593048095703125 12.006438255310058594 9.13814544677734375 12.422148704528808594 12.810904502868652344 12.518868446350097656 11.613522529602050781 9.8521432876586914062 10.863199234008789062 6.941600799560546875 9.2327108383178710938 6.8505225181579589844 3.7121081352233886719 4.7953481674194335938 3.6251027584075927734 3.4404940605163574219 3.0511002540588378906 2.6155993938446044922 2.8891253471374511719 2.9044647216796875 2.3158488273620605469 5.9010672569274902344 8.9267444610595703125 7.8892130851745605469 7.6056857109069824219 3.2125849723815917969 1.6616095304489135742 1.699263453483581543 2.0241346359252929688 2.270263671875 2.1070454120635986328 1.6318160295486450195 1.3861178159713745117 2.0278542041778564453 6.3444032669067382812 15.781938552856445312 -9999 
-9999 -9999 -9999 -9999 -9999 -9999 -9999 -9999 -9999 -9999 -9999 -9999 -9999 -9999 -9999 -9999 10.404305458068847656 7.753223419189453125 10.823554039001464844 15.826246261596679688 18.828058242797851562 9.1682119369506835938 10.975802421569824219 9.5430955886840820312 7.0810194015502929688 5.76879119873046875 6.3627400398254394531 4.6753754615783691406 4.5185933113098144531 5.0187449455261230469 6.4078097343444824219 8.571720123291015625 9.7311038970947265625 11.9418792724609375 13.887642860412597656 10.264187812805175781 7.8729996681213378906 11.594866752624511719 9.783367156982421875 11.978573799133300781 16.860132217407226562 9.9068994522094726562 10.6284942626953125 8.250980377197265625 7.5818352699279785156 13.816775321960449219 20.9289703369140625 19.826593399047851562 22.392791748046875 18.099962234497070312 15.774532318115234375 16.39391326904296875 16.665172576904296875 13.972619056701660156 13.27310943603515625 14.359343528747558594 12.179850578308105469 15.492661476135253906 12.397901535034179688 17.077699661254882812 17.86952972412109375 20.381103515625 22.724622726440429688 24.350072860717773438 16.83219146728515625 11.168180465698242188 11.312170028686523438 10.824300765991210938 10.681702613830566406 10.605045318603515625 12.178984642028808594 10.509572982788085938 10.5715789794921875 6.0376024246215820312 8.0998487472534179688 8.7713451385498046875 4.2659025192260742188 3.0380387306213378906 2.8026614189147949219 2.3650956153869628906 2.0939741134643554688 1.8755359649658203125 2.3416719436645507812 3.7388575077056884766 4.183807373046875 6.5469188690185546875 7.0939774513244628906 6.5432953834533691406 6.4748349189758300781 2.777996063232421875 1.673502802848815918 1.7034277915954589844 1.7311280965805053711 1.8452821969985961914 2.5855395793914794922 1.8846305608749389648 1.5596116781234741211 1.8140462636947631836 2.5161223411560058594 4.5423297882080078125 -9999 
-9999 -9999 -9999 -9999 -9999 -9999 -9999 -9999 -9999 -9999 -9999 -9999 -9999 -9999 -9999 8.3393163681030273438 9.7644977569580078125 10.488091468811035156 10.606103897094726562 12.564530372619628906 20.028491973876953125 10.96465301513671875 10.599010467529296875 8.9825353622436523438 6.418163299560546875 5.4804282188415527344 4.5622601509094238281 5.2507634162902832031 4.9018321037292480469 4.8944110870361328125 5.1316251754760742188 7.0797791481018066406 8.1517086029052734375 9.0908660888671875 9.2975978851318359375 7.1787500381469726562 10.219682693481445312 12.364661216735839844 8.1520338058471679688 7.5722107887268066406 11.571248054504394531 8.81853485107421875 9.4561367034912109375 8.157909393310546875 8.9686069488525390625 14.814635276794433594 19.440988540649414062 17.448938369750976562 19.377149581909179688 19.3272247314453125 17.6485443115234375 16.37259674072265625 12.314642906188964844 12.843825340270996094 15.583651542663574219 15.706995010375976562 10.759698867797851562 12.306467056274414062 15.260872840881347656 9.7057657241821289062 14.500071525573730469 16.265260696411132812 17.768733978271484375 22.7461395263671875 18.74224853515625 10.696628570556640625 6.3002481460571289062 7.3104796409606933594 7.4564814567565917969 8.691944122314453125 10.435214042663574219 10.696018218994140625 8.2810811996459960938 7.5437774658203125 8.6096477508544921875 10.545582771301269531 6.9244608879089355469 3.0546560287475585938 2.0263228416442871094 1.8639912605285644531 1.8708291053771972656 1.8588092327117919922 2.5439887046813964844 4.6700143814086914062 6.9094133377075195312 7.1504278182983398438 5.9200463294982910156 5.1829810142517089844 6.7885060310363769531 3.2478168010711669922 2.3113064765930175781 2.7706010341644287109 1.4898998737335205078 1.4681589603424072266 1.496836543083190918 1.5889476537704467773 1.6000245809555053711 1.870230555534362793 2.2712702751159667969 2.3545243740081787109 -9999 
-9999 -9999 -9999 -9999 -9999 -9999 -9999 -9999 -9999 -9999 -9999 -9999 -9999 -9999 -9999 -9999 11.038878440856933594 14.349953651428222656 15.678487777709960938 16.144388198852539062 17.832286834716796875 16.478572845458984375 10.264367103576660156 12.636903762817382812 6.1179065704345703125 5.3987627029418945312 5.3209328651428222656 5.5745420455932617188 5.4811463356018066406 6.3673648834228515625 4.7215118408203125 6.5956768989562988281 7.0135402679443359375 8.2811298370361328125 6.2438197135925292969 8.9925584793090820312 9.7846517562866210938 7.9758653640747070312 10.518696784973144531 9.801483154296875 10.930414199829101562 10.555761337280273438 8.4372758865356445312 8.9195547103881835938 10.239750862121582031 17.11598968505859375 19.31029510498046875 25.86882781982421875 19.751771926879882812 20.933088302612304688 19.563289642333984375 21.76520538330078125 17.9540863037109375 13.309274673461914062 14.338958740234375 14.386084556579589844 11.919114112854003906 12.023264884948730469 14.730503082275390625 12.767024040222167969 6.0111594200134277344 12.184781074523925781 14.987382888793945312 14.671825408935546875 22.317804336547851562 16.37233734130859375 7.3473720550537109375 5.0370464324951171875 4.0330095291137695312 6.4139928817749023438 8.2146434783935546875 9.0220088958740234375 8.22502899169921875 7.9195456504821777344 6.5862689018249511719 9.2963771820068359375 13.018331527709960938 3.7290909290313720703 2.2505040168762207031 2.1137816905975341797 2.0753619670867919922 3.0409383773803710938 5.19409942626953125 6.2714457511901855469 7.2925276756286621094 5.2338900566101074219 4.7395672798156738281 4.66663360595703125 6.4989953041076660156 5.9560513496398925781 3.4655737876892089844 3.6596081256866455078 1.4741804599761962891 2.2320859432220458984 1.3881435394287109375 1.3928818702697753906 1.54027557373046875 1.8551944494247436523 1.6371337175369262695 1.8242299556732177734 -9999 
-9999 -9999 -9999 -9999 -9999 -9999 -9999 -9999 -9999 -9999 -9999 -9999 -9999 -9999 -9999 -9999 11.804853439331054688 14.713404655456542969 18.146375656127929688 15.693450927734375 16.266546249389648438 18.47393798828125 16.696023941040039062 13.826742172241210938 7.2004485130310058594 6.2161617279052734375 6.3516979217529296875 6.0087494850158691406 5.5019140243530273438 5.5442557334899902344 4.4782614707946777344 5.6207189559936523438 6.4064660072326660156 7.1002001762390136719 8.8640451431274414062 15.575793266296386719 10.550658226013183594 8.712646484375 13.979798316955566406 14.020006179809570312 14.860390663146972656 16.932062149047851562 12.982295989990234375 13.89875030517578125 18.775709152221679688 23.28012847900390625 24.025699615478515625 20.939075469970703125 21.0462188720703125 24.7205352783203125 22.744777679443359375 23.173067092895507812 19.775110244750976562 15.258541107177734375 12.741223335266113281 16.465848922729492188 16.269964218139648438 12.027940750122070312 10.782428741455078125 15.397039413452148438 14.893139839172363281 10.251679420471191406 16.450214385986328125 14.761625289916992188 16.46305084228515625 16.000608444213867188 10.540349006652832031 4.4972829818725585938 3.5063054561614990234 6.1828699111938476562 8.265411376953125 8.9388036727905273438 10.244309425354003906 6.636058807373046875 4.185512542724609375 7.463592529296875 15.491978645324707031 11.072557449340820312 4.8510494232177734375 5.9489340782165527344 3.9464192390441894531 3.9564962387084960938 6.7717199325561523438 7.5830011367797851562 7.6369719505310058594 6.1498570442199707031 3.8836832046508789062 3.9451932907104492188 4.6156358718872070312 4.4707932472229003906 3.3159441947937011719 3.6030712127685546875 1.4963222742080688477 1.518227696418762207 1.7524980306625366211 2.4452562332153320312 3.6403300762176513672 4.09149169921875 1.7643487453460693359 -9999 -9999 
-9999 -9999 -9999 -9999 -9999 -9999 -9999 -9999 -9999 -9999 -9999 -9999 -9999 -9999 -9999 -9999 12.009108543395996094 14.960804939270019531 16.666790008544921875 17.471857070922851562 20.106264114379882812 21.483144760131835938 19.341876983642578125 14.892361640930175781 8.7400264739990234375 4.7533102035522460938 6.4138264656066894531 4.8940324783325195312 4.3054718971252441406 3.7965450286865234375 4.2847275733947753906 5.3736720085144042969 5.952327728271484375 10.525392532348632812 14.949842453002929688 16.494258880615234375 10.077798843383789062 12.342354774475097656 15.078633308410644531 17.46323394775390625 17.109806060791015625 14.014585494995117188 21.034832000732421875 21.180955886840820312 27.031494140625 26.818775177001953125 22.015939712524414062 19.801065444946289062 16.611764907836914062 18.17237091064453125 15.9232330322265625 20.044025421142578125 20.771749496459960938 18.674272537231445312 11.420993804931640625 9.7617740631103515625 13.74787139892578125 14.908455848693847656 15.582104682922363281 16.077297210693359375 18.537242889404296875 13.004586219787597656 14.269826889038085938 16.565853118896484375 12.722718238830566406 14.306431770324707031 12.324864387512207031 5.0105838775634765625 2.5671885013580322266 5.5123643875122070312 8.9705553054809570312 8.6836881637573242188 9.2037172317504882812 5.1114106178283691406 8.7204122543334960938 13.915456771850585938 18.98601531982421875 17.441799163818359375 11.140386581420898438 10.018418312072753906 8.0082216262817382812 6.6734285354614257812 7.6353855133056640625 7.2587795257568359375 6.7571806907653808594 6.3393435478210449219 4.8220276832580566406 4.060047149658203125 4.0569238662719726562 4.3419451713562011719 2.6511776447296142578 4.1381711959838867188 2.9879779815673828125 1.7272521257400512695 2.4711873531341552734 3.2758719921112060547 6.3072710037231445312 6.7678437232971191406 3.0257608890533447266 -9999 -9999 
-9999 -9999 -9999 -9999 -9999 -9999 -9999 -9999 -9999 -9999 -9999 -9999 -9999 -9999 -9999 -9999 -9999 12.7032928466796875 16.960103988647460938 18.420194625854492188 22.980045318603515625 20.395666122436523438 13.039690017700195312 11.629416465759277344 8.6744012832641601562 4.6459708213806152344 5.8658356666564941406 4.0986881256103515625 2.5862941741943359375 2.8894460201263427734 4.1746487617492675781 5.1908745765686035156 6.8137669563293457031 13.944292068481445312 11.689039230346679688 13.883923530578613281 13.658624649047851562 17.94634246826171875 16.547145843505859375 17.229724884033203125 16.631643295288085938 16.068737030029296875 22.948398590087890625 21.050535202026367188 23.023895263671875 21.725442886352539062 19.802417755126953125 22.451141357421875 23.233556747436523438 19.770555496215820312 13.41068267822265625 15.086260795593261719 17.468555450439453125 19.59844970703125 16.588848114013671875 6.6068358421325683594 10.423456192016601562 15.265345573425292969 13.131238937377929688 12.47454071044921875 10.06352996826171875 9.1814756393432617188 13.311087608337402344 17.558929443359375 16.740503311157226562 12.259074211120605469 8.87250518798828125 4.751811981201171875 3.1162486076354980469 4.5808091163635253906 8.879383087158203125 9.3817968368530273438 8.9351358413696289062 4.0268578529357910156 9.1412248611450195312 12.766729354858398438 16.90276336669921875 17.708225250244140625 16.13488006591796875 14.127524375915527344 11.979150772094726562 12.0478057861328125 10.419599533081054688 7.3023729324340820312 6.0472559928894042969 6.9568114280700683594 8.8537454605102539062 5.3844065666198730469 4.4757738113403320312 5.2107176780700683594 3.6899094581604003906 2.7259652614593505859 2.7616555690765380859 1.9126665592193603516 3.0958111286163330078 2.6059093475341796875 5.1437807083129882812 5.7171983718872070312 -9999 -9999 -9999 
-9999 -9999 -9999 -9999 -9999 -9999 -9999 -9999 -9999 -9999 -9999 -9999 -9999 -9999 -9999 -9999 -9999 12.195421218872070312 14.438810348510742188 16.7062835693359375 22.189592361450195312 14.249199867248535156 7.8893265724182128906 7.0820422172546386719 6.6398692131042480469 3.9896063804626464844 4.3608174324035644531 3.306003570556640625 2.8869445323944091797 2.9856448173522949219 4.1738996505737304688 4.6716713905334472656 8.4312505722045898438 17.480630874633789062 20.118312835693359375 14.573527336120605469 15.079298019409179688 19.255220413208007812 20.609724044799804688 15.721509933471679688 16.409183502197265625 23.8394012451171875 21.342828750610351562 15.382720947265625 22.394893646240234375 21.880460739135742188 15.529880523681640625 21.521167755126953125 25.824705123901367188 19.651811599731445312 23.871511459350585938 25.8708648681640625 25.780744552612304688 22.165151596069335938 19.755153656005859375 10.656147003173828125 5.4551639556884765625 6.8070383071899414062 8.1033802032470703125 11.733173370361328125 10.992223739624023438 10.763994216918945312 14.015841484069824219 18.529123306274414062 20.251428604125976562 13.142332077026367188 5.1102285385131835938 6.9934153556823730469 5.6470551490783691406 3.6385343074798583984 6.789798736572265625 8.15535736083984375 8.8839282989501953125 5.3217711448669433594 8.9315176010131835938 10.323386192321777344 13.425121307373046875 17.489656448364257812 16.556558609008789062 17.127256393432617188 14.716568946838378906 15.212438583374023438 12.837976455688476562 9.6049375534057617188 7.1011319160461425781 6.0448422431945800781 9.0875453948974609375 5.9297657012939453125 5.5506978034973144531 6.0080533027648925781 5.44818115234375 2.4464447498321533203 2.0324034690856933594 2.0955066680908203125 4.0524697303771972656 3.8745205402374267578 3.9282398223876953125 -9999 -9999 -9999 -9999 
-9999 -9999 -9999 -9999 -9999 -9999 -9999 -9999 -9999 -9999 -9999 -9999 -9999 -9999 -9999 -9999 -9999 -9999 8.4235315322875976562 15.370511054992675781 19.86154937744140625 12.98785400390625 7.9301171302795410156 5.9346981048583984375 5.23382568359375 4.7547960281372070312 5.7343282699584960938 4.3759927749633789062 4.4147896766662597656 4.03896331787109375 4.0833296775817871094 3.937023162841796875 9.4398975372314453125 21.847929000854492188 20.072568893432617188 16.020475387573242188 13.805304527282714844 17.066455841064453125 23.311197280883789062 20.430881500244140625 23.889095306396484375 19.891141891479492188 13.237633705139160156 11.717344284057617188 23.465576171875 21.655279159545898438 18.577527999877929688 22.711717605590820312 26.534601211547851562 23.224691390991210938 25.945375442504882812 28.480648040771484375 30.524644851684570312 27.955596923828125 24.036825180053710938 12.877657890319824219 5.4445767402648925781 6.255489349365234375 7.4841527938842773438 15.0944366455078125 16.024705886840820312 15.913281440734863281 16.167036056518554688 19.426128387451171875 21.5321197509765625 17.262302398681640625 5.9255890846252441406 4.6493744850158691406 5.5787215232849121094 3.6351673603057861328 4.1613984107971191406 4.0138192176818847656 5.2100610733032226562 6.6044054031372070312 9.3130083084106445312 10.254935264587402344 14.49530792236328125 16.00189208984375 15.9681549072265625 17.75037384033203125 15.955701828002929688 16.886190414428710938 15.546674728393554688 10.501391410827636719 6.8731212615966796875 5.7617950439453125 7.2405071258544921875 5.9790663719177246094 6.0401353836059570312 6.1755728721618652344 5.0746469497680664062 2.7863447666168212891 2.9983422756195068359 3.0626225471496582031 3.74431610107421875 4.1819448471069335938 3.2275481224060058594 -9999 -9999 -9999 -9999 
-9999 -9999 -9999 -9999 -9999 -9999 -9999 -9999 -9999 -9999 -9999 -9999 -9999 -9999 -9999 -9999 -9999 -9999 7.4386157989501953125 12.523260116577148438 17.69609832763671875 11.140175819396972656 7.4424986839294433594 6.1248035430908203125 4.6343450546264648438 5.6486539840698242188 6.496978759765625 4.6767644882202148438 4.3602938652038574219 4.0396237373352050781 3.5136988162994384766 5.223064422607421875 8.383815765380859375 20.659101486206054688 21.514354705810546875 19.0524139404296875 20.610593795776367188 28.0461273193359375 25.9648590087890625 24.414373397827148438 17.83254241943359375 14.836145401000976562 14.505344390869140625 12.180368423461914062 14.429619789123535156 27.397823333740234375 26.168241500854492188 26.456190109252929688 24.75009918212890625 27.382558822631835938 25.812936782836914062 25.712650299072265625 27.572055816650390625 20.960597991943359375 26.386503219604492188 14.35916900634765625 5.4290385246276855469 9.9417467117309570312 9.8167543411254882812 12.906726837158203125 16.438840866088867188 16.45204925537109375 16.356325149536132812 17.53879547119140625 20.548213958740234375 18.071176528930664062 9.6612348556518554688 2.8606359958648681641 2.9683961868286132812 2.1739847660064697266 2.4853062629699707031 2.5959174633026123047 2.9801619052886962891 4.9746804237365722656 9.8829488754272460938 8.784191131591796875 15.184639930725097656 16.27204132080078125 13.905253410339355469 16.406734466552734375 18.665071487426757812 17.961076736450195312 17.08980560302734375 14.54158782958984375 9.622692108154296875 6.6499013900756835938 6.1668858528137207031 5.9715771675109863281 6.183444976806640625 4.8314962387084960938 3.5293662548065185547 2.6619966030120849609 5.0798468589782714844 5.9964756965637207031 4.8539557456970214844 5.9343404769897460938 4.5215673446655273438 -9999 -9999 -9999 -9999 
-9999 -9999 -9999 -9999 -9999 -9999 -9999 -9999 -9999 -9999 -9999 -9999 -9999 -9999 -9999 -9999 -9999 6.5687279701232910156 8.1979589462280273438 8.8931455612182617188 15.514931678771972656 10.681735992431640625 7.8772406578063964844 4.7102856636047363281 4.4023776054382324219 5.5022797584533691406 4.896240234375 4.1320810317993164062 5.6254267692565917969 5.630886077880859375 5.7653441429138183594 11.602469444274902344 13.329937934875488281 19.409074783325195312 23.231716156005859375 20.806970596313476562 21.72873687744140625 25.405969619750976562 22.972858428955078125 15.041985511779785156 13.198956489562988281 21.4014892578125 22.498636245727539062 20.405048370361328125 14.613678932189941406 27.42934417724609375 25.765359878540039062 20.63426971435546875 19.808704376220703125 26.36212158203125 24.65779876708984375 30.042093276977539062 31.212636947631835938 24.5401611328125 25.778232574462890625 16.473478317260742188 3.6736369132995605469 9.9394750595092773438 10.481985092163085938 10.173691749572753906 13.21651458740234375 12.395819664001464844 11.685100555419921875 8.7174234390258789062 15.387831687927246094 14.888502120971679688 10.070176124572753906 5.2675762176513671875 2.4729390144348144531 2.7090930938720703125 2.7453598976135253906 2.8066544532775878906 2.8316493034362792969 4.5729603767395019531 9.4689235687255859375 9.3335294723510742188 15.146608352661132812 14.069009780883789062 12.478893280029296875 16.193264007568359375 18.557895660400390625 18.01403045654296875 18.070280075073242188 16.175998687744140625 11.029353141784667969 7.23500823974609375 5.8652544021606445312 6.0018649101257324219 5.5834202766418457031 4.0509295463562011719 2.1848320960998535156 1.7820312976837158203 3.2713160514831542969 5.4190111160278320312 5.0281300544738769531 4.9429755210876464844 -9999 -9999 -9999 -9999 -9999 
-9999 -9999 -9999 -9999 -9999 -9999 -9999 -9999 -9999 -9999 -9999 -9999 -9999 -9999 -9999 -9999 -9999 9.6343889236450195312 10.605051994323730469 16.389791488647460938 12.220739364624023438 7.3206052780151367188 6.1299929618835449219 4.6090230941772460938 3.7816865444183349609 3.5252590179443359375 3.5677752494812011719 3.4728541374206542969 4.6744160652160644531 5.163349151611328125 8.3312463760375976562 13.384512901306152344 14.398973464965820312 19.430223464965820312 20.256809234619140625 18.285684585571289062 8.52957916259765625 10.028326988220214844 10.745181083679199219 12.5233612060546875 19.8963775634765625 24.777296066284179688 22.338226318359375 22.035543441772460938 25.158130645751953125 29.368000030517578125 18.44539642333984375 10.7717132568359375 15.587721824645996094 28.316751480102539062 28.499528884887695312 29.870180130004882812 30.324003219604492188 28.661334991455078125 23.706295013427734375 18.650299072265625 4.7048859596252441406 9.5022382736206054688 11.780526161193847656 9.298274993896484375 8.6969099044799804688 6.2691063880920410156 4.2959208488464355469 6.1781187057495117188 8.6814088821411132812 11.454709053039550781 11.131616592407226562 6.7759013175964355469 2.3227331638336181641 3.0112867355346679688 2.8834497928619384766 2.4772231578826904297 2.650447845458984375 3.5513241291046142578 8.9996137619018554688 9.8670816421508789062 14.743062973022460938 15.362099647521972656 15.043148040771484375 17.402820587158203125 16.685863494873046875 17.891881942749023438 20.136714935302734375 15.784757614135742188 11.890203475952148438 10.169813156127929688 7.6538519859313964844 5.4277644157409667969 4.2066798210144042969 5.1711940765380859375 4.7447004318237304688 2.4832887649536132812 5.1634016036987304688 3.1108820438385009766 3.26526641845703125 5.0089206695556640625 -9999 -9999 -9999 -9999 -9999 
-9999 -9999 -9999 -9999 -9999 -9999 -9999 -9999 -9999 -9999 -9999 -9999 -9999 -9999 -9999 -9999 -9999 14.092527389526367188 14.265370368957519531 17.004827499389648438 9.8425235748291015625 9.6170320510864257812 7.8420720100402832031 5.7718172073364257812 3.2078037261962890625 2.9268736839294433594 2.8672604560852050781 2.9279663562774658203 3.0904161930084228516 3.4266250133514404297 7.1088452339172363281 11.571107864379882812 15.249544143676757812 19.159358978271484375 15.133013725280761719 15.454038619995117188 17.094709396362304688 5.7621746063232421875 11.593709945678710938 21.101980209350585938 26.044422149658203125 23.549730300903320312 25.415679931640625 26.068330764770507812 29.327104568481445312 29.3061981201171875 26.094160079956054688 22.182146072387695312 24.139209747314453125 27.131841659545898438 24.178133010864257812 24.228641510009765625 24.455718994140625 26.23302459716796875 26.227876663208007812 20.900165557861328125 7.084209442138671875 7.3363804817199707031 12.597064971923828125 11.196414947509765625 5.8635606765747070312 7.2836766242980957031 6.7926244735717773438 6.8629527091979980469 12.036032676696777344 5.9893794059753417969 5.7523031234741210938 4.6113219261169433594 5.4136242866516113281 2.5385539531707763672 2.0900721549987792969 2.2647862434387207031 2.2216935157775878906 3.0069260597229003906 7.8525753021240234375 7.8884854316711425781 13.460645675659179688 15.881648063659667969 16.853425979614257812 16.759168624877929688 15.360772132873535156 17.414728164672851562 18.455091476440429688 17.047344207763671875 12.695093154907226562 8.8670778274536132812 6.1834225654602050781 4.3954916000366210938 4.2188830375671386719 5.9787316322326660156 6.4378204345703125 4.042201995849609375 5.6851744651794433594 3.0558490753173828125 3.1483643054962158203 -9999 -9999 -9999 -9999 -9999 -9999 
-9999 -9999 -9999 -9999 -9999 -9999 -9999 -9999 -9999 -9999 -9999 -9999 -9999 -9999 -9999 -9999 11.860800743103027344 18.117595672607421875 16.700731277465820312 16.629909515380859375 14.844249725341796875 17.701070785522460938 13.174528121948242188 6.1288738250732421875 2.89788818359375 2.5108592510223388672 2.9031805992126464844 2.7906785011291503906 2.6728222370147705078 2.6343035697937011719 4.6221232414245605469 7.8029732704162597656 13.227232933044433594 18.05860137939453125 13.541046142578125 12.110940933227539062 19.899688720703125 13.641672134399414062 9.4624128341674804688 19.840631484985351562 25.636606216430664062 26.174421310424804688 25.127410888671875 23.948915481567382812 22.567083358764648438 24.8615570068359375 29.829702377319335938 26.658628463745117188 23.938718795776367188 23.9698486328125 24.204570770263671875 26.444061279296875 24.399801254272460938 25.746219635009765625 26.358020782470703125 24.092279434204101562 11.931462287902832031 3.6440458297729492188 4.6729540824890136719 6.4629168510437011719 4.9470062255859375 9.0526380538940429688 7.8132615089416503906 7.5529551506042480469 11.7714996337890625 9.1960706710815429688 4.9417009353637695312 8.68841552734375 8.1789236068725585938 3.0591733455657958984 2.1752231121063232422 2.28369140625 2.3567926883697509766 4.4871993064880371094 6.327358245849609375 6.5914425849914550781 13.094921112060546875 15.0125579833984375 16.039592742919921875 15.757069587707519531 15.044625282287597656 15.891448020935058594 18.85717010498046875 18.039903640747070312 16.158725738525390625 10.61186981201171875 5.7283225059509277344 5.105167388916015625 4.6259932518005371094 5.1209197044372558594 5.6771388053894042969 3.1937654018402099609 5.0898585319519042969 3.6352739334106445312 2.4195644855499267578 -9999 -9999 -9999 -9999 -9999 -9999 
-9999 -9999 -9999 -9999 -9999 -9999 -9999 -9999 -9999 -9999 -9999 -9999 -9999 -9999 -9999 -9999 10.752995491027832031 14.3574676513671875 18.97379302978515625 12.590664863586425781 15.289463043212890625 18.581146240234375 17.18108367919921875 5.8485970497131347656 3.5935106277465820312 3.2676656246185302734 2.4678742885589599609 2.604091644287109375 2.9418125152587890625 3.4307427406311035156 3.5111870765686035156 6.076812744140625 13.460772514343261719 13.431016921997070312 13.069764137268066406 14.544451713562011719 15.074416160583496094 8.8103265762329101562 6.9183025360107421875 16.859416961669921875 26.104043960571289062 23.966924667358398438 26.877964019775390625 21.344369888305664062 24.684322357177734375 28.370706558227539062 29.086839675903320312 25.774646759033203125 23.50391387939453125 24.07654571533203125 21.841646194458007812 25.129171371459960938 25.34410858154296875 28.160724639892578125 29.02020263671875 27.085657119750976562 14.396101951599121094 4.8505096435546875 5.1549510955810546875 4.7020416259765625 5.5199022293090820312 10.319960594177246094 9.7992696762084960938 10.367929458618164062 12.58054351806640625 13.266523361206054688 13.720376968383789062 12.509569168090820312 9.2382555007934570312 4.4785609245300292969 2.2242717742919921875 2.3887724876403808594 2.89153289794921875 5.0344090461730957031 5.8955011367797851562 5.4520177841186523438 11.515523910522460938 14.0790863037109375 13.441044807434082031 15.338025093078613281 13.431321144104003906 11.921839714050292969 12.670226097106933594 13.534707069396972656 15.237743377685546875 11.81749725341796875 5.6691241264343261719 5.1556797027587890625 5.3265070915222167969 4.8041129112243652344 2.9307618141174316406 2.4343931674957275391 3.1457808017730712891 3.1715996265411376953 1.8805139064788818359 -9999 -9999 -9999 -9999 -9999 -9999 
-9999 -9999 -9999 -9999 -9999 -9999 -9999 -9999 -9999 -9999 -9999 -9999 -9999 -9999 -9999 -9999 11.831209182739257812 12.235199928283691406 15.863638877868652344 8.2012834548950195312 14.941981315612792969 15.992884635925292969 12.440657615661621094 6.1032724380493164062 3.8588912487030029297 2.93607330322265625 2.6497867107391357422 3.3039646148681640625 2.9176077842712402344 4.3314528465270996094 3.8677175045013427734 7.1187887191772460938 13.527767181396484375 11.318912506103515625 11.479559898376464844 16.328927993774414062 9.4461069107055664062 6.9507150650024414062 7.583011627197265625 18.420606613159179688 25.23505401611328125 21.262531280517578125 25.735691070556640625 27.530498504638671875 25.600811004638671875 24.208255767822265625 26.700521469116210938 26.932943344116210938 26.423265457153320312 25.903614044189453125 19.248920440673828125 20.027368545532226562 22.780435562133789062 25.072048187255859375 24.6001434326171875 27.003753662109375 18.933534622192382812 9.1746616363525390625 9.3078680038452148438 10.850139617919921875 8.2308073043823242188 10.197679519653320312 6.1833782196044921875 7.0402002334594726562 9.5939149856567382812 11.647446632385253906 12.944467544555664062 10.595170974731445312 7.8230104446411132812 5.639888763427734375 2.8624627590179443359 2.5546457767486572266 3.43491363525390625 5.5124878883361816406 3.9680135250091552734 4.4028463363647460938 11.253818511962890625 13.461866378784179688 13.526092529296875 13.340578079223632812 10.1960906982421875 10.650430679321289062 9.0945558547973632812 11.24233245849609375 13.038191795349121094 9.1400194168090820312 6.2290353775024414062 6.4111843109130859375 5.8312973976135253906 3.6375184059143066406 2.4018881320953369141 2.8416807651519775391 2.4889466762542724609 2.8631312847137451172 2.4349720478057861328 2.2181923389434814453 -9999 -9999 -9999 -9999 -9999 
-9999 -9999 -9999 -9999 -9999 -9999 -9999 -9999 -9999 -9999 -9999 -9999 -9999 -9999 -9999 -9999 11.413302421569824219 10.953875541687011719 12.252889633178710938 11.068996429443359375 17.946624755859375 18.534235000610351562 6.5805368423461914062 5.3763241767883300781 3.146427154541015625 2.8798353672027587891 4.2139883041381835938 3.6982896327972412109 3.2662274837493896484 3.5594692230224609375 3.365604400634765625 5.1936573982238769531 11.392999649047851562 13.942340850830078125 13.179471969604492188 15.443468093872070312 9.7803907394409179688 7.2462930679321289062 12.23435211181640625 21.327219009399414062 19.167455673217773438 14.257671356201171875 18.576837539672851562 27.254198074340820312 27.684740066528320312 24.829763412475585938 24.958614349365234375 27.372121810913085938 29.287881851196289062 29.654918670654296875 25.733243942260742188 19.650426864624023438 22.993656158447265625 24.668077468872070312 25.219373703002929688 28.691595077514648438 23.212545394897460938 12.910075187683105469 10.462981224060058594 8.939983367919921875 7.4202857017517089844 6.3554329872131347656 5.9985408782958984375 7.3755593299865722656 9.5675077438354492188 8.89208984375 8.2935695648193359375 7.8484373092651367188 6.7836041450500488281 6.5893526077270507812 3.5806012153625488281 3.2673456668853759766 3.8029353618621826172 4.0514545440673828125 3.8111572265625 5.2633242607116699219 10.696570396423339844 11.844266891479492188 12.638219833374023438 11.568888664245605469 12.137410163879394531 13.158547401428222656 13.593297004699707031 13.808976173400878906 10.843630790710449219 8.48577880859375 8.3201456069946289062 9.1727447509765625 7.1610536575317382812 2.8530018329620361328 2.3662896156311035156 3.3163869380950927734 4.0505628585815429688 4.7866291999816894531 4.5420160293579101562 -9999 -9999 -9999 -9999 -9999 -9999 
-9999 -9999 -9999 -9999 -9999 -9999 -9999 -9999 -9999 -9999 -9999 -9999 -9999 -9999 -9999 -9999 11.867847442626953125 13.083128929138183594 12.553269386291503906 14.048274040222167969 14.669877052307128906 9.5142917633056640625 5.5850353240966796875 5.2542519569396972656 5.0285587310791015625 4.2738890647888183594 3.6740796566009521484 2.8345322608947753906 3.0619857311248779297 3.1715385913848876953 3.5370376110076904297 5.7545385360717773438 9.6442308425903320312 17.973079681396484375 18.481775283813476562 17.78578948974609375 8.7659215927124023438 9.2500925064086914062 18.575262069702148438 20.212060928344726562 17.660337448120117188 16.891622543334960938 13.876995086669921875 22.250028610229492188 29.172365188598632812 26.511028289794921875 24.73029327392578125 28.524690628051757812 29.219219207763671875 30.4871368408203125 26.833276748657226562 21.922742843627929688 22.170343399047851562 24.855684280395507812 27.113130569458007812 26.88384246826171875 23.57897186279296875 17.539226531982421875 9.1708593368530273438 5.5806608200073242188 4.3616032600402832031 4.3728985786437988281 7.6451287269592285156 9.2768316268920898438 6.2923574447631835938 3.9229035377502441406 3.1792533397674560547 4.6731367111206054688 4.4569501876831054688 4.9424271583557128906 3.3681573867797851562 2.6344189643859863281 3.1903467178344726562 3.2636597156524658203 4.6264891624450683594 4.7935652732849121094 9.1071252822875976562 10.540731430053710938 10.185659408569335938 11.794081687927246094 13.979847908020019531 14.338975906372070312 14.680472373962402344 12.120711326599121094 10.612877845764160156 10.511176109313964844 11.513017654418945312 11.936313629150390625 9.5090312957763671875 4.3979640007019042969 3.2038016319274902344 5.5438818931579589844 7.2934484481811523438 8.4565706253051757812 9.783626556396484375 -9999 -9999 -9999 -9999 -9999 -9999 
-9999 -9999 -9999 -9999 -9999 -9999 -9999 -9999 -9999 -9999 -9999 -9999 -9999 -9999 -9999 -9999 13.723842620849609375 16.412265777587890625 12.321753501892089844 8.6049489974975585938 12.515850067138671875 14.162776947021484375 6.8604955673217773438 6.3551359176635742188 3.9386992454528808594 3.0390679836273193359 2.9179263114929199219 2.7074720859527587891 3.1016132831573486328 3.1495721340179443359 3.9227797985076904297 4.7402606010437011719 8.2063951492309570312 14.956920623779296875 16.30028533935546875 14.501963615417480469 8.6865930557250976562 13.5859527587890625 19.200290679931640625 20.659646987915039062 20.039407730102539062 21.86102294921875 18.38913726806640625 18.582986831665039062 23.531492233276367188 23.837923049926757812 22.240764617919921875 25.477224349975585938 27.304065704345703125 29.945154190063476562 26.113397598266601562 23.845220565795898438 23.748332977294921875 23.089405059814453125 25.928594589233398438 25.559293746948242188 25.1318359375 20.047559738159179688 10.264461517333984375 4.8155364990234375 4.7622432708740234375 5.2456388473510742188 7.1167502403259277344 6.605327606201171875 5.7183051109313964844 4.7264280319213867188 5.1988968849182128906 4.4933185577392578125 3.8990037441253662109 3.7011821269989013672 3.9384748935699462891 3.3529980182647705078 3.2389531135559082031 2.6861407756805419922 4.2543034553527832031 4.5271244049072265625 6.74045562744140625 8.6641521453857421875 9.2120695114135742188 11.884980201721191406 14.424424171447753906 15.011335372924804688 15.051198005676269531 12.395323753356933594 11.666178703308105469 12.005366325378417969 13.333921432495117188 13.731156349182128906 11.453703880310058594 7.7500972747802734375 4.0658268928527832031 4.9213919639587402344 8.4334926605224609375 12.4894256591796875 11.270526885986328125 -9999 -9999 -9999 -9999 -9999 -9999 
-9999 -9999 -9999 -9999 -9999 -9999 -9999 -9999 -9999 -9999 -9999 -9999 -9999 -9999 -9999 -9999 14.584009170532226562 14.367229461669921875 8.2886266708374023438 6.6700396537780761719 13.230145454406738281 10.112127304077148438 6.8646936416625976562 3.9613659381866455078 2.7770707607269287109 2.4801499843597412109 2.3210031986236572266 2.7942888736724853516 4.1726288795471191406 4.32110595703125 3.6505079269409179688 5.47643280029296875 8.610931396484375 15.391325950622558594 19.7725982666015625 11.472654342651367188 6.9912943840026855469 11.83615875244140625 17.665658950805664062 18.949817657470703125 20.452880859375 21.853311538696289062 23.569660186767578125 20.766391754150390625 15.187602043151855469 18.812768936157226562 23.732854843139648438 22.546541213989257812 23.690608978271484375 27.755037307739257812 25.495042800903320312 22.518026351928710938 23.211038589477539062 25.049436569213867188 22.958515167236328125 23.08818817138671875 23.31537628173828125 21.641878128051757812 14.675852775573730469 7.3043560981750488281 5.56304931640625 4.9515810012817382812 4.8251123428344726562 3.7426023483276367188 3.7084648609161376953 5.6063323020935058594 6.8350968360900878906 4.4427738189697265625 4.1377038955688476562 3.9145226478576660156 4.4678092002868652344 4.5979895591735839844 3.2335643768310546875 2.7490146160125732422 3.4666471481323242188 3.6293358802795410156 4.5702004432678222656 6.5502648353576660156 8.0870923995971679688 10.753495216369628906 13.462071418762207031 15.662332534790039062 15.628180503845214844 15.2059478759765625 14.431887626647949219 13.728485107421875 13.847230911254882812 12.741598129272460938 12.698243141174316406 11.091462135314941406 6.7487721443176269531 8.570743560791015625 10.9739532470703125 13.511158943176269531 11.935398101806640625 -9999 -9999 -9999 -9999 -9999 -9999 
-9999 -9999 -9999 -9999 -9999 -9999 -9999 -9999 -9999 -9999 -9999 -9999 -9999 -9999 -9999 -9999 17.167657852172851562 12.941981315612792969 9.1043558120727539062 11.198822021484375 10.340343475341796875 6.8880634307861328125 5.0798139572143554688 3.2049906253814697266 2.8564291000366210938 2.3565948009490966797 2.6953501701354980469 2.7780551910400390625 4.7255640029907226562 6.8767948150634765625 3.7288198471069335938 7.0464568138122558594 12.598602294921875 14.244902610778808594 12.60967254638671875 7.4029302597045898438 10.066674232482910156 15.602703094482421875 17.611469268798828125 18.955770492553710938 20.786684036254882812 23.625802993774414062 23.817033767700195312 21.013341903686523438 13.890517234802246094 18.413299560546875 23.975353240966796875 22.211114883422851562 18.331338882446289062 20.950887680053710938 22.410366058349609375 21.684801101684570312 21.524261474609375 19.5275115966796875 17.72371673583984375 19.601169586181640625 -9999 20.355348587036132812 17.677783966064453125 8.9587984085083007812 3.4114665985107421875 3.9261658191680908203 4.1749424934387207031 4.33046722412109375 4.2646126747131347656 4.8675026893615722656 6.1734204292297363281 4.3649859428405761719 3.8689227104187011719 4.2262978553771972656 4.6638474464416503906 4.8429441452026367188 2.9321811199188232422 2.3439404964447021484 2.5126945972442626953 2.6818959712982177734 3.9277329444885253906 7.2068777084350585938 9.9307336807250976562 11.214717864990234375 14.771649360656738281 17.198877334594726562 15.874079704284667969 15.837995529174804688 12.685458183288574219 13.975184440612792969 14.038313865661621094 12.497179031372070312 13.09441375732421875 10.10324859619140625 9.7099657058715820312 11.816579818725585938 12.603913307189941406 13.050036430358886719 14.136218070983886719 14.909564971923828125 -9999 -9999 -9999 -9999 -9999 
-9999 -9999 -9999 -9999 -9999 -9999 -9999 -9999 -9999 -9999 -9999 -9999 -9999 -9999 -9999 -9999 17.749752044677734375 14.004279136657714844 9.0951051712036132812 8.5646944046020507812 9.4524145126342773438 9.9576177597045898438 7.0297393798828125 4.3254747390747070312 2.9061343669891357422 2.4236166477203369141 2.7215180397033691406 2.7295954227447509766 3.2016012668609619141 4.8973541259765625 3.8461058139801025391 7.5710053443908691406 13.865194320678710938 14.163385391235351562 8.2324199676513671875 7.5829839706420898438 14.298488616943359375 16.789340972900390625 17.269420623779296875 19.098867416381835938 21.064891815185546875 24.385801315307617188 24.0740966796875 20.57727813720703125 17.471616744995117188 23.25472259521484375 23.1458282470703125 20.617218017578125 18.433902740478515625 15.15123748779296875 18.077116012573242188 19.417032241821289062 20.112092971801757812 18.284189224243164062 -9999 -9999 -9999 -9999 17.900331497192382812 9.7559194564819335938 4.1251034736633300781 5.5042328834533691406 4.821041107177734375 4.7685575485229492188 4.3925914764404296875 3.4085493087768554688 2.9161329269409179688 2.9506587982177734375 3.3258140087127685547 3.7033016681671142578 4.6997938156127929688 4.4519562721252441406 3.3170201778411865234 2.1106569766998291016 2.7536268234252929688 2.8738040924072265625 4.5167717933654785156 8.7859210968017578125 9.5396108627319335938 11.898589134216308594 14.304315567016601562 13.980303764343261719 14.194470405578613281 15.249662399291992188 12.061063766479492188 11.140797615051269531 13.447249412536621094 14.944134712219238281 12.853285789489746094 10.266567230224609375 9.956050872802734375 10.818984031677246094 13.62270355224609375 12.816868782043457031 12.978717803955078125 11.708426475524902344 8.271915435791015625 5.6000576019287109375 -9999 -9999 -9999 
-9999 -9999 -9999 -9999 -9999 -9999 -9999 -9999 -9999 -9999 -9999 -9999 -9999 -9999 -9999 -9999 16.269964218139648438 17.760980606079101562 12.284773826599121094 11.937044143676757812 16.73699951171875 16.112209320068359375 8.992618560791015625 4.8759937286376953125 2.9833486080169677734 2.2450664043426513672 2.611255645751953125 3.8469796180725097656 3.9690749645233154297 6.0100598335266113281 4.7910437583923339844 8.8637704849243164062 14.706904411315917969 12.680734634399414062 9.437259674072265625 8.9843606948852539062 12.910106658935546875 15.280125617980957031 18.678770065307617188 19.4816131591796875 21.543981552124023438 22.061159133911132812 21.882913589477539062 16.088556289672851562 16.675455093383789062 20.965667724609375 20.51749420166015625 18.777276992797851562 18.984334945678710938 -9999 -9999 -9999 17.935144424438476562 -9999 -9999 -9999 -9999 -9999 -9999 9.4429416656494140625 6.7384395599365234375 11.563678741455078125 7.3925166130065917969 5.5203738212585449219 4.7676820755004882812 3.4027070999145507812 2.1830909252166748047 2.721221923828125 3.3079273700714111328 3.2304117679595947266 3.6180443763732910156 3.4294757843017578125 3.3844709396362304688 2.6905655860900878906 3.2417979240417480469 2.8040482997894287109 3.7885787487030029297 5.7375164031982421875 5.3502740859985351562 6.8579969406127929688 9.23386383056640625 10.427919387817382812 12.960910797119140625 14.866138458251953125 13.541486740112304688 11.109449386596679688 13.614385604858398438 15.479071617126464844 16.197599411010742188 17.955701828002929688 14.683378219604492188 13.948530197143554688 12.121970176696777344 12.228901863098144531 -9999 -9999 8.5493640899658203125 -9999 -9999 -9999 -9999 
-9999 -9999 -9999 -9999 -9999 -9999 -9999 -9999 -9999 -9999 -9999 -9999 -9999 -9999 -9999 -9999 -9999 15.560698509216308594 12.725965499877929688 12.54854583740234375 17.37737274169921875 18.216464996337890625 13.34928131103515625 5.0698175430297851562 2.8887887001037597656 3.4500904083251953125 3.3864946365356445312 5.6211528778076171875 5.3050546646118164062 5.0589427947998046875 5.9191641807556152344 8.19342041015625 11.485227584838867188 10.862634658813476562 7.7711834907531738281 9.8612375259399414062 14.7191162109375 20.14093017578125 22.896497726440429688 22.6876678466796875 20.964475631713867188 19.69768524169921875 17.1851806640625 14.551439285278320312 15.318261146545410156 17.135101318359375 17.25426483154296875 16.206638336181640625 -9999 -9999 -9999 -9999 -9999 -9999 -9999 -9999 -9999 -9999 -9999 -9999 -9999 -9999 5.2679638862609863281 4.8653874397277832031 4.3508787155151367188 3.4400837421417236328 2.2545137405395507812 2.7291591167449951172 2.8689835071563720703 3.1848781108856201172 3.2121703624725341797 3.2673449516296386719 2.6056253910064697266 2.2788715362548828125 2.9759809970855712891 3.2206566333770751953 2.8939361572265625 4.5079379081726074219 7.1133818626403808594 7.44976806640625 6.6429290771484375 7.8125762939453125 10.004709243774414062 11.696432113647460938 14.403995513916015625 14.536610603332519531 14.495850563049316406 17.230022430419921875 20.171924591064453125 18.518503189086914062 16.311727523803710938 16.658151626586914062 16.99420928955078125 -9999 -9999 -9999 -9999 -9999 -9999 -9999 -9999 
-9999 -9999 -9999 -9999 -9999 -9999 -9999 -9999 -9999 -9999 -9999 -9999 -9999 -9999 -9999 -9999 16.403642654418945312 17.656301498413085938 13.885814666748046875 13.87603759765625 15.877842903137207031 16.309217453002929688 14.072034835815429688 8.4679040908813476562 6.98778533935546875 3.4603431224822998047 3.4893984794616699219 5.9167919158935546875 4.3066616058349609375 4.6261034011840820312 7.8880209922790527344 10.119265556335449219 11.530115127563476562 9.259067535400390625 7.4236469268798828125 14.365582466125488281 18.944852828979492188 23.235311508178710938 22.677980422973632812 21.330057144165039062 17.73203277587890625 17.485288619995117188 14.565673828125 14.08023834228515625 16.177114486694335938 15.437827110290527344 14.091289520263671875 11.93436431884765625 -9999 -9999 -9999 -9999 -9999 -9999 -9999 -9999 -9999 -9999 -9999 -9999 -9999 -9999 -9999 4.7208895683288574219 4.2036423683166503906 3.8957929611206054688 2.7576706409454345703 2.0795884132385253906 2.4651033878326416016 2.5981340408325195312 2.8087441921234130859 2.1776432991027832031 1.9550575017929077148 2.1038997173309326172 2.5395288467407226562 2.7940936088562011719 2.2425792217254638672 2.8412463665008544922 4.2478842735290527344 7.6685891151428222656 9.357196807861328125 8.9610614776611328125 8.4373340606689453125 8.3204746246337890625 9.9451007843017578125 17.062744140625 16.255105972290039062 17.593202590942382812 16.8962860107421875 -9999 -9999 -9999 -9999 -9999 -9999 -9999 -9999 -9999 -9999 -9999 -9999 
-9999 -9999 -9999 -9999 -9999 -9999 -9999 -9999 -9999 -9999 -9999 -9999 -9999 -9999 -9999 -9999 16.152782440185546875 16.556819915771484375 15.178579330444335938 14.081131935119628906 14.429442405700683594 14.804259300231933594 7.76828765869140625 5.9769229888916015625 4.2548799514770507812 3.8045210838317871094 3.9031436443328857422 7.7458653450012207031 4.3850035667419433594 5.7814602851867675781 10.212468147277832031 12.512160301208496094 11.4054107666015625 7.6633744239807128906 10.744520187377929688 15.450044631958007812 16.312572479248046875 23.026092529296875 22.711071014404296875 20.014636993408203125 18.670965194702148438 15.087614059448242188 14.2949066162109375 12.701446533203125 14.03290557861328125 14.023363113403320312 11.6923675537109375 8.9296789169311523438 -9999 -9999 -9999 -9999 -9999 -9999 -9999 -9999 -9999 -9999 -9999 -9999 -9999 -9999 -9999 -9999 4.0150980949401855469 3.8236558437347412109 2.9187006950378417969 1.9740198850631713867 2.2233304977416992188 1.9875848293304443359 2.0117771625518798828 2.0503151416778564453 2.8355467319488525391 2.8288569450378417969 2.6969816684722900391 2.4231212139129638672 2.5564012527465820312 2.6337370872497558594 3.2785959243774414062 4.4117994308471679688 6.9695496559143066406 9.7372484207153320312 10.102033615112304688 8.6418552398681640625 9.6603374481201171875 16.109325408935546875 16.33765411376953125 -9999 -9999 -9999 -9999 -9999 -9999 -9999 -9999 -9999 -9999 -9999 -9999 -9999 -9999 
-9999 -9999 -9999 -9999 -9999 -9999 -9999 -9999 -9999 -9999 -9999 -9999 -9999 -9999 -9999 -9999 15.243246078491210938 16.627338409423828125 16.760990142822265625 14.478896141052246094 15.987085342407226562 15.337360382080078125 6.1358470916748046875 9.29644775390625 5.4426937103271484375 4.2451796531677246094 4.77397918701171875 8.7954502105712890625 5.559513092041015625 7.6012139320373535156 11.726169586181640625 13.246596336364746094 8.1741304397583007812 9.6262254714965820312 14.442919731140136719 15.777004241943359375 19.194210052490234375 21.46858978271484375 19.85184478759765625 18.779600143432617188 18.32746124267578125 15.815704345703125 11.309105873107910156 11.634583473205566406 -9999 -9999 -9999 7.4541807174682617188 -9999 -9999 -9999 -9999 -9999 -9999 -9999 -9999 -9999 -9999 -9999 -9999 -9999 -9999 -9999 -9999 4.01044464111328125 3.7423777580261230469 3.5275731086730957031 3.3526198863983154297 2.4662342071533203125 1.8691389560699462891 2.6616985797882080078 3.616527557373046875 2.6757578849792480469 2.8225100040435791016 3.2826113700866699219 2.8902525901794433594 2.9509057998657226562 2.5337901115417480469 3.1743459701538085938 4.1117358207702636719 5.5776524543762207031 4.7746052742004394531 7.443546295166015625 10.176163673400878906 10.469006538391113281 13.200108528137207031 12.925004959106445312 -9999 -9999 -9999 -9999 -9999 -9999 -9999 -9999 -9999 -9999 -9999 -9999 -9999 -9999 
-9999 -9999 -9999 -9999 -9999 -9999 -9999 -9999 -9999 -9999 -9999 -9999 -9999 -9999 -9999 -9999 16.540330886840820312 18.1138916015625 17.681514739990234375 16.777959823608398438 16.250812530517578125 15.127420425415039062 5.4669709205627441406 8.40673065185546875 3.9091234207153320312 4.2297163009643554688 5.1419129371643066406 7.4945368766784667969 5.4191622734069824219 9.2116270065307617188 12.113402366638183594 12.023833274841308594 9.045269012451171875 15.338869094848632812 17.579050064086914062 16.761621475219726562 19.564792633056640625 18.693132400512695312 16.934091567993164062 13.853834152221679688 17.325010299682617188 16.424343109130859375 -9999 -9999 -9999 -9999 -9999 -9999 -9999 -9999 -9999 -9999 -9999 -9999 -9999 -9999 -9999 -9999 -9999 -9999 -9999 -9999 -9999 -9999 4.0834226608276367188 4.2756495475769042969 -9999 4.1519727706909179688 3.4529139995574951172 2.7398481369018554688 3.4825608730316162109 3.6282591819763183594 2.7977998256683349609 3.3713161945343017578 3.6498517990112304688 3.0824365615844726562 2.7356104850769042969 2.275897979736328125 2.6510899066925048828 2.9869205951690673828 3.3161141872406005859 3.4735498428344726562 4.4416136741638183594 6.1291589736938476562 8.1763858795166015625 12.578922271728515625 -9999 -9999 -9999 -9999 -9999 -9999 -9999 -9999 -9999 -9999 -9999 -9999 -9999 -9999 -9999 
-9999 -9999 -9999 -9999 -9999 -9999 -9999 -9999 -9999 -9999 -9999 -9999 -9999 -9999 -9999 -9999 17.942899703979492188 18.468400955200195312 16.377855300903320312 15.404917716979980469 17.252138137817382812 10.168334007263183594 8.3356170654296875 7.5563230514526367188 3.1805427074432373047 5.5359263420104980469 7.2044439315795898438 7.0099949836730957031 7.2454237937927246094 10.177081108093261719 12.94384002685546875 11.163862228393554688 9.9992418289184570312 16.54337310791015625 19.862047195434570312 16.16448974609375 17.327997207641601562 16.497081756591796875 14.712260246276855469 14.210888862609863281 15.184666633605957031 -9999 -9999 -9999 -9999 -9999 -9999 -9999 -9999 -9999 -9999 -9999 -9999 -9999 -9999 -9999 -9999 -9999 -9999 -9999 -9999 -9999 -9999 -9999 -9999 -9999 -9999 -9999 3.8991041183471679688 3.3314707279205322266 3.1230607032775878906 3.1707723140716552734 3.5468173027038574219 3.9447882175445556641 4.3964624404907226562 2.3733906745910644531 2.1081409454345703125 1.8928009271621704102 2.1849005222320556641 2.5151426792144775391 2.6215212345123291016 3.1740510463714599609 4.195953369140625 4.8754558563232421875 -9999 -9999 -9999 -9999 -9999 -9999 -9999 -9999 -9999 -9999 -9999 -9999 -9999 -9999 -9999 -9999 -9999 
-9999 -9999 -9999 -9999 -9999 -9999 -9999 -9999 -9999 -9999 -9999 -9999 -9999 -9999 -9999 -9999 16.046480178833007812 18.865316390991210938 17.704679489135742188 14.481510162353515625 18.466373443603515625 11.185570716857910156 9.3561944961547851562 8.4401397705078125 4.4718823432922363281 7.2099218368530273438 4.9537510871887207031 7.4248647689819335938 8.78363800048828125 10.712465286254882812 10.771290779113769531 8.5769672393798828125 9.565212249755859375 15.005312919616699219 17.471132278442382812 17.240053176879882812 14.383169174194335938 12.330186843872070312 14.109398841857910156 14.071104049682617188 13.015461921691894531 -9999 -9999 -9999 -9999 -9999 -9999 -9999 -9999 -9999 -9999 -9999 -9999 -9999 -9999 -9999 -9999 -9999 -9999 -9999 -9999 -9999 -9999 -9999 -9999 -9999 -9999 -9999 -9999 -9999 3.2419908046722412109 -9999 3.4554781913757324219 3.395381927490234375 4.2766923904418945312 2.6094295978546142578 1.7656198740005493164 2.4424235820770263672 2.5499258041381835938 2.8291482925415039062 3.0729908943176269531 2.8860659599304199219 3.4432203769683837891 4.0686774253845214844 -9999 -9999 -9999 -9999 -9999 -9999 -9999 -9999 -9999 -9999 -9999 -9999 -9999 -9999 -9999 -9999 -9999 
-9999 -9999 -9999 -9999 -9999 -9999 -9999 -9999 -9999 -9999 -9999 -9999 -9999 -9999 -9999 -9999 16.006404876708984375 18.183300018310546875 12.331154823303222656 13.203477859497070312 17.468988418579101562 11.763714790344238281 6.9889554977416992188 3.9236700534820556641 4.9074316024780273438 5.9393706321716308594 6.9294066429138183594 7.6039819717407226562 8.360477447509765625 9.3919744491577148438 8.2646818161010742188 9.8377246856689453125 18.122133255004882812 18.436687469482421875 15.097711563110351562 15.266027450561523438 11.0974273681640625 11.460513114929199219 14.673282623291015625 12.927414894104003906 11.9145965576171875 -9999 -9999 -9999 -9999 -9999 -9999 -9999 -9999 -9999 -9999 -9999 -9999 -9999 -9999 -9999 -9999 -9999 -9999 -9999 -9999 -9999 -9999 -9999 -9999 -9999 -9999 -9999 -9999 -9999 -9999 -9999 -9999 2.8669950962066650391 3.3949856758117675781 3.3825664520263671875 2.6129240989685058594 2.6903066635131835938 2.5380487442016601562 2.8141303062438964844 2.7858321666717529297 2.6289465427398681641 2.8993139266967773438 3.1940722465515136719 -9999 -9999 -9999 -9999 -9999 -9999 -9999 -9999 -9999 -9999 -9999 -9999 -9999 -9999 -9999 -9999 -9999 
-9999 -9999 -9999 -9999 -9999 -9999 -9999 -9999 -9999 -9999 -9999 -9999 -9999 -9999 -9999 -9999 -9999 -9999 -9999 -9999 -9999 -9999 -9999 -9999 -9999 -9999 6.3672800064086914062 6.0199832916259765625 5.6161856651306152344 8.378009796142578125 11.308947563171386719 13.94637298583984375 20.818393707275390625 23.969591140747070312 13.356919288635253906 11.650712013244628906 12.143521308898925781 12.618922233581542969 11.966289520263671875 12.981642723083496094 -9999 -9999 -9999 -9999 -9999 -9999 -9999 -9999 -9999 -9999 -9999 -9999 -9999 -9999 -9999 -9999 -9999 -9999 -9999 -9999 -9999 -9999 -9999 -9999 -9999 -9999 -9999 -9999 -9999 -9999 -9999 -9999 -9999 2.7853140830993652344 2.9371492862701416016 3.6187379360198974609 3.1191339492797851562 2.2453746795654296875 2.4581775665283203125 2.8217453956604003906 2.7271778583526611328 2.5827867984771728516 2.0727422237396240234 -9999 -9999 -9999 -9999 -9999 -9999 -9999 -9999 -9999 -9999 -9999 -9999 -9999 -9999 -9999 -9999 -9999 -9999 
-9999 -9999 -9999 -9999 -9999 -9999 -9999 -9999 -9999 -9999 -9999 -9999 -9999 -9999 -9999 -9999 -9999 -9999 -9999 -9999 -9999 -9999 -9999 -9999 -9999 -9999 -9999 5.108310699462890625 5.037197113037109375 9.6614513397216796875 15.416688919067382812 15.68035125732421875 21.20209503173828125 27.651105880737304688 18.229673385620117188 14.693935394287109375 15.657561302185058594 13.257740020751953125 15.076357841491699219 14.693088531494140625 -9999 -9999 -9999 -9999 -9999 -9999 -9999 -9999 -9999 -9999 -9999 -9999 -9999 -9999 -9999 -9999 -9999 -9999 -9999 -9999 -9999 -9999 -9999 -9999 -9999 -9999 -9999 -9999 -9999 -9999 -9999 -9999 -9999 -9999 3.0690667629241943359 3.5474822521209716797 3.3056435585021972656 2.5180959701538085938 2.3699896335601806641 2.7034206390380859375 2.2587268352508544922 2.05207061767578125 1.9344584941864013672 -9999 -9999 -9999 -9999 -9999 -9999 -9999 -9999 -9999 -9999 -9999 -9999 -9999 -9999 -9999 -9999 -9999 -9999 
-9999 -9999 -9999 -9999 -9999 -9999 -9999 -9999 -9999 -9999 -9999 -9999 -9999 -9999 -9999 -9999 -9999 -9999 -9999 -9999 -9999 -9999 -9999 -9999 -9999 -9999 -9999 5.9289503097534179688 5.9798502922058105469 9.319305419921875 17.65258026123046875 19.06864166259765625 22.761089324951171875 26.01097869873046875 26.943284988403320312 23.459026336669921875 18.35491180419921875 13.543942451477050781 17.455045700073242188 -9999 -9999 -9999 -9999 -9999 -9999 -9999 -9999 -9999 -9999 -9999 -9999 -9999 -9999 -9999 -9999 -9999 -9999 -9999 -9999 -9999 -9999 -9999 -9999 -9999 -9999 -9999 -9999 -9999 -9999 -9999 -9999 -9999 -9999 -9999 3.0873501300811767578 2.7340481281280517578 2.7065718173980712891 2.8258826732635498047 3.2454195022583007812 3.5163013935089111328 3.2831478118896484375 2.7397837638854980469 -9999 -9999 -9999 -9999 -9999 -9999 -9999 -9999 -9999 -9999 -9999 -9999 -9999 -9999 -9999 -9999 -9999 -9999 -9999 
-9999 -9999 -9999 -9999 -9999 -9999 -9999 -9999 -9999 -9999 -9999 -9999 -9999 -9999 -9999 -9999 -9999 -9999 -9999 -9999 -9999 -9999 -9999 -9999 -9999 -9999 -9999 -9999 5.2993488311767578125 8.056884765625 15.573908805847167969 22.829515457153320312 -9999 26.111873626708984375 29.676788330078125 29.650308609008789062 26.482318878173828125 17.178228378295898438 -9999 -9999 -9999 -9999 -9999 -9999 -9999 -9999 -9999 -9999 -9999 -9999 -9999 -9999 -9999 -9999 -9999 -9999 -9999 -9999 -9999 -9999 -9999 -9999 -9999 -9999 -9999 -9999 -9999 -9999 -9999 -9999 -9999 -9999 -9999 -9999 3.5244936943054199219 3.6644108295440673828 3.3995449542999267578 3.2196567058563232422 3.581104278564453125 3.0915203094482421875 3.7670309543609619141 -9999 -9999 -9999 -9999 -9999 -9999 -9999 -9999 -9999 -9999 -9999 -9999 -9999 -9999 -9999 -9999 -9999 -9999 -9999 -9999 
-9999 -9999 -9999 -9999 -9999 -9999 -9999 -9999 -9999 -9999 -9999 -9999 -9999 -9999 -9999 -9999 -9999 -9999 -9999 -9999 -9999 -9999 -9999 -9999 -9999 -9999 -9999 -9999 -9999 -9999 -9999 -9999 -9999 -9999 21.575359344482421875 22.421947479248046875 25.570817947387695312 22.983875274658203125 -9999 -9999 -9999 -9999 -9999 -9999 -9999 -9999 -9999 -9999 -9999 -9999 -9999 -9999 -9999 -9999 -9999 -9999 -9999 -9999 -9999 -9999 -9999 -9999 -9999 -9999 -9999 -9999 -9999 -9999 -9999 -9999 -9999 -9999 -9999 -9999 3.9820680618286132812 3.5988020896911621094 3.6461663246154785156 3.0165684223175048828 2.9837803840637207031 2.847476959228515625 3.2526385784149169922 -9999 -9999 -9999 -9999 -9999 -9999 -9999 -9999 -9999 -9999 -9999 -9999 -9999 -9999 -9999 -9999 -9999 -9999 -9999 -9999 
-9999 -9999 -9999 -9999 -9999 -9999 -9999 -9999 -9999 -9999 -9999 -9999 -9999 -9999 -9999 -9999 -9999 -9999 -9999 -9999 -9999 -9999 -9999 -9999 -9999 -9999 -9999 -9999 -9999 -9999 -9999 -9999 -9999 -9999 -9999 -9999 22.6016998291015625 26.766864776611328125 -9999 -9999 -9999 -9999 -9999 -9999 -9999 -9999 -9999 -9999 -9999 -9999 -9999 -9999 -9999 -9999 -9999 -9999 -9999 -9999 -9999 -9999 -9999 -9999 -9999 -9999 -9999 -9999 -9999 -9999 -9999 -9999 -9999 -9999 -9999 -9999 4.0431976318359375 3.9049208164215087891 3.7659425735473632812 3.7000102996826171875 3.0881819725036621094 3.3679754734039306641 3.3436200618743896484 -9999 -9999 -9999 -9999 -9999 -9999 -9999 -9999 -9999 -9999 -9999 -9999 -9999 -9999 -9999 -9999 -9999 -9999 -9999 -9999 
-9999 -9999 -9999 -9999 -9999 -9999 -9999 -9999 -9999 -9999 -9999 -9999 -9999 -9999 -9999 -9999 -9999 -9999 -9999 -9999 -9999 -9999 -9999 -9999 -9999 -9999 -9999 -9999 -9999 -9999 -9999 -9999 -9999 -9999 -9999 -9999 -9999 -9999 -9999 -9999 -9999 -9999 -9999 -9999 -9999 -9999 -9999 -9999 -9999 -9999 -9999 -9999 -9999 -9999 -9999 -9999 -9999 -9999 -9999 -9999 -9999 -9999 -9999 -9999 -9999 -9999 -9999 -9999 -9999 -9999 -9999 -9999 -9999 -9999 -9999 -9999 3.5251421928405761719 4.017803192138671875 6.9103751182556152344 8.2140102386474609375 5.4737143516540527344 -9999 -9999 -9999 -9999 -9999 -9999 -9999 -9999 -9999 -9999 -9999 -9999 -9999 -9999 -9999 -9999 -9999 -9999 -9999 -9999 
-9999 -9999 -9999 -9999 -9999 -9999 -9999 -9999 -9999 -9999 -9999 -9999 -9999 -9999 -9999 -9999 -9999 -9999 -9999 -9999 -9999 -9999 -9999 -9999 -9999 -9999 -9999 -9999 -9999 -9999 -9999 -9999 -9999 -9999 -9999 -9999 -9999 -9999 -9999 -9999 -9999 -9999 -9999 -9999 -9999 -9999 -9999 -9999 -9999 -9999 -9999 -9999 -9999 -9999 -9999 -9999 -9999 -9999 -9999 -9999 -9999 -9999 -9999 -9999 -9999 -9999 -9999 -9999 -9999 -9999 -9999 -9999 -9999 -9999 -9999 -9999 -9999 7.6572642326354980469 9.5672979354858398438 11.906483650207519531 7.3452372550964355469 -9999 -9999 -9999 -9999 -9999 -9999 -9999 -9999 -9999 -9999 -9999 -9999 -9999 -9999 -9999 -9999 -9999 -9999 -9999 -9999 
-9999 -9999 -9999 -9999 -9999 -9999 -9999 -9999 -9999 -9999 -9999 -9999 -9999 -9999 -9999 -9999 -9999 -9999 -9999 -9999 -9999 -9999 -9999 -9999 -9999 -9999 -9999 -9999 -9999 -9999 -9999 -9999 -9999 -9999 -9999 -9999 -9999 -9999 -9999 -9999 -9999 -9999 -9999 -9999 -9999 -9999 -9999 -9999 -9999 -9999 -9999 -9999 -9999 -9999 -9999 -9999 -9999 -9999 -9999 -9999 -9999 -9999 -9999 -9999 -9999 -9999 -9999 -9999 -9999 -9999 -9999 -9999 -9999 -9999 -9999 -9999 -9999 11.032898902893066406 10.342861175537109375 12.967060089111328125 8.1539354324340820312 10.306385040283203125 -9999 -9999 -9999 -9999 -9999 -9999 -9999 -9999 -9999 -9999 -9999 -9999 -9999 -9999 -9999 -9999 -9999 -9999 -9999 
-9999 -9999 -9999 -9999 -9999 -9999 -9999 -9999 -9999 -9999 -9999 -9999 -9999 -9999 -9999 -9999 -9999 -9999 -9999 -9999 -9999 -9999 -9999 -9999 -9999 -9999 -9999 -9999 -9999 -9999 -9999 -9999 -9999 -9999 -9999 -9999 -9999 -9999 -9999 -9999 -9999 -9999 -9999 -9999 -9999 -9999 -9999 -9999 -9999 -9999 -9999 -9999 -9999 -9999 -9999 -9999 -9999 -9999 -9999 -9999 -9999 -9999 -9999 -9999 -9999 -9999 -9999 -9999 -9999 -9999 -9999 -9999 -9999 -9999 -9999 -9999 -9999 -9999 -9999 14.877404212951660156 10.686229705810546875 8.6915760040283203125 -9999 -9999 -9999 -9999 -9999 -9999 -9999 -9999 -9999 -9999 -9999 -9999 -9999 -9999 -9999 -9999 -9999 -9999 -9999 
-9999 -9999 -9999 -9999 -9999 -9999 -9999 -9999 -9999 -9999 -9999 -9999 -9999 -9999 -9999 -9999 -9999 -9999 -9999 -9999 -9999 -9999 -9999 -9999 -9999 -9999 -9999 -9999 -9999 -9999 -9999 -9999 -9999 -9999 -9999 -9999 -9999 -9999 -9999 -9999 -9999 -9999 -9999 -9999 -9999 -9999 -9999 -9999 -9999 -9999 -9999 -9999 -9999 -9999 -9999 -9999 -9999 -9999 -9999 -9999 -9999 -9999 -9999 -9999 -9999 -9999 -9999 -9999 -9999 -9999 -9999 -9999 -9999 -9999 -9999 -9999 -9999 -9999 -9999 -9999 14.109710693359375 9.4045648574829101562 -9999 -9999 -9999 -9999 -9999 -9999 -9999 -9999 -9999 -9999 -9999 -9999 -9999 -9999 -9999 -9999 -9999 -9999 -9999 
